; generated by PrusaSlicer 2.8.1+win64 on 2024-12-07 at 09:59:24 UTC


;
;
; 

; external perimeters extrusion width = 0.45mm
; perimeters extrusion width = 0.45mm
; infill extrusion width = 0.45mm
; solid infill extrusion width = 0.45mm
; top infill extrusion width = 0.40mm
; support material extrusion width = 0.35mm
; first layer extrusion width = 0.42mm

M73 P0 R81
M73 Q0 S82
M201 X1000 Y1000 Z200 E5000 ; sets maximum accelerations, mm/sec^2
M203 X200 Y200 Z12 E120 ; sets maximum feedrates, mm / sec
M204 S1250 T1250 ; sets acceleration (S) and retract acceleration (R), mm/sec^2
M205 X8.00 Y8.00 Z0.40 E4.50 ; sets the jerk limits, mm/sec
M205 S0 T0 ; sets the minimum extruding and travel feed rate, mm/sec

; printing object Leg v3 parts v2.stl_1 id:0 copy 0
; stop printing object Leg v3 parts v2.stl_1 id:0 copy 0

;TYPE:Custom
M862.3 P "MK3S" ; printer model check
M862.1 P0.4 ; nozzle diameter check
M115 U3.14.0 ; tell printer latest fw version
G90 ; use absolute coordinates
M83 ; extruder relative mode
M104 S240 ; set extruder temp
M140 S85 ; set bed temp
M190 S85 ; wait for bed temp
M109 S240 ; wait for extruder temp
G28 W ; home all without mesh bed level
G80 X97.5829 Y67.0829 W54.8342 H73.0442 ; mesh bed levelling

G1 Z0.2 F720
G1 Y-3 F1000 ; go outside print area
G92 E0
G1 X60 E9 F1000 ; intro line
G1 X100 E12.5 F1000 ; intro line

G92 E0
M221 S95

; Don't change E values below. Excessive value can damage the printer.
M907 E430 ; set extruder motor current
G21 ; set units to millimeters
G90 ; use absolute coordinates
M83 ; use relative distances for extrusion

M900 K0.08 ; Filament gcode LA 1.5
M900 K45 ; Filament gcode LA 1.0




M107
;LAYER_CHANGE
;Z:0.2
;HEIGHT:0.2
G1 E-1 F2100
G1 Z.4 F720
G1 X98.162 Y68.212 F10800
G1 Z.2 F720
G1 E1 F2100
M204 S800
;TYPE:Skirt/Brim
;WIDTH:0.42
G1 F1200
G1 X99.195 Y67.409 E.04102
G1 X99.96 Y67.271 E.02437
G1 X150.04 Y67.271 E1.57022
G1 X151.288 Y67.662 E.04101
G1 X152.091 Y68.695 E.04102
G1 X152.229 Y69.46 E.02437
G1 X152.229 Y105.04 E1.11559
G1 X151.977 Y106.058 E.03288
G1 X134.787 Y138.768 E1.1586
G1 X133.861 Y139.691 E.04099
G1 X132.85 Y139.939 E.03264
G1 X127.85 Y139.939 E.15677
G1 X127.114 Y139.811 E.02342
G1 X107.514 Y132.811 E.65256
G1 X106.47 Y132.023 E.04101
G1 X106.167 Y131.422 E.0211
G1 X97.877 Y105.712 E.84699
G1 X97.771 Y105.04 E.02133
G1 X97.771 Y69.46 E1.11559
G1 X98.144 Y68.269 E.03913
M204 S1000
;WIPE_START
G1 F8640
G1 X98.162 Y68.212 E-.0138
G1 X99.195 Y67.409 E-.30211
G1 X99.96 Y67.271 E-.17949
G1 X102.145 Y67.271 E-.5046
;WIPE_END
G1 Z.4 F720
; printing object Leg v3 parts v2.stl_1 id:0 copy 0
G1 X127.37 Y135.387 F10800
G1 Z.2 F720
G1 E1 F2100
M204 S800
;TYPE:Support material
G1 F1200
G1 X123.213 Y131.23 E.18433
G1 X127.37 Y131.23 E.13034
G1 X127.37 Y135.331 E.12858
M204 S1000
G1 X127.37 Y135.331 F10800
G1 X126.676 Y134.453
M204 S800
G1 F1200
G1 X126.676 Y131.569 E.09043
G1 X126.257 Y131.569 E.01314
G1 X126.257 Y133.794 E.06976
G1 X125.838 Y133.375 E.01858
G1 X125.838 Y131.569 E.05663
G1 X125.419 Y131.569 E.01314
G1 X125.419 Y132.956 E.04349
G1 X125 Y132.537 E.01858
G1 X125 Y131.569 E.03035
G1 X124.581 Y131.569 E.01314
G1 X124.581 Y132.118 E.01721
G1 X124.162 Y131.699 E.01858
G1 X124.162 Y131.4 E.00937
M204 S1000
;WIPE_START
G1 F8640
G1 X124.162 Y131.699 E-.06904
G1 X124.581 Y132.118 E-.13682
G1 X124.581 Y131.569 E-.12677
G1 X125 Y131.569 E-.09675
G1 X125 Y132.537 E-.22351
G1 X125.419 Y132.956 E-.13682
G1 X125.419 Y132.046 E-.21029
;WIPE_END
G1 Z.4 F720
G1 X150.04 Y69.46 F10800
G1 Z.2 F720
G1 E1 F2100
M204 S800
G1 F1200
G1 X150.04 Y105.04 E1.11559
G1 X135.177 Y105.04 E.46602
G1 X133.33 Y106.887 E.0819
G1 X133.33 Y102.051 E.15163
G1 X133.049 Y101.77 E.01246
G1 X108.051 Y101.77 E.78379
G1 X107.77 Y102.051 E.01246
G1 X107.77 Y105.04 E.09372
G1 X99.96 Y105.04 E.24488
G1 X99.96 Y69.46 E1.11559
G1 X110.74 Y69.46 E.338
G1 X110.74 Y94.26 E.77759
G1 X139.26 Y94.26 E.89422
G1 X139.26 Y69.46 E.77759
G1 X149.983 Y69.46 E.33621
M204 S1000
G1 X149.983 Y69.46 F10800
G1 X149.301 Y104.87
M204 S800
G1 F1200
G1 X149.301 Y69.799 E1.09963
G1 X148.882 Y69.799 E.01314
M73 Q0 S81
G1 X148.882 Y104.701 E1.09433
G1 X148.463 Y104.701 E.01314
G1 X148.463 Y69.799 E1.09433
G1 X148.044 Y69.799 E.01314
G1 X148.044 Y104.701 E1.09433
G1 X147.625 Y104.701 E.01314
G1 X147.625 Y69.799 E1.09433
G1 X147.206 Y69.799 E.01314
G1 X147.206 Y104.701 E1.09433
G1 X146.787 Y104.701 E.01314
G1 X146.787 Y69.799 E1.09433
G1 X146.368 Y69.799 E.01314
G1 X146.368 Y104.701 E1.09433
G1 X145.949 Y104.701 E.01314
G1 X145.949 Y69.799 E1.09433
G1 X145.53 Y69.799 E.01314
M73 P1 R80
M73 Q1 S81
G1 X145.53 Y104.701 E1.09433
G1 X145.111 Y104.701 E.01314
G1 X145.111 Y69.799 E1.09433
G1 X144.692 Y69.799 E.01314
G1 X144.692 Y104.701 E1.09433
G1 X144.273 Y104.701 E.01314
G1 X144.273 Y69.799 E1.09433
G1 X143.854 Y69.799 E.01314
G1 X143.854 Y104.701 E1.09433
G1 X143.435 Y104.701 E.01314
G1 X143.435 Y69.799 E1.09433
G1 X143.016 Y69.799 E.01314
G1 X143.016 Y104.701 E1.09433
G1 X142.597 Y104.701 E.01314
G1 X142.597 Y69.799 E1.09433
G1 X142.178 Y69.799 E.01314
G1 X142.178 Y104.701 E1.09433
G1 X141.759 Y104.701 E.01314
G1 X141.759 Y69.799 E1.09433
G1 X141.34 Y69.799 E.01314
G1 X141.34 Y104.701 E1.09433
G1 X140.921 Y104.701 E.01314
G1 X140.921 Y69.799 E1.09433
G1 X140.502 Y69.799 E.01314
G1 X140.502 Y104.701 E1.09433
G1 X140.083 Y104.701 E.01314
G1 X140.083 Y69.799 E1.09433
G1 X139.664 Y69.799 E.01314
G1 X139.664 Y104.701 E1.09433
G1 X139.245 Y104.701 E.01314
G1 X139.245 Y94.599 E.31674
G1 X138.826 Y94.599 E.01314
G1 X138.826 Y104.701 E.31674
G1 X138.407 Y104.701 E.01314
G1 X138.407 Y94.599 E.31674
G1 X137.988 Y94.599 E.01314
G1 X137.988 Y104.701 E.31674
G1 X137.569 Y104.701 E.01314
G1 X137.569 Y94.599 E.31674
G1 X137.15 Y94.599 E.01314
G1 X137.15 Y104.701 E.31674
G1 X136.731 Y104.701 E.01314
G1 X136.731 Y94.599 E.31674
G1 X136.312 Y94.599 E.01314
G1 X136.312 Y104.701 E.31674
G1 X135.893 Y104.701 E.01314
G1 X135.893 Y94.599 E.31674
G1 X135.474 Y94.599 E.01314
G1 X135.474 Y104.701 E.31674
G1 X135.055 Y104.701 E.01314
G1 X135.055 Y94.599 E.31674
G1 X134.636 Y94.599 E.01314
G1 X134.636 Y105.101 E.32928
G1 X134.217 Y105.52 E.01858
G1 X134.217 Y94.599 E.34242
G1 X133.799 Y94.599 E.01311
G1 X133.799 Y105.939 E.35556
G1 X133.669 Y106.068 E.00574
G1 X133.669 Y101.911 E.13034
G1 X133.38 Y101.621 E.01284
G1 X133.38 Y94.599 E.22017
G1 X132.961 Y94.599 E.01314
G1 X132.961 Y101.431 E.21421
G1 X132.542 Y101.431 E.01314
G1 X132.542 Y94.599 E.21421
G1 X132.123 Y94.599 E.01314
G1 X132.123 Y101.431 E.21421
G1 X131.704 Y101.431 E.01314
G1 X131.704 Y94.599 E.21421
G1 X131.285 Y94.599 E.01314
G1 X131.285 Y101.431 E.21421
G1 X130.866 Y101.431 E.01314
G1 X130.866 Y94.599 E.21421
G1 X130.447 Y94.599 E.01314
G1 X130.447 Y101.431 E.21421
G1 X130.028 Y101.431 E.01314
G1 X130.028 Y94.599 E.21421
G1 X129.609 Y94.599 E.01314
G1 X129.609 Y101.431 E.21421
G1 X129.19 Y101.431 E.01314
G1 X129.19 Y94.599 E.21421
G1 X128.771 Y94.599 E.01314
G1 X128.771 Y101.431 E.21421
G1 X128.352 Y101.431 E.01314
G1 X128.352 Y94.599 E.21421
G1 X127.933 Y94.599 E.01314
G1 X127.933 Y101.431 E.21421
G1 X127.514 Y101.431 E.01314
G1 X127.514 Y94.599 E.21421
G1 X127.095 Y94.599 E.01314
G1 X127.095 Y101.431 E.21421
G1 X126.676 Y101.431 E.01314
G1 X126.676 Y94.599 E.21421
G1 X126.257 Y94.599 E.01314
G1 X126.257 Y101.431 E.21421
G1 X125.838 Y101.431 E.01314
G1 X125.838 Y94.599 E.21421
G1 X125.419 Y94.599 E.01314
G1 X125.419 Y101.431 E.21421
G1 X125 Y101.431 E.01314
G1 X125 Y94.599 E.21421
G1 X124.581 Y94.599 E.01314
G1 X124.581 Y101.431 E.21421
G1 X124.162 Y101.431 E.01314
G1 X124.162 Y94.599 E.21421
G1 X123.743 Y94.599 E.01314
G1 X123.743 Y101.431 E.21421
G1 X123.324 Y101.431 E.01314
G1 X123.324 Y94.599 E.21421
G1 X122.905 Y94.599 E.01314
G1 X122.905 Y101.431 E.21421
M73 Q1 S80
G1 X122.486 Y101.431 E.01314
G1 X122.486 Y94.599 E.21421
G1 X122.067 Y94.599 E.01314
G1 X122.067 Y101.431 E.21421
G1 X121.648 Y101.431 E.01314
G1 X121.648 Y94.599 E.21421
G1 X121.229 Y94.599 E.01314
G1 X121.229 Y101.431 E.21421
G1 X120.81 Y101.431 E.01314
G1 X120.81 Y94.599 E.21421
G1 X120.391 Y94.599 E.01314
G1 X120.391 Y101.431 E.21421
G1 X119.972 Y101.431 E.01314
G1 X119.972 Y94.599 E.21421
G1 X119.553 Y94.599 E.01314
G1 X119.553 Y101.431 E.21421
G1 X119.134 Y101.431 E.01314
G1 X119.134 Y94.599 E.21421
G1 X118.715 Y94.599 E.01314
G1 X118.715 Y101.431 E.21421
G1 X118.296 Y101.431 E.01314
G1 X118.296 Y94.599 E.21421
G1 X117.877 Y94.599 E.01314
M73 P2 R80
M73 Q2 S80
G1 X117.877 Y101.431 E.21421
G1 X117.458 Y101.431 E.01314
G1 X117.458 Y94.599 E.21421
G1 X117.039 Y94.599 E.01314
G1 X117.039 Y101.431 E.21421
G1 X116.62 Y101.431 E.01314
G1 X116.62 Y94.599 E.21421
G1 X116.201 Y94.599 E.01314
G1 X116.201 Y101.431 E.21421
G1 X115.783 Y101.431 E.01311
G1 X115.783 Y94.599 E.21421
G1 X115.364 Y94.599 E.01314
G1 X115.364 Y101.431 E.21421
G1 X114.945 Y101.431 E.01314
G1 X114.945 Y94.599 E.21421
G1 X114.526 Y94.599 E.01314
G1 X114.526 Y101.431 E.21421
G1 X114.107 Y101.431 E.01314
G1 X114.107 Y94.599 E.21421
G1 X113.688 Y94.599 E.01314
G1 X113.688 Y101.431 E.21421
G1 X113.269 Y101.431 E.01314
G1 X113.269 Y94.599 E.21421
G1 X112.85 Y94.599 E.01314
G1 X112.85 Y101.431 E.21421
G1 X112.431 Y101.431 E.01314
G1 X112.431 Y94.599 E.21421
G1 X112.012 Y94.599 E.01314
G1 X112.012 Y101.431 E.21421
G1 X111.593 Y101.431 E.01314
G1 X111.593 Y94.599 E.21421
G1 X111.174 Y94.599 E.01314
G1 X111.174 Y101.431 E.21421
G1 X110.755 Y101.431 E.01314
G1 X110.755 Y94.599 E.21421
G1 X110.401 Y94.599 E.0111
G1 X110.401 Y69.799 E.77759
G1 X110.336 Y69.799 E.00204
G1 X110.336 Y101.431 E.9918
G1 X109.917 Y101.431 E.01314
G1 X109.917 Y69.799 E.9918
G1 X109.498 Y69.799 E.01314
M73 P2 R79
G1 X109.498 Y101.431 E.9918
G1 X109.079 Y101.431 E.01314
G1 X109.079 Y69.799 E.9918
G1 X108.66 Y69.799 E.01314
G1 X108.66 Y101.431 E.9918
G1 X108.241 Y101.431 E.01314
G1 X108.241 Y69.799 E.9918
G1 X107.822 Y69.799 E.01314
G1 X107.822 Y101.519 E.99456
G1 X107.431 Y101.911 E.01736
G1 X107.403 Y104.7 E.08745
G1 X107.403 Y69.799 E1.0943
G1 X106.984 Y69.799 E.01314
G1 X106.984 Y104.7 E1.0943
G1 X106.565 Y104.7 E.01314
G1 X106.565 Y69.799 E1.0943
G1 X106.146 Y69.799 E.01314
G1 X106.146 Y104.701 E1.09433
G1 X105.727 Y104.701 E.01314
G1 X105.727 Y69.799 E1.09433
G1 X105.308 Y69.799 E.01314
G1 X105.308 Y104.701 E1.09433
G1 X104.889 Y104.701 E.01314
G1 X104.889 Y69.799 E1.09433
G1 X104.47 Y69.799 E.01314
G1 X104.47 Y104.701 E1.09433
G1 X104.051 Y104.701 E.01314
G1 X104.051 Y69.799 E1.09433
G1 X103.632 Y69.799 E.01314
G1 X103.632 Y104.701 E1.09433
G1 X103.213 Y104.701 E.01314
G1 X103.213 Y69.799 E1.09433
G1 X102.794 Y69.799 E.01314
G1 X102.794 Y104.701 E1.09433
G1 X102.375 Y104.701 E.01314
G1 X102.375 Y69.799 E1.09433
G1 X101.956 Y69.799 E.01314
G1 X101.956 Y104.701 E1.09433
G1 X101.537 Y104.701 E.01314
G1 X101.537 Y69.799 E1.09433
G1 X101.118 Y69.799 E.01314
G1 X101.118 Y104.701 E1.09433
G1 X100.699 Y104.701 E.01314
G1 X100.699 Y69.63 E1.09963
M204 S1000
;WIPE_START
G1 F8640
M73 P3 R79
M73 Q3 S80
G1 X100.699 Y73.961 E-1
;WIPE_END
G1 Z.4 F720
G1 X128.453 Y130.134 F10800
G1 Z.2 F720
G1 E1 F2100
M204 S800
;TYPE:Perimeter
;WIDTH:0.419999
G1 F1200
G1 X128.289 Y130.006 E.00652
G1 X128.071 Y129.963 E.00697
G1 X109.037 Y129.963 E.5968
G1 X109.037 Y103.037 E.84424
G1 X132.063 Y103.037 E.72196
G1 X132.063 Y114.55 E.36098
G1 X132.063 Y136.963 E.70274
G1 X128.637 Y136.963 E.10742
M73 Q3 S79
G1 X128.637 Y130.529 E.20173
G1 X128.607 Y130.345 E.00585
G1 X128.524 Y130.189 E.00554
G1 X128.5 Y130.171 E.00094
M204 S1000
G1 X128.5 Y130.171 F10800
G1 X128.174 Y130.391
M204 S800
;TYPE:External perimeter
G1 F1200
G1 X128.071 Y130.34 E.0036
G1 X108.66 Y130.34 E.60862
G1 X108.66 Y102.66 E.86789
G1 X132.44 Y102.66 E.7456
G1 X132.44 Y114.55 E.3728
G1 X132.44 Y137.34 E.71456
G1 X128.26 Y137.34 E.13106
G1 X128.26 Y130.529 E.21355
G1 X128.224 Y130.421 E.00357
M204 S1000
;WIPE_START
G1 F8640
G1 X128.174 Y130.391 E-.01346
G1 X128.071 Y130.34 E-.02654
G1 X123.913 Y130.34 E-.96
;WIPE_END
G1 Z.4 F720
G1 X131.893 Y103.974 F10800
G1 Z.2 F720
G1 E1 F2100
M204 S800
;TYPE:Solid infill
;WIDTH:0.422208
G1 F1200
G1 X131.296 Y103.376 E.02665
G1 X130.76 Y103.376 E.0169
G1 X131.724 Y104.34 E.043
G1 X131.724 Y104.877 E.01694
G1 X130.223 Y103.376 E.06695
G1 X129.687 Y103.376 E.0169
G1 X131.724 Y105.413 E.09085
G1 X131.724 Y105.95 E.01694
G1 X129.15 Y103.376 E.1148
G1 X128.614 Y103.376 E.0169
G1 X131.724 Y106.486 E.13871
G1 X131.724 Y107.022 E.0169
G1 X128.078 Y103.376 E.16262
G1 X127.541 Y103.376 E.01694
G1 X131.724 Y107.559 E.18657
G1 X131.724 Y108.095 E.0169
G1 X127.005 Y103.376 E.21047
G1 X126.468 Y103.376 E.01694
G1 X131.724 Y108.632 E.23442
G1 X131.724 Y109.168 E.0169
G1 X125.932 Y103.376 E.25833
G1 X125.396 Y103.376 E.0169
G1 X131.724 Y109.704 E.28224
G1 X131.724 Y110.241 E.01694
G1 X124.859 Y103.376 E.30619
G1 X124.323 Y103.376 E.0169
G1 X131.724 Y110.777 E.33009
G1 X131.724 Y111.314 E.01694
G1 X123.786 Y103.376 E.35405
G1 X123.25 Y103.376 E.0169
G1 X131.724 Y111.85 E.37795
G1 X131.724 Y112.386 E.0169
G1 X122.714 Y103.376 E.40186
G1 X122.177 Y103.376 E.01694
G1 X131.724 Y112.923 E.42581
G1 X131.724 Y113.459 E.0169
G1 X121.641 Y103.376 E.44972
G1 X121.104 Y103.376 E.01694
M73 P3 R78
G1 X131.724 Y113.996 E.47367
G1 X131.724 Y114.532 E.0169
G1 X120.568 Y103.376 E.49757
G1 X120.032 Y103.376 E.0169
G1 X131.724 Y115.068 E.52148
G1 X131.724 Y115.605 E.01694
G1 X119.495 Y103.376 E.54543
G1 X118.959 Y103.376 E.0169
G1 X131.724 Y116.141 E.56934
G1 X131.724 Y116.678 E.01694
G1 X118.423 Y103.376 E.59327
G1 X117.886 Y103.376 E.01694
G1 X131.724 Y117.214 E.61719
G1 X131.724 Y117.75 E.0169
G1 X117.35 Y103.376 E.6411
G1 X116.813 Y103.376 E.01694
G1 X131.724 Y118.287 E.66505
G1 X131.724 Y118.823 E.0169
G1 X116.277 Y103.376 E.68896
G1 X115.741 Y103.376 E.0169
G1 X131.724 Y119.359 E.71286
G1 X131.724 Y119.896 E.01694
G1 X115.204 Y103.376 E.73681
G1 X114.668 Y103.376 E.0169
G1 X131.724 Y120.432 E.76072
G1 X131.724 Y120.969 E.01694
G1 X114.131 Y103.376 E.78467
G1 X113.595 Y103.376 E.0169
G1 X131.724 Y121.505 E.80858
G1 X131.724 Y122.041 E.0169
G1 X113.059 Y103.376 E.83248
G1 X112.522 Y103.376 E.01694
G1 X131.724 Y122.578 E.85644
G1 X131.724 Y123.114 E.0169
G1 X111.986 Y103.376 E.88034
G1 X111.449 Y103.376 E.01694
G1 X131.724 Y123.651 E.90429
G1 X131.724 Y124.187 E.0169
G1 X110.913 Y103.376 E.9282
G1 X110.377 Y103.376 E.0169
G1 X131.724 Y124.723 E.95211
G1 X131.724 Y125.26 E.01694
G1 X109.84 Y103.376 E.97606
G1 X109.376 Y103.376 E.01463
G1 X109.376 Y103.449 E.0023
G1 X131.724 Y125.796 E.99673
G1 X131.724 Y126.333 E.01694
M73 P4 R78
G1 X109.376 Y103.985 E.99675
G1 X109.376 Y104.522 E.01694
M73 Q4 S79
G1 X131.724 Y126.869 E.99673
G1 X131.724 Y127.405 E.0169
G1 X109.376 Y105.058 E.99673
G1 X109.376 Y105.595 E.01694
G1 X131.724 Y127.942 E.99673
G1 X131.724 Y128.478 E.0169
G1 X109.376 Y106.131 E.99673
G1 X109.376 Y106.667 E.0169
G1 X131.724 Y129.015 E.99675
G1 X131.724 Y129.551 E.0169
G1 X109.376 Y107.204 E.99673
G1 X109.376 Y107.74 E.0169
G1 X131.724 Y130.087 E.99673
G1 X131.724 Y130.624 E.01694
G1 X109.376 Y108.277 E.99673
G1 X109.376 Y108.813 E.0169
G1 X131.724 Y131.16 E.99673
G1 X131.724 Y131.697 E.01694
G1 X109.376 Y109.349 E.99675
G1 X109.376 Y109.886 E.01694
M73 Q4 S78
G1 X131.724 Y132.233 E.99673
G1 X131.724 Y132.769 E.0169
G1 X109.376 Y110.422 E.99673
G1 X109.376 Y110.959 E.01694
G1 X128.041 Y129.624 E.83248
G1 X128.236 Y129.638 E.00617
G1 X128.421 Y129.693 E.00609
G1 X128.616 Y129.804 E.00708
G1 X128.797 Y129.985 E.00807
G1 X128.93 Y130.235 E.00893
G1 X128.976 Y130.559 E.01032
G1 X131.724 Y133.306 E.12254
G1 X131.724 Y133.842 E.0169
G1 X128.976 Y131.095 E.12254
G1 X128.976 Y131.631 E.0169
G1 X131.724 Y134.379 E.12256
G1 X131.724 Y134.915 E.0169
G1 X128.976 Y132.168 E.12254
G1 X128.976 Y132.704 E.0169
G1 X131.724 Y135.451 E.12254
G1 X131.724 Y135.988 E.01694
G1 X128.976 Y133.241 E.12254
G1 X128.976 Y133.777 E.0169
G1 X131.724 Y136.524 E.12254
G1 X131.724 Y136.624 E.00315
G1 X131.287 Y136.624 E.01378
G1 X128.976 Y134.313 E.10307
G1 X128.976 Y134.85 E.01694
G1 X130.75 Y136.624 E.07912
G1 X130.214 Y136.624 E.0169
