; generated by PrusaSlicer 2.8.1+win64 on 2025-01-14 at 09:11:48 UTC


;
;
; 

; external perimeters extrusion width = 0.45mm
; perimeters extrusion width = 0.45mm
; infill extrusion width = 0.45mm
; solid infill extrusion width = 0.45mm
; top infill extrusion width = 0.40mm
; support material extrusion width = 0.35mm
; first layer extrusion width = 0.42mm

; external perimeters extrusion width = 0.45mm
; perimeters extrusion width = 0.45mm
; infill extrusion width = 0.45mm
; solid infill extrusion width = 0.45mm
; top infill extrusion width = 0.40mm
; support material extrusion width = 0.35mm
; first layer extrusion width = 0.42mm

; external perimeters extrusion width = 0.45mm
; perimeters extrusion width = 0.45mm
; infill extrusion width = 0.45mm
; solid infill extrusion width = 0.45mm
; top infill extrusion width = 0.40mm
; support material extrusion width = 0.35mm
; first layer extrusion width = 0.42mm

M73 P0 R82
M73 Q0 S83
M201 X1000 Y1000 Z200 E5000 ; sets maximum accelerations, mm/sec^2
M203 X200 Y200 Z12 E120 ; sets maximum feedrates, mm / sec
M204 S1250 T1250 ; sets acceleration (S) and retract acceleration (R), mm/sec^2
M205 X8.00 Y8.00 Z0.40 E4.50 ; sets the jerk limits, mm/sec
M205 S0 T0 ; sets the minimum extruding and travel feed rate, mm/sec

; printing object Parts.stl_13 id:2 copy 0
; stop printing object Parts.stl_13 id:2 copy 0
; printing object Parts.stl_12 id:1 copy 0
; stop printing object Parts.stl_12 id:1 copy 0
; printing object Parts.stl_10 id:0 copy 0
; stop printing object Parts.stl_10 id:0 copy 0

;TYPE:Custom
M862.3 P "MK3S" ; printer model check
M862.1 P0.4 ; nozzle diameter check
M115 U3.14.0 ; tell printer latest fw version
G90 ; use absolute coordinates
M83 ; extruder relative mode
M104 S240 ; set extruder temp
M140 S85 ; set bed temp
M190 S85 ; wait for bed temp
M109 S240 ; wait for extruder temp
G28 W ; home all without mesh bed level
G80 X83.2802 Y89.9009 W82.9003 H26.7542 ; mesh bed levelling

G1 Z0.2 F720
G1 Y-3 F1000 ; go outside print area
G92 E0
G1 X60 E9 F1000 ; intro line
G1 X100 E12.5 F1000 ; intro line

G92 E0
M221 S95

; Don't change E values below. Excessive value can damage the printer.
M907 E430 ; set extruder motor current
G21 ; set units to millimeters
G90 ; use absolute coordinates
M83 ; use relative distances for extrusion

M900 K0.08 ; Filament gcode LA 1.5
M900 K45 ; Filament gcode LA 1.0




M107
;LAYER_CHANGE
;Z:0.2
;HEIGHT:0.2
G1 E-1 F2100
G1 Z.4 F720
G1 X83.86 Y91.03 F10800
M73 P0 R81
G1 Z.2 F720
G1 E1 F2100
M204 S800
;TYPE:Skirt/Brim
;WIDTH:0.42
G1 F1200
G1 X84.893 Y90.227 E.04102
G1 X85.657 Y90.089 E.02434
G1 X113.754 Y90.092 E.88096
G1 X163.9 Y92.302 E1.57382
G1 X165.13 Y92.747 E.04101
G1 X165.886 Y93.814 E.041
G1 X165.992 Y94.488 E.02139
G1 X165.992 Y103.068 E.26902
G1 X165.795 Y103.975 E.0291
G1 X164.456 Y106.915 E.10129
G1 X164.098 Y107.464 E.02055
G1 X160.96 Y110.902 E.14595
G1 X159.787 Y111.737 E.04515
G1 X158.729 Y112.132 E.03541
G1 X113.867 Y116.456 E1.41314
G1 X85.657 Y116.466 E.8845
G1 X84.409 Y116.076 E.041
G1 X83.607 Y115.043 E.041
G1 X83.469 Y114.278 E.02437
G1 X83.469 Y92.278 E.68979
G1 X83.842 Y91.087 E.03913
M204 S1000
;WIPE_START
G1 F8640
G1 X83.86 Y91.03 E-.0138
G1 X84.893 Y90.227 E-.30211
G1 X85.657 Y90.089 E-.17926
G1 X87.843 Y90.089 E-.50483
;WIPE_END
G1 Z.4 F720
; printing object Parts.stl_13 id:2 copy 0
G1 X158.903 Y109.488 F10800
G1 Z.2 F720
G1 E1 F2100
M204 S800
;TYPE:Support material
G1 F1200
G1 X158.984 Y109.488 E.00254
G1 X158.519 Y109.953 E.02062
G1 X157.997 Y109.432 E.02312
G1 X157.997 Y106.218 E.10077
G1 X158.903 Y106.218 E.02841
G1 X158.903 Y109.432 E.10077
M204 S1000
G1 X158.903 Y109.432 F10800
G1 X159.338 Y109.119
M204 S800
;TYPE:Support material interface
;WIDTH:0.35
G1 F1200
G1 X159.272 Y109.119 E.00169
G1 X159.272 Y108.894 E.00575
G1 X159.496 Y109.119 E.00811
G1 X159.691 Y109.119 E.00498
G1 X159.691 Y108.582 E.01371
G1 X159.272 Y108.162 E.01515
G1 X159.272 Y107.43 E.01869
G1 X159.691 Y107.849 E.01513
G1 X159.691 Y107.117 E.01869
G1 X159.272 Y106.697 E.01515
G1 X159.272 Y106.437 E.00664
G1 X159.691 Y106.437 E.0107
G1 X159.691 Y106.958 E.0133
M204 S1000
;WIPE_START
G1 F8640
G1 X159.691 Y106.437 E-.1203
G1 X159.272 Y106.437 E-.09675
G1 X159.272 Y106.697 E-.06003
G1 X159.691 Y107.117 E-.13699
G1 X159.691 Y107.849 E-.16902
G1 X159.272 Y107.43 E-.13682
G1 X159.272 Y108.162 E-.16902
G1 X159.612 Y108.502 E-.11107
;WIPE_END
G1 Z.4 F720
G1 X160.407 Y101.488 F10800
G1 Z.2 F720
G1 E1 F2100
M204 S800
;TYPE:Support material
;WIDTH:0.42
G1 F1200
G1 X160.407 Y103.951 E.07723
G1 X162.464 Y106.008 E.09121
G1 X160.06 Y108.412 E.1066
G1 X160.06 Y106.068 E.07349
G1 X158.903 Y106.095 E.03629
G1 X158.449 Y105.642 E.02011
G1 X157.997 Y106.094 E.02004
G1 X157.716 Y105.798 E.0128
G1 X149.108 Y105.798 E.2699
G1 X149.108 Y101.488 E.13514
G1 X160.35 Y101.488 E.35249
M204 S1000
;WIPE_START
G1 F8640
G1 X156.019 Y101.488 E-1
;WIPE_END
G1 Z.4 F720
G1 X161.586 Y106.646 F10800
G1 Z.2 F720
G1 E1 F2100
M204 S800
G1 F1200
G1 X161.586 Y105.609 E.03251
G1 X161.167 Y105.19 E.01858
G1 X161.167 Y106.825 E.05126
G1 X160.748 Y107.244 E.01858
G1 X160.748 Y104.771 E.07754
G1 X160.329 Y104.352 E.01858
G1 X160.329 Y105.728 E.04314
G1 X159.91 Y105.728 E.01314
G1 X159.91 Y101.827 E.12231
G1 X159.491 Y101.827 E.01314
G1 X159.491 Y105.728 E.12231
G1 X159.072 Y105.728 E.01314
G1 X159.072 Y101.827 E.12231
G1 X158.653 Y101.827 E.01314
G1 X158.653 Y105.365 E.11093
G1 X158.449 Y105.162 E.00902
G1 X158.234 Y105.377 E.00953
G1 X158.234 Y101.827 E.11131
G1 X157.815 Y101.827 E.01314
G1 X157.815 Y105.459 E.11388
G1 X157.396 Y105.459 E.01314
G1 X157.396 Y101.827 E.11388
G1 X156.977 Y101.827 E.01314
G1 X156.977 Y105.459 E.11388
G1 X156.558 Y105.459 E.01314
G1 X156.558 Y101.827 E.11388
G1 X156.139 Y101.827 E.01314
G1 X156.139 Y105.459 E.11388
G1 X155.72 Y105.459 E.01314
G1 X155.72 Y101.827 E.11388
G1 X155.301 Y101.827 E.01314
G1 X155.301 Y105.459 E.11388
G1 X154.882 Y105.459 E.01314
G1 X154.882 Y101.827 E.11388
G1 X154.463 Y101.827 E.01314
G1 X154.463 Y105.459 E.11388
G1 X154.044 Y105.459 E.01314
G1 X154.044 Y101.827 E.11388
G1 X153.625 Y101.827 E.01314
G1 X153.625 Y105.459 E.11388
G1 X153.206 Y105.459 E.01314
G1 X153.206 Y101.827 E.11388
G1 X152.787 Y101.827 E.01314
M73 Q0 S82
G1 X152.787 Y105.459 E.11388
G1 X152.368 Y105.459 E.01314
G1 X152.368 Y101.827 E.11388
G1 X152.022 Y101.827 E.01085
G1 X151.949 Y101.827 E.00229
G1 X151.949 Y105.459 E.11388
G1 X151.53 Y105.459 E.01314
G1 X151.53 Y101.827 E.11388
G1 X151.111 Y101.827 E.01314
G1 X151.111 Y105.459 E.11388
G1 X150.692 Y105.459 E.01314
G1 X150.692 Y101.827 E.11388
G1 X150.273 Y101.827 E.01314
G1 X150.273 Y105.459 E.11388
G1 X149.854 Y105.459 E.01314
G1 X149.854 Y101.658 E.11918
M204 S1000
;WIPE_START
G1 F8640
G1 X149.854 Y105.459 E-.87766
G1 X150.273 Y105.459 E-.09675
G1 X150.273 Y105.348 E-.02559
;WIPE_END
G1 Z.4 F720
G1 X105.148 Y109.119 F10800
G1 Z.2 F720
G1 E1 F2100
M204 S800
;TYPE:Support material interface
;WIDTH:0.35
G1 F1200
G1 X104.589 Y109.119 E.01427
G1 X104.589 Y108.401 E.01833
G1 X105.243 Y109.055 E.02362
G1 X105.243 Y108.323 E.01869
G1 X104.589 Y107.669 E.02362
G1 X104.589 Y106.936 E.01872
G1 X105.243 Y107.591 E.02363
G1 X105.243 Y106.858 E.01872
G1 X104.821 Y106.437 E.01522
G1 X105.243 Y106.437 E.01078
G1 X105.243 Y106.7 E.00672
M204 S1000
;WIPE_START
G1 F8640
G1 X105.243 Y106.437 E-.06073
G1 X104.821 Y106.437 E-.09744
G1 X105.243 Y106.858 E-.13764
G1 X105.243 Y107.591 E-.16925
G1 X104.589 Y106.936 E-.21372
G1 X104.589 Y107.669 E-.16925
G1 X105.054 Y108.134 E-.15197
;WIPE_END
G1 Z.4 F720
G1 X107.22 Y105.798 F10800
G1 Z.2 F720
G1 E1 F2100
M204 S800
;TYPE:Support material
;WIDTH:0.42
G1 F1200
G1 X106.799 Y105.798 E.0132
G1 X106.518 Y106.079 E.01246
G1 X106.518 Y109.477 E.10654
G1 X106.799 Y109.758 E.01246
G1 X107.22 Y109.758 E.0132
G1 X107.22 Y112.068 E.07243
G1 X100.711 Y112.068 E.20409
G1 X100.711 Y103.488 E.26902
G1 X107.22 Y103.488 E.20409
G1 X107.22 Y105.741 E.07064
M204 S1000
;WIPE_START
G1 F8640
G1 X107.22 Y103.488 E-.52022
G1 X105.142 Y103.488 E-.47978
;WIPE_END
G1 Z.4 F720
G1 X104.22 Y109.488 F10800
G1 Z.2 F720
G1 E1 F2100
M204 S800
G1 F1200
G1 X104.22 Y106.068 E.10723
G1 X105.612 Y106.068 E.04365
G1 X105.612 Y109.488 E.10723
G1 X104.276 Y109.488 E.04189
M204 S1000
G1 X104.276 Y109.488 F10800
G1 X106.7 Y111.898
M204 S800
G1 F1200
G1 X106.7 Y109.899 E.06268
M204 S1000
G1 X106.7 Y109.899 F10800
G1 X106.7 Y105.657
M204 S800
G1 F1200
G1 X106.7 Y103.827 E.05738
G1 X106.281 Y103.827 E.01314
G1 X106.281 Y111.729 E.24776
G1 X105.862 Y111.729 E.01314
G1 X105.862 Y103.827 E.24776
G1 X105.443 Y103.827 E.01314
G1 X105.443 Y105.728 E.0596
G1 X105.024 Y105.728 E.01314
G1 X105.024 Y103.827 E.0596
G1 X104.605 Y103.827 E.01314
G1 X104.605 Y105.728 E.0596
G1 X104.186 Y105.728 E.01314
G1 X104.186 Y103.827 E.0596
G1 X103.767 Y103.827 E.01314
G1 X103.767 Y111.729 E.24776
G1 X103.348 Y111.729 E.01314
G1 X103.348 Y103.827 E.24776
G1 X102.929 Y103.827 E.01314
G1 X102.929 Y111.729 E.24776
G1 X102.51 Y111.729 E.01314
G1 X102.51 Y103.827 E.24776
G1 X102.091 Y103.827 E.01314
G1 X102.091 Y111.729 E.24776
G1 X101.672 Y111.729 E.01314
G1 X101.672 Y103.827 E.24776
G1 X101.253 Y103.827 E.01314
G1 X101.253 Y111.898 E.25306
M204 S1000
G1 X101.253 Y111.898 F10800
G1 X105.443 Y111.898
M204 S800
G1 F1200
G1 X105.443 Y109.828 E.0649
G1 X105.024 Y109.828 E.01314
G1 X105.024 Y111.729 E.0596
G1 X104.605 Y111.729 E.01314
G1 X104.605 Y109.828 E.0596
G1 X104.186 Y109.828 E.01314
G1 X104.186 Y111.898 E.0649
M204 S1000
;WIPE_START
G1 F8640
G1 X104.186 Y109.828 E-.47797
G1 X104.605 Y109.828 E-.09675
G1 X104.605 Y111.669 E-.42528
;WIPE_END
G1 Z.4 F720
G1 X156.73 Y107.065 F10800
G1 Z.2 F720
G1 E1 F2100
M204 S800
;TYPE:Perimeter
;WIDTH:0.419999
G1 F1200
G1 X156.73 Y107.778 E.02236
G1 X156.73 Y108.491 E.02236
G1 X107.785 Y108.491 E1.53463
G1 X107.785 Y107.065 E.04471
G1 X156.67 Y107.065 E1.53275
M204 S1000
G1 X156.67 Y107.065 F10800
G1 X157.107 Y106.688
M204 S800
;TYPE:External perimeter
G1 F1200
G1 X157.107 Y107.778 E.03418
G1 X157.107 Y108.868 E.03418
G1 X107.408 Y108.868 E1.55827
G1 X107.408 Y106.688 E.06835
G1 X157.047 Y106.688 E1.55639
M204 S1000
;WIPE_START
G1 F8640
G1 X157.107 Y106.688 E-.01385
G1 X157.107 Y107.778 E-.25168
G1 X157.107 Y108.868 E-.25168
G1 X155.016 Y108.868 E-.48279
;WIPE_END
G1 Z.4 F720
M73 Q1 S82
G1 X156.56 Y108 F10800
G1 Z.2 F720
M73 P1 R81
G1 E1 F2100
M204 S800
;TYPE:Solid infill
;WIDTH:0.421317
G1 F1200
G1 X155.965 Y107.404 E.0265
G1 X155.43 Y107.404 E.01683
G1 X156.177 Y108.151 E.03324
G1 X155.642 Y108.151 E.01683
G1 X154.894 Y107.404 E.03326
G1 X154.359 Y107.404 E.01683
G1 X155.106 Y108.151 E.03324
G1 X154.571 Y108.151 E.01683
G1 X153.824 Y107.404 E.03324
G1 X153.289 Y107.404 E.01683
G1 X154.036 Y108.151 E.03324
G1 X153.501 Y108.151 E.01683
G1 X152.754 Y107.404 E.03324
G1 X152.219 Y107.404 E.01683
G1 X152.966 Y108.151 E.03324
G1 X152.431 Y108.151 E.01683
G1 X151.684 Y107.404 E.03324
G1 X151.149 Y107.404 E.01683
G1 X151.896 Y108.151 E.03324
G1 X151.36 Y108.151 E.01686
G1 X150.613 Y107.404 E.03324
G1 X150.078 Y107.404 E.01683
G1 X150.825 Y108.151 E.03324
G1 X150.29 Y108.151 E.01683
G1 X149.543 Y107.404 E.03324
G1 X149.008 Y107.404 E.01683
G1 X149.755 Y108.151 E.03324
G1 X149.22 Y108.151 E.01683
G1 X148.473 Y107.404 E.03324
G1 X147.938 Y107.404 E.01683
G1 X148.685 Y108.151 E.03324
G1 X148.15 Y108.151 E.01683
G1 X147.403 Y107.404 E.03324
G1 X146.867 Y107.404 E.01686
G1 X147.615 Y108.151 E.03326
G1 X147.079 Y108.151 E.01686
G1 X146.332 Y107.404 E.03324
G1 X145.797 Y107.404 E.01683
G1 X146.544 Y108.151 E.03324
G1 X146.009 Y108.151 E.01683
G1 X145.262 Y107.404 E.03324
G1 X144.727 Y107.404 E.01683
G1 X145.474 Y108.151 E.03324
G1 X144.939 Y108.151 E.01683
G1 X144.192 Y107.404 E.03324
G1 X143.657 Y107.404 E.01683
G1 X144.404 Y108.151 E.03324
G1 X143.869 Y108.151 E.01683
G1 X143.121 Y107.404 E.03326
G1 X142.586 Y107.404 E.01683
G1 X143.333 Y108.151 E.03324
G1 X142.798 Y108.151 E.01683
G1 X142.051 Y107.404 E.03324
G1 X141.516 Y107.404 E.01683
G1 X142.263 Y108.151 E.03324
G1 X141.728 Y108.151 E.01683
G1 X140.981 Y107.404 E.03324
G1 X140.446 Y107.404 E.01683
G1 X141.193 Y108.151 E.03324
G1 X140.658 Y108.151 E.01683
G1 X139.911 Y107.404 E.03324
G1 X139.376 Y107.404 E.01683
G1 X140.123 Y108.151 E.03324
G1 X139.588 Y108.151 E.01683
G1 X138.84 Y107.404 E.03326
G1 X138.305 Y107.404 E.01683
G1 X139.052 Y108.151 E.03324
G1 X138.517 Y108.151 E.01683
G1 X137.77 Y107.404 E.03324
G1 X137.235 Y107.404 E.01683
G1 X137.982 Y108.151 E.03324
G1 X137.447 Y108.151 E.01683
G1 X136.7 Y107.404 E.03324
G1 X136.165 Y107.404 E.01683
G1 X136.912 Y108.151 E.03324
G1 X136.377 Y108.151 E.01683
G1 X135.63 Y107.404 E.03324
G1 X135.094 Y107.404 E.01686
G1 X135.842 Y108.151 E.03326
G1 X135.306 Y108.151 E.01686
G1 X134.559 Y107.404 E.03324
G1 X134.024 Y107.404 E.01683
G1 X134.771 Y108.151 E.03324
G1 X134.236 Y108.151 E.01683
G1 X133.489 Y107.404 E.03324
G1 X132.954 Y107.404 E.01683
G1 X133.701 Y108.151 E.03324
G1 X133.166 Y108.151 E.01683
G1 X132.419 Y107.404 E.03324
G1 X131.884 Y107.404 E.01683
G1 X132.631 Y108.151 E.03324
G1 X132.096 Y108.151 E.01683
G1 X131.349 Y107.404 E.03324
G1 X130.813 Y107.404 E.01686
G1 X131.561 Y108.151 E.03326
G1 X131.025 Y108.151 E.01686
G1 X130.278 Y107.404 E.03324
G1 X129.743 Y107.404 E.01683
G1 X130.49 Y108.151 E.03324
G1 X129.955 Y108.151 E.01683
G1 X129.208 Y107.404 E.03324
G1 X128.673 Y107.404 E.01683
G1 X129.42 Y108.151 E.03324
G1 X128.885 Y108.151 E.01683
G1 X128.138 Y107.404 E.03324
G1 X127.603 Y107.404 E.01683
G1 X128.35 Y108.151 E.03324
G1 X127.815 Y108.151 E.01683
G1 X127.067 Y107.404 E.03326
G1 X126.532 Y107.404 E.01683
G1 X127.279 Y108.151 E.03324
G1 X126.744 Y108.151 E.01683
G1 X125.997 Y107.404 E.03324
G1 X125.462 Y107.404 E.01683
G1 X126.209 Y108.151 E.03324
G1 X125.674 Y108.151 E.01683
G1 X124.927 Y107.404 E.03324
G1 X124.392 Y107.404 E.01683
G1 X125.139 Y108.151 E.03324
G1 X124.604 Y108.151 E.01683
G1 X123.857 Y107.404 E.03324
G1 X123.322 Y107.404 E.01683
G1 X124.069 Y108.151 E.03324
G1 X123.533 Y108.151 E.01686
G1 X122.786 Y107.404 E.03324
G1 X122.251 Y107.404 E.01683
G1 X122.998 Y108.151 E.03324
G1 X122.463 Y108.151 E.01683
G1 X121.716 Y107.404 E.03324
G1 X121.181 Y107.404 E.01683
G1 X121.928 Y108.151 E.03324
G1 X121.393 Y108.151 E.01683
G1 X120.646 Y107.404 E.03324
G1 X120.111 Y107.404 E.01683
G1 X120.858 Y108.151 E.03324
G1 X120.323 Y108.151 E.01683
G1 X119.576 Y107.404 E.03324
G1 X119.04 Y107.404 E.01686
G1 X119.788 Y108.151 E.03326
G1 X119.252 Y108.151 E.01686
G1 X118.505 Y107.404 E.03324
G1 X117.97 Y107.404 E.01683
G1 X118.717 Y108.151 E.03324
G1 X118.182 Y108.151 E.01683
G1 X117.435 Y107.404 E.03324
G1 X116.9 Y107.404 E.01683
G1 X117.647 Y108.151 E.03324
G1 X117.112 Y108.151 E.01683
G1 X116.365 Y107.404 E.03324
G1 X115.83 Y107.404 E.01683
G1 X116.577 Y108.151 E.03324
G1 X116.042 Y108.151 E.01683
G1 X115.295 Y107.404 E.03324
G1 X114.759 Y107.404 E.01686
G1 X115.506 Y108.151 E.03324
G1 X114.971 Y108.151 E.01683
G1 X114.224 Y107.404 E.03324
G1 X113.689 Y107.404 E.01683
G1 X114.436 Y108.151 E.03324
G1 X113.901 Y108.151 E.01683
G1 X113.154 Y107.404 E.03324
G1 X112.619 Y107.404 E.01683
G1 X113.366 Y108.151 E.03324
G1 X112.831 Y108.151 E.01683
G1 X112.084 Y107.404 E.03324
G1 X111.549 Y107.404 E.01683
G1 X112.296 Y108.151 E.03324
G1 X111.761 Y108.151 E.01683
G1 X111.013 Y107.404 E.03326
G1 X110.478 Y107.404 E.01683
G1 X111.225 Y108.151 E.03324
G1 X110.69 Y108.151 E.01683
G1 X109.943 Y107.404 E.03324
G1 X109.408 Y107.404 E.01683
G1 X110.155 Y108.151 E.03324
G1 X109.62 Y108.151 E.01683
G1 X108.873 Y107.404 E.03324
G1 X108.338 Y107.404 E.01683
G1 X109.085 Y108.151 E.03324
G1 X108.55 Y108.151 E.01683
G1 X107.954 Y107.556 E.0265
M204 S1000
;WIPE_START
G1 F8640
G1 X108.55 Y108.151 E-.19446
G1 X109.085 Y108.151 E-.12353
G1 X108.338 Y107.404 E-.24393
G1 X108.873 Y107.404 E-.12353
G1 X109.62 Y108.151 E-.24393
G1 X109.926 Y108.151 E-.07062
;WIPE_END
G1 Z.4 F720
; stop printing object Parts.stl_13 id:2 copy 0
; printing object Parts.stl_12 id:1 copy 0
G1 X159.534 Y100.119 F10800
G1 Z.2 F720
G1 E1 F2100
M204 S800
