; generated by PrusaSlicer 2.8.1+win64 on 2025-01-14 at 09:13:25 UTC


;
;
; 

; external perimeters extrusion width = 0.45mm
; perimeters extrusion width = 0.45mm
; infill extrusion width = 0.45mm
; solid infill extrusion width = 0.45mm
; top infill extrusion width = 0.40mm
; support material extrusion width = 0.35mm
; first layer extrusion width = 0.42mm

M73 P0 R72
M73 Q0 S73
M201 X1000 Y1000 Z200 E5000 ; sets maximum accelerations, mm/sec^2
M203 X200 Y200 Z12 E120 ; sets maximum feedrates, mm / sec
M204 S1250 T1250 ; sets acceleration (S) and retract acceleration (R), mm/sec^2
M205 X8.00 Y8.00 Z0.40 E4.50 ; sets the jerk limits, mm/sec
M205 S0 T0 ; sets the minimum extruding and travel feed rate, mm/sec

; printing object Parts.stl_9 id:0 copy 0
; stop printing object Parts.stl_9 id:0 copy 0

;TYPE:Custom
M862.3 P "MK3S" ; printer model check
M862.1 P0.4 ; nozzle diameter check
M115 U3.14.0 ; tell printer latest fw version
G90 ; use absolute coordinates
M83 ; extruder relative mode
M104 S240 ; set extruder temp
M140 S85 ; set bed temp
M190 S85 ; wait for bed temp
M109 S240 ; wait for extruder temp
G28 W ; home all without mesh bed level
G80 X89.8729 Y87.3579 W73.0442 H35.2842 ; mesh bed levelling

G1 Z0.2 F720
G1 Y-3 F1000 ; go outside print area
G92 E0
G1 X60 E9 F1000 ; intro line
G1 X100 E12.5 F1000 ; intro line

G92 E0
M221 S95

; Don't change E values below. Excessive value can damage the printer.
M907 E430 ; set extruder motor current
G21 ; set units to millimeters
G90 ; use absolute coordinates
M83 ; use relative distances for extrusion

M900 K0.08 ; Filament gcode LA 1.5
M900 K45 ; Filament gcode LA 1.0




M107
;LAYER_CHANGE
;Z:0.2
;HEIGHT:0.2
G1 E-1 F2100
G1 Z.4 F720
G1 X90.452 Y91.627 F10800
G1 Z.2 F720
G1 E1 F2100
M204 S800
;TYPE:Skirt/Brim
;WIDTH:0.42
G1 F1200
G1 X92.054 Y90.695 E.05811
G1 X126.999 Y87.555 E1.10009
G1 X160.54 Y87.546 E1.05165
G1 X161.788 Y87.937 E.04101
G1 X162.591 Y88.97 E.04102
G1 X162.729 Y89.735 E.02437
G1 X162.729 Y116.715 E.84594
G1 X162.338 Y117.963 E.04101
G1 X160.85 Y118.881 E.05482
G1 X135.74 Y122.454 E.79524
G1 X124.996 Y122.441 E.33687
G1 X99.016 Y119.651 E.81927
G1 X97.817 Y119.129 E.041
G1 X97.189 Y118.211 E.03487
G1 X90.189 Y98.611 E.65256
G1 X90.061 Y97.875 E.02342
G1 X90.061 Y92.875 E.15677
G1 X90.434 Y91.684 E.03913
M204 S1000
;WIPE_START
G1 F8640
G1 X90.452 Y91.627 E-.0138
G1 X92.054 Y90.695 E-.42795
G1 X94.462 Y90.479 E-.55825
;WIPE_END
G1 Z.4 F720
; printing object Parts.stl_9 id:0 copy 0
G1 X157.703 Y89.735 F10800
G1 Z.2 F720
G1 E1 F2100
M204 S800
;TYPE:Support material
G1 F1200
G1 X160.54 Y89.735 E.08895
G1 X160.54 Y100.515 E.338
G1 X135.74 Y100.515 E.77759
G1 X135.74 Y105.935 E.16994
G1 X160.54 Y105.935 E.77759
G1 X160.54 Y116.715 E.338
G1 X135.74 Y116.715 E.77759
G1 X135.74 Y120.265 E.11131
G1 X125.23 Y120.265 E.32953
G1 X125.23 Y117.955 E.07243
G1 X127.949 Y117.955 E.08525
G1 X128.23 Y117.674 E.01246
G1 X128.23 Y92.676 E.78379
G1 X127.949 Y92.395 E.01246
G1 X124.649 Y92.395 E.10347
G1 X124.342 Y91.17 E.0396
G1 X126.302 Y90.105 E.06994
G1 X127.195 Y89.735 E.03031
G1 X157.647 Y89.735 E.9548
M204 S1000
;WIPE_START
G1 F8640
G1 X153.316 Y89.735 E-1
;WIPE_END
G1 Z.4 F720
G1 X160.194 Y116.545 F10800
G1 Z.2 F720
G1 E1 F2100
M204 S800
G1 F1200
G1 X160.194 Y106.274 E.32204
G1 X159.775 Y106.274 E.01314
G1 X159.775 Y116.376 E.31674
G1 X159.356 Y116.376 E.01314
G1 X159.356 Y106.274 E.31674
G1 X158.937 Y106.274 E.01314
G1 X158.937 Y116.376 E.31674
G1 X158.518 Y116.376 E.01314
G1 X158.518 Y106.274 E.31674
G1 X158.099 Y106.274 E.01314
G1 X158.099 Y116.376 E.31674
G1 X157.68 Y116.376 E.01314
G1 X157.68 Y106.274 E.31674
G1 X157.261 Y106.274 E.01314
G1 X157.261 Y116.376 E.31674
G1 X156.842 Y116.376 E.01314
G1 X156.842 Y106.274 E.31674
G1 X156.423 Y106.274 E.01314
M73 Q0 S72
G1 X156.423 Y116.376 E.31674
G1 X156.004 Y116.376 E.01314
G1 X156.004 Y106.274 E.31674
G1 X155.585 Y106.274 E.01314
G1 X155.585 Y116.376 E.31674
G1 X155.166 Y116.376 E.01314
G1 X155.166 Y106.274 E.31674
G1 X154.747 Y106.274 E.01314
G1 X154.747 Y116.376 E.31674
G1 X154.328 Y116.376 E.01314
G1 X154.328 Y106.274 E.31674
G1 X153.909 Y106.274 E.01314
G1 X153.909 Y116.376 E.31674
G1 X153.49 Y116.376 E.01314
G1 X153.49 Y106.274 E.31674
G1 X153.071 Y106.274 E.01314
G1 X153.071 Y116.376 E.31674
G1 X152.652 Y116.376 E.01314
G1 X152.652 Y106.274 E.31674
G1 X152.234 Y106.274 E.01311
G1 X152.234 Y116.376 E.31674
G1 X151.815 Y116.376 E.01314
G1 X151.815 Y106.274 E.31674
G1 X151.396 Y106.274 E.01314
G1 X151.396 Y116.376 E.31674
G1 X150.977 Y116.376 E.01314
G1 X150.977 Y106.274 E.31674
G1 X150.558 Y106.274 E.01314
G1 X150.558 Y116.376 E.31674
G1 X150.139 Y116.376 E.01314
G1 X150.139 Y106.274 E.31674
G1 X149.72 Y106.274 E.01314
G1 X149.72 Y116.376 E.31674
G1 X149.301 Y116.376 E.01314
G1 X149.301 Y106.274 E.31674
G1 X148.882 Y106.274 E.01314
G1 X148.882 Y116.376 E.31674
G1 X148.463 Y116.376 E.01314
G1 X148.463 Y106.274 E.31674
G1 X148.044 Y106.274 E.01314
M73 Q1 S72
G1 X148.044 Y116.376 E.31674
G1 X147.625 Y116.376 E.01314
M73 P1 R72
G1 X147.625 Y106.274 E.31674
G1 X147.206 Y106.274 E.01314
G1 X147.206 Y116.376 E.31674
G1 X146.787 Y116.376 E.01314
G1 X146.787 Y106.274 E.31674
G1 X146.368 Y106.274 E.01314
G1 X146.368 Y116.376 E.31674
G1 X145.949 Y116.376 E.01314
G1 X145.949 Y106.274 E.31674
G1 X145.53 Y106.274 E.01314
G1 X145.53 Y116.376 E.31674
G1 X145.111 Y116.376 E.01314
G1 X145.111 Y106.274 E.31674
G1 X144.692 Y106.274 E.01314
G1 X144.692 Y116.376 E.31674
G1 X144.273 Y116.376 E.01314
G1 X144.273 Y106.274 E.31674
G1 X143.854 Y106.274 E.01314
G1 X143.854 Y116.376 E.31674
G1 X143.435 Y116.376 E.01314
G1 X143.435 Y106.274 E.31674
G1 X143.016 Y106.274 E.01314
G1 X143.016 Y116.376 E.31674
G1 X142.597 Y116.376 E.01314
G1 X142.597 Y106.274 E.31674
G1 X142.178 Y106.274 E.01314
G1 X142.178 Y116.376 E.31674
G1 X141.759 Y116.376 E.01314
G1 X141.759 Y106.274 E.31674
G1 X141.34 Y106.274 E.01314
G1 X141.34 Y116.376 E.31674
G1 X140.921 Y116.376 E.01314
G1 X140.921 Y106.274 E.31674
G1 X140.502 Y106.274 E.01314
G1 X140.502 Y116.376 E.31674
G1 X140.083 Y116.376 E.01314
M73 P1 R71
G1 X140.083 Y106.274 E.31674
G1 X139.664 Y106.274 E.01314
G1 X139.664 Y116.376 E.31674
G1 X139.245 Y116.376 E.01314
G1 X139.245 Y106.274 E.31674
G1 X138.826 Y106.274 E.01314
G1 X138.826 Y116.376 E.31674
G1 X138.407 Y116.376 E.01314
G1 X138.407 Y106.274 E.31674
G1 X137.988 Y106.274 E.01314
G1 X137.988 Y116.376 E.31674
G1 X137.569 Y116.376 E.01314
G1 X137.569 Y106.274 E.31674
G1 X137.15 Y106.274 E.01314
G1 X137.15 Y116.376 E.31674
G1 X136.731 Y116.376 E.01314
G1 X136.731 Y106.274 E.31674
G1 X136.312 Y106.274 E.01314
G1 X136.312 Y116.376 E.31674
G1 X135.893 Y116.376 E.01314
G1 X135.893 Y106.105 E.32204
M204 S1000
;WIPE_START
G1 F8640
G1 X135.893 Y110.436 E-1
;WIPE_END
G1 Z.4 F720
G1 X160.194 Y100.345 F10800
G1 Z.2 F720
G1 E1 F2100
M204 S800
G1 F1200
G1 X160.194 Y90.074 E.32204
G1 X159.775 Y90.074 E.01314
G1 X159.775 Y100.176 E.31674
G1 X159.356 Y100.176 E.01314
G1 X159.356 Y90.074 E.31674
G1 X158.937 Y90.074 E.01314
G1 X158.937 Y100.176 E.31674
G1 X158.518 Y100.176 E.01314
G1 X158.518 Y90.074 E.31674
G1 X158.099 Y90.074 E.01314
G1 X158.099 Y100.176 E.31674
G1 X157.68 Y100.176 E.01314
G1 X157.68 Y90.074 E.31674
G1 X157.261 Y90.074 E.01314
G1 X157.261 Y100.176 E.31674
G1 X156.842 Y100.176 E.01314
G1 X156.842 Y90.074 E.31674
G1 X156.423 Y90.074 E.01314
G1 X156.423 Y100.176 E.31674
G1 X156.004 Y100.176 E.01314
G1 X156.004 Y90.074 E.31674
G1 X155.585 Y90.074 E.01314
G1 X155.585 Y100.176 E.31674
G1 X155.166 Y100.176 E.01314
G1 X155.166 Y90.074 E.31674
G1 X154.747 Y90.074 E.01314
G1 X154.747 Y100.176 E.31674
G1 X154.328 Y100.176 E.01314
G1 X154.328 Y90.074 E.31674
G1 X153.909 Y90.074 E.01314
G1 X153.909 Y100.176 E.31674
G1 X153.49 Y100.176 E.01314
G1 X153.49 Y90.074 E.31674
G1 X153.071 Y90.074 E.01314
G1 X153.071 Y100.176 E.31674
G1 X152.652 Y100.176 E.01314
G1 X152.652 Y90.074 E.31674
G1 X152.234 Y90.074 E.01311
G1 X152.234 Y100.176 E.31674
G1 X151.815 Y100.176 E.01314
G1 X151.815 Y90.074 E.31674
G1 X151.396 Y90.074 E.01314
G1 X151.396 Y100.176 E.31674
G1 X150.977 Y100.176 E.01314
G1 X150.977 Y90.074 E.31674
G1 X150.558 Y90.074 E.01314
G1 X150.558 Y100.176 E.31674
G1 X150.139 Y100.176 E.01314
G1 X150.139 Y90.074 E.31674
G1 X149.72 Y90.074 E.01314
G1 X149.72 Y100.176 E.31674
G1 X149.301 Y100.176 E.01314
G1 X149.301 Y90.074 E.31674
G1 X148.882 Y90.074 E.01314
G1 X148.882 Y100.176 E.31674
G1 X148.463 Y100.176 E.01314
G1 X148.463 Y90.074 E.31674
G1 X148.044 Y90.074 E.01314
G1 X148.044 Y100.176 E.31674
G1 X147.625 Y100.176 E.01314
G1 X147.625 Y90.074 E.31674
G1 X147.206 Y90.074 E.01314
G1 X147.206 Y100.176 E.31674
G1 X146.787 Y100.176 E.01314
G1 X146.787 Y90.074 E.31674
G1 X146.368 Y90.074 E.01314
G1 X146.368 Y100.176 E.31674
G1 X145.949 Y100.176 E.01314
G1 X145.949 Y90.074 E.31674
G1 X145.53 Y90.074 E.01314
G1 X145.53 Y100.176 E.31674
G1 X145.111 Y100.176 E.01314
G1 X145.111 Y90.074 E.31674
G1 X144.692 Y90.074 E.01314
G1 X144.692 Y100.176 E.31674
G1 X144.273 Y100.176 E.01314
G1 X144.273 Y90.074 E.31674
G1 X143.854 Y90.074 E.01314
G1 X143.854 Y100.176 E.31674
G1 X143.435 Y100.176 E.01314
G1 X143.435 Y90.074 E.31674
G1 X143.016 Y90.074 E.01314
G1 X143.016 Y100.176 E.31674
G1 X142.597 Y100.176 E.01314
G1 X142.597 Y90.074 E.31674
G1 X142.178 Y90.074 E.01314
G1 X142.178 Y100.176 E.31674
G1 X141.759 Y100.176 E.01314
G1 X141.759 Y90.074 E.31674
G1 X141.34 Y90.074 E.01314
G1 X141.34 Y100.176 E.31674
G1 X140.921 Y100.176 E.01314
G1 X140.921 Y90.074 E.31674
G1 X140.502 Y90.074 E.01314
G1 X140.502 Y100.176 E.31674
G1 X140.083 Y100.176 E.01314
G1 X140.083 Y90.074 E.31674
G1 X139.664 Y90.074 E.01314
G1 X139.664 Y100.176 E.31674
G1 X139.245 Y100.176 E.01314
M73 P2 R71
M73 Q2 S72
G1 X139.245 Y90.074 E.31674
G1 X138.826 Y90.074 E.01314
G1 X138.826 Y100.176 E.31674
G1 X138.407 Y100.176 E.01314
G1 X138.407 Y90.074 E.31674
G1 X137.988 Y90.074 E.01314
G1 X137.988 Y100.176 E.31674
G1 X137.569 Y100.176 E.01314
G1 X137.569 Y90.074 E.31674
G1 X137.15 Y90.074 E.01314
G1 X137.15 Y100.176 E.31674
G1 X136.731 Y100.176 E.01314
G1 X136.731 Y90.074 E.31674
G1 X136.312 Y90.074 E.01314
G1 X136.312 Y100.176 E.31674
G1 X135.893 Y100.176 E.01314
G1 X135.893 Y90.074 E.31674
G1 X135.474 Y90.074 E.01314
M73 Q2 S71
G1 X135.474 Y116.376 E.82468
G1 X135.401 Y116.376 E.00229
G1 X135.401 Y119.926 E.11131
G1 X135.055 Y119.926 E.01085
G1 X135.055 Y90.074 E.93599
G1 X134.636 Y90.074 E.01314
G1 X134.636 Y119.926 E.93599
G1 X134.217 Y119.926 E.01314
G1 X134.217 Y90.074 E.93599
G1 X133.799 Y90.074 E.01311
G1 X133.799 Y119.926 E.93599
G1 X133.38 Y119.926 E.01314
G1 X133.38 Y90.074 E.93599
G1 X132.961 Y90.074 E.01314
G1 X132.961 Y119.926 E.93599
G1 X132.542 Y119.926 E.01314
G1 X132.542 Y90.074 E.93599
G1 X132.123 Y90.074 E.01314
G1 X132.123 Y119.926 E.93599
G1 X131.704 Y119.926 E.01314
G1 X131.704 Y90.074 E.93599
G1 X131.285 Y90.074 E.01314
G1 X131.285 Y119.926 E.93599
G1 X130.866 Y119.926 E.01314
G1 X130.866 Y90.074 E.93599
G1 X130.447 Y90.074 E.01314
G1 X130.447 Y119.926 E.93599
G1 X130.028 Y119.926 E.01314
G1 X130.028 Y90.074 E.93599
G1 X129.609 Y90.074 E.01314
M73 P2 R70
G1 X129.609 Y119.926 E.93599
G1 X129.19 Y119.926 E.01314
G1 X129.19 Y90.074 E.93599
G1 X128.771 Y90.074 E.01314
G1 X128.771 Y119.926 E.93599
G1 X128.352 Y119.926 E.01314
G1 X128.352 Y118.032 E.05939
G1 X128.089 Y118.294 E.01164
G1 X127.933 Y118.294 E.00489
G1 X127.933 Y119.926 E.05117
G1 X127.514 Y119.926 E.01314
G1 X127.514 Y118.294 E.05117
G1 X127.095 Y118.294 E.01314
G1 X127.095 Y119.926 E.05117
G1 X126.676 Y119.926 E.01314
G1 X126.676 Y118.294 E.05117
G1 X126.257 Y118.294 E.01314
G1 X126.257 Y119.926 E.05117
G1 X125.838 Y119.926 E.01314
G1 X125.838 Y118.125 E.05647
M204 S1000
;WIPE_START
G1 F8640
G1 X125.838 Y119.926 E-.41586
G1 X126.257 Y119.926 E-.09675
G1 X126.257 Y118.294 E-.37683
G1 X126.676 Y118.294 E-.09675
G1 X126.676 Y118.354 E-.01381
;WIPE_END
G1 Z.4 F720
G1 X128.352 Y92.558 F10800
G1 Z.2 F720
G1 E1 F2100
M204 S800
G1 F1200
G1 X128.352 Y90.074 E.07788
G1 X127.933 Y90.074 E.01314
G1 X127.933 Y92.056 E.06214
G1 X127.514 Y92.056 E.01314
G1 X127.514 Y90.074 E.06214
G1 X127.095 Y90.144 E.01332
G1 X127.095 Y92.056 E.05995
G1 X126.676 Y92.056 E.01314
G1 X126.676 Y90.317 E.05453
G1 X126.257 Y90.532 E.01477
G1 X126.257 Y92.056 E.04778
G1 X125.838 Y92.056 E.01314
G1 X125.838 Y90.756 E.04076
G1 X125.419 Y90.98 E.0149
G1 X125.419 Y92.056 E.03374
G1 X125 Y92.056 E.01314
G1 X125 Y91.011 E.03277
M204 S1000
;WIPE_START
G1 F8640
G1 X125 Y92.056 E-.24129
G1 X125.419 Y92.056 E-.09675
G1 X125.419 Y90.98 E-.24845
G1 X125.838 Y90.756 E-.10971
G1 X125.838 Y92.056 E-.30017
G1 X125.854 Y92.056 E-.00363
;WIPE_END
G1 Z.4 F720
G1 X98.77 Y102.512 F10800
G1 Z.2 F720
G1 E1 F2100
M204 S800
G1 F1200
G1 X96.802 Y100.545 E.08724
G1 X95.116 Y99.846 E.05723
G1 X95.413 Y98.355 E.04767
G1 X98.77 Y98.355 E.10526
G1 X98.77 Y102.456 E.12858
M204 S1000
G1 X98.77 Y102.456 F10800
G1 X98.185 Y101.688
M204 S800
G1 F1200
G1 X98.185 Y98.694 E.09387
G1 X97.766 Y98.694 E.01314
G1 X97.766 Y101.029 E.07321
G1 X97.348 Y100.61 E.01856
G1 X97.348 Y98.694 E.06007
G1 X96.929 Y98.694 E.01314
G1 X96.929 Y100.23 E.04816
G1 X96.51 Y100.056 E.01423
G1 X96.51 Y98.694 E.0427
G1 X96.091 Y98.694 E.01314
G1 X96.091 Y99.883 E.03728
G1 X95.672 Y99.709 E.01423
G1 X95.672 Y98.525 E.03712
M204 S1000
;WIPE_START
G1 F8640
G1 X95.672 Y99.709 E-.27339
G1 X96.091 Y99.883 E-.10476
G1 X96.091 Y98.694 E-.27454
G1 X96.51 Y98.694 E-.09675
G1 X96.51 Y99.779 E-.25056
;WIPE_END
G1 Z.4 F720
G1 X99.849 Y97.26 F10800
G1 Z.2 F720
G1 E1 F2100
M204 S800
;TYPE:Perimeter
;WIDTH:0.419999
G1 F1200
G1 X99.655 Y97.118 E.00754
G1 X99.471 Y97.088 E.00585
G1 X93.037 Y97.088 E.20173
G1 X93.037 Y93.662 E.10742
G1 X126.963 Y93.662 E1.06372
G1 X126.963 Y105.175 E.36098
G1 X126.963 Y116.688 E.36098
G1 X100.037 Y116.688 E.84424
G1 X100.028 Y97.552 E.59999
G1 X99.924 Y97.314 E.00814
G1 X99.898 Y97.295 E.00101
M204 S1000
G1 X99.898 Y97.295 F10800
G1 X99.574 Y97.516
M204 S800
;TYPE:External perimeter
G1 F1200
G1 X99.471 Y97.465 E.0036
G1 X92.66 Y97.465 E.21355
G1 X92.66 Y93.285 E.13106
G1 X127.34 Y93.285 E1.08737
G1 X127.34 Y105.175 E.3728
M73 P3 R70
M73 Q3 S71
G1 X127.34 Y117.065 E.3728
G1 X99.66 Y117.065 E.86789
G1 X99.66 Y97.654 E.60862
G1 X99.624 Y97.546 E.00357
M204 S1000
;WIPE_START
G1 F8640
G1 X99.574 Y97.516 E-.01346
G1 X99.471 Y97.465 E-.02654
G1 X95.313 Y97.465 E-.96
;WIPE_END
G1 Z.4 F720
G1 X126.026 Y93.832 F10800
G1 Z.2 F720
G1 E1 F2100
M204 S800
;TYPE:Solid infill
;WIDTH:0.422208
G1 F1200
G1 X126.624 Y94.429 E.02665
G1 X126.624 Y94.965 E.0169
G1 X125.66 Y94.001 E.043
G1 X125.123 Y94.001 E.01694
G1 X126.624 Y95.502 E.06695
G1 X126.624 Y96.038 E.0169
G1 X124.587 Y94.001 E.09085
G1 X124.05 Y94.001 E.01694
G1 X126.624 Y96.575 E.1148
G1 X126.624 Y97.111 E.0169
G1 X123.514 Y94.001 E.13871
G1 X122.978 Y94.001 E.0169
G1 X126.624 Y97.647 E.16262
G1 X126.624 Y98.184 E.01694
G1 X122.441 Y94.001 E.18657
G1 X121.905 Y94.001 E.0169
G1 X126.624 Y98.72 E.21047
G1 X126.624 Y99.257 E.01694
G1 X121.368 Y94.001 E.23442
G1 X120.832 Y94.001 E.0169
G1 X126.624 Y99.793 E.25833
G1 X126.624 Y100.329 E.0169
G1 X120.296 Y94.001 E.28224
G1 X119.759 Y94.001 E.01694
G1 X126.624 Y100.866 E.30619
G1 X126.624 Y101.402 E.0169
G1 X119.223 Y94.001 E.33009
G1 X118.686 Y94.001 E.01694
G1 X126.624 Y101.939 E.35405
G1 X126.624 Y102.475 E.0169
G1 X118.15 Y94.001 E.37795
G1 X117.614 Y94.001 E.0169
G1 X126.624 Y103.011 E.40186
G1 X126.624 Y103.548 E.01694
G1 X117.077 Y94.001 E.42581
G1 X116.541 Y94.001 E.0169
G1 X126.624 Y104.084 E.44972
G1 X126.624 Y104.621 E.01694
G1 X116.004 Y94.001 E.47367
G1 X115.468 Y94.001 E.0169
G1 X126.624 Y105.157 E.49757
G1 X126.624 Y105.693 E.0169
G1 X114.932 Y94.001 E.52148
G1 X114.395 Y94.001 E.01694
G1 X126.624 Y106.23 E.54543
G1 X126.624 Y106.766 E.0169
G1 X113.859 Y94.001 E.56934
G1 X113.323 Y94.001 E.0169
G1 X126.624 Y107.302 E.59324
G1 X126.624 Y107.839 E.01694
G1 X112.786 Y94.001 E.61719
G1 X112.25 Y94.001 E.0169
G1 X126.624 Y108.375 E.6411
G1 X126.624 Y108.912 E.01694
G1 X111.713 Y94.001 E.66505
