; generated by PrusaSlicer 2.8.1+win64 on 2025-01-14 at 09:10:58 UTC


;
;
; 

; external perimeters extrusion width = 0.45mm
; perimeters extrusion width = 0.45mm
; infill extrusion width = 0.45mm
; solid infill extrusion width = 0.45mm
; top infill extrusion width = 0.40mm
; support material extrusion width = 0.35mm
; first layer extrusion width = 0.42mm

M73 P0 R83
M73 Q0 S85
M201 X1000 Y1000 Z200 E5000 ; sets maximum accelerations, mm/sec^2
M203 X200 Y200 Z12 E120 ; sets maximum feedrates, mm / sec
M204 S1250 T1250 ; sets acceleration (S) and retract acceleration (R), mm/sec^2
M205 X8.00 Y8.00 Z0.40 E4.50 ; sets the jerk limits, mm/sec
M205 S0 T0 ; sets the minimum extruding and travel feed rate, mm/sec

; printing object Parts.stl_4 id:0 copy 0
; stop printing object Parts.stl_4 id:0 copy 0

;TYPE:Custom
M862.3 P "MK3S" ; printer model check
M862.1 P0.4 ; nozzle diameter check
M115 U3.14.0 ; tell printer latest fw version
G90 ; use absolute coordinates
M83 ; extruder relative mode
M104 S240 ; set extruder temp
M140 S85 ; set bed temp
M190 S85 ; wait for bed temp
M109 S240 ; wait for extruder temp
G28 W ; home all without mesh bed level
G80 X57.6229 Y91.8329 W137.544 H26.3342 ; mesh bed levelling

G1 Z0.2 F720
G1 Y-3 F1000 ; go outside print area
G92 E0
G1 X60 E9 F1000 ; intro line
G1 X100 E12.5 F1000 ; intro line

G92 E0
M221 S95

; Don't change E values below. Excessive value can damage the printer.
M907 E430 ; set extruder motor current
G21 ; set units to millimeters
G90 ; use absolute coordinates
M83 ; use relative distances for extrusion

M900 K0.08 ; Filament gcode LA 1.5
M900 K45 ; Filament gcode LA 1.0




M107
;LAYER_CHANGE
;Z:0.2
;HEIGHT:0.2
G1 E-1 F2100
M73 Q0 S84
G1 Z.4 F720
G1 X59.434 Y101.027 F10800
G1 Z.2 F720
G1 E1 F2100
M204 S800
;TYPE:Skirt/Brim
;WIDTH:0.42
G1 F1200
G1 X59.782 Y100.822 E.01266
G1 X119.782 Y94.822 E1.89064
G1 X157.318 Y92.028 E1.18017
G1 X181.156 Y92.021 E.74742
G1 X182.703 Y92.662 E.0525
G1 X194.338 Y104.297 E.51592
G1 X194.979 Y105.844 E.0525
G1 X194.979 Y115.79 E.31185
G1 X194.588 Y117.038 E.04101
G1 X193.555 Y117.841 E.04102
G1 X192.79 Y117.979 E.02437
G1 X157.417 Y117.978 E1.1091
G1 X59.937 Y115.188 E3.05767
G1 X58.701 Y114.761 E.041
G1 X57.928 Y113.706 E.04101
G1 X57.811 Y113 E.02244
G1 X57.811 Y103 E.31354
G1 X58.202 Y101.752 E.04101
G1 X59.382 Y101.058 E.04292
M204 S1000
;WIPE_START
G1 F8640
G1 X59.434 Y101.027 E-.01398
G1 X59.782 Y100.822 E-.09326
G1 X63.629 Y100.437 E-.89276
;WIPE_END
G1 Z.4 F720
; printing object Parts.stl_4 id:0 copy 0
G1 X191.884 Y104.938 F10800
G1 Z.2 F720
G1 E1 F2100
M204 S800
;TYPE:Support material
G1 F1200
G1 X192.79 Y105.844 E.04017
G1 X192.79 Y115.79 E.31185
G1 X157.48 Y115.79 E1.10712
G1 X157.48 Y113.48 E.07243
G1 X160.199 Y113.48 E.08525
G1 X160.48 Y113.199 E.01246
G1 X160.48 Y96.801 E.51415
G1 X160.199 Y96.52 E.01246
G1 X157.48 Y96.52 E.08525
G1 X157.48 Y94.21 E.07243
G1 X181.156 Y94.21 E.74234
G1 X191.844 Y104.898 E.47392
M204 S1000
G1 X191.844 Y104.898 F10800
G1 X192.036 Y115.62
M204 S800
G1 F1200
G1 X192.036 Y105.571 E.31508
G1 X191.617 Y105.152 E.01858
G1 X191.617 Y115.451 E.32292
G1 X191.198 Y115.451 E.01314
G1 X191.198 Y104.733 E.33606
G1 X190.779 Y104.314 E.01858
G1 X190.779 Y115.451 E.34919
G1 X190.36 Y115.451 E.01314
G1 X190.36 Y103.895 E.36233
G1 X189.941 Y103.476 E.01858
G1 X189.941 Y115.451 E.37547
G1 X189.522 Y115.451 E.01314
G1 X189.522 Y103.057 E.38861
G1 X189.103 Y102.638 E.01858
G1 X189.103 Y115.451 E.40174
G1 X188.685 Y115.451 E.01311
G1 X188.685 Y102.219 E.41488
G1 X188.266 Y101.8 E.01858
G1 X188.266 Y115.451 E.42802
G1 X187.847 Y115.451 E.01314
G1 X187.847 Y101.381 E.44115
G1 X187.428 Y100.962 E.01858
G1 X187.428 Y115.451 E.45429
G1 X187.009 Y115.451 E.01314
G1 X187.009 Y100.543 E.46743
G1 X186.59 Y100.124 E.01858
G1 X186.59 Y115.451 E.48057
G1 X186.171 Y115.451 E.01314
G1 X186.171 Y99.705 E.4937
G1 X185.752 Y99.286 E.01858
G1 X185.752 Y115.451 E.50684
G1 X185.333 Y115.451 E.01314
G1 X185.333 Y98.867 E.51998
G1 X184.914 Y98.448 E.01858
G1 X184.914 Y115.451 E.53312
G1 X184.495 Y115.451 E.01314
M73 P0 R82
G1 X184.495 Y98.029 E.54625
G1 X184.076 Y97.61 E.01858
G1 X184.076 Y115.451 E.55939
G1 X183.657 Y115.451 E.01314
G1 X183.657 Y97.191 E.57253
G1 X183.238 Y96.772 E.01858
G1 X183.238 Y115.451 E.58567
G1 X182.819 Y115.451 E.01314
G1 X182.819 Y96.353 E.5988
G1 X182.4 Y95.934 E.01858
G1 X182.4 Y115.451 E.61194
G1 X181.981 Y115.451 E.01314
G1 X181.981 Y95.515 E.62508
G1 X181.562 Y95.096 E.01858
G1 X181.562 Y115.451 E.63822
G1 X181.143 Y115.451 E.01314
G1 X181.143 Y94.677 E.65135
M73 P1 R82
M73 Q1 S84
G1 X181.015 Y94.549 E.00568
G1 X180.724 Y94.549 E.00912
G1 X180.724 Y115.451 E.65537
G1 X180.305 Y115.451 E.01314
G1 X180.305 Y94.549 E.65537
G1 X179.886 Y94.549 E.01314
G1 X179.886 Y115.451 E.65537
G1 X179.467 Y115.451 E.01314
G1 X179.467 Y94.549 E.65537
G1 X179.048 Y94.549 E.01314
G1 X179.048 Y115.451 E.65537
G1 X178.629 Y115.451 E.01314
G1 X178.629 Y94.549 E.65537
G1 X178.21 Y94.549 E.01314
G1 X178.21 Y115.451 E.65537
G1 X177.791 Y115.451 E.01314
G1 X177.791 Y94.549 E.65537
G1 X177.372 Y94.549 E.01314
G1 X177.372 Y115.451 E.65537
G1 X176.953 Y115.451 E.01314
G1 X176.953 Y94.549 E.65537
G1 X176.534 Y94.549 E.01314
G1 X176.534 Y115.451 E.65537
G1 X176.115 Y115.451 E.01314
G1 X176.115 Y94.549 E.65537
G1 X175.696 Y94.549 E.01314
G1 X175.696 Y115.451 E.65537
G1 X175.277 Y115.451 E.01314
M73 Q1 S83
G1 X175.277 Y94.549 E.65537
G1 X174.858 Y94.549 E.01314
G1 X174.858 Y115.451 E.65537
G1 X174.439 Y115.451 E.01314
G1 X174.439 Y94.549 E.65537
G1 X174.02 Y94.549 E.01314
G1 X174.02 Y115.451 E.65537
G1 X173.601 Y115.451 E.01314
G1 X173.601 Y94.549 E.65537
G1 X173.182 Y94.549 E.01314
G1 X173.182 Y115.451 E.65537
G1 X172.763 Y115.451 E.01314
G1 X172.763 Y94.549 E.65537
G1 X172.344 Y94.549 E.01314
G1 X172.344 Y115.451 E.65537
G1 X171.925 Y115.451 E.01314
G1 X171.925 Y94.549 E.65537
G1 X171.506 Y94.549 E.01314
G1 X171.506 Y115.451 E.65537
G1 X171.087 Y115.451 E.01314
G1 X171.087 Y94.549 E.65537
G1 X170.668 Y94.549 E.01314
G1 X170.668 Y115.451 E.65537
G1 X170.25 Y115.451 E.01311
G1 X170.25 Y94.549 E.65537
G1 X169.831 Y94.549 E.01314
G1 X169.831 Y115.451 E.65537
G1 X169.412 Y115.451 E.01314
G1 X169.412 Y94.549 E.65537
G1 X168.993 Y94.549 E.01314
G1 X168.993 Y115.451 E.65537
G1 X168.574 Y115.451 E.01314
G1 X168.574 Y94.549 E.65537
G1 X168.155 Y94.549 E.01314
G1 X168.155 Y115.451 E.65537
G1 X167.736 Y115.451 E.01314
G1 X167.736 Y94.549 E.65537
G1 X167.317 Y94.549 E.01314
G1 X167.317 Y115.451 E.65537
G1 X166.898 Y115.451 E.01314
G1 X166.898 Y94.549 E.65537
G1 X166.479 Y94.549 E.01314
G1 X166.479 Y115.451 E.65537
G1 X166.06 Y115.451 E.01314
G1 X166.06 Y94.549 E.65537
G1 X165.641 Y94.549 E.01314
G1 X165.641 Y115.451 E.65537
G1 X165.222 Y115.451 E.01314
G1 X165.222 Y94.549 E.65537
G1 X164.803 Y94.549 E.01314
G1 X164.803 Y115.451 E.65537
G1 X164.384 Y115.451 E.01314
G1 X164.384 Y94.549 E.65537
G1 X163.965 Y94.549 E.01314
G1 X163.965 Y115.451 E.65537
G1 X163.546 Y115.451 E.01314
G1 X163.546 Y94.549 E.65537
G1 X163.127 Y94.549 E.01314
G1 X163.127 Y115.451 E.65537
G1 X162.708 Y115.451 E.01314
G1 X162.708 Y94.549 E.65537
G1 X162.289 Y94.549 E.01314
G1 X162.289 Y115.451 E.65537
G1 X161.87 Y115.451 E.01314
G1 X161.87 Y94.549 E.65537
G1 X161.451 Y94.549 E.01314
M73 P2 R82
G1 X161.451 Y115.451 E.65537
G1 X161.032 Y115.451 E.01314
M73 P2 R81
M73 Q2 S83
G1 X161.032 Y94.549 E.65537
G1 X160.613 Y94.549 E.01314
G1 X160.613 Y96.454 E.05973
G1 X160.339 Y96.181 E.01213
G1 X160.194 Y96.181 E.00455
G1 X160.194 Y94.549 E.05117
G1 X159.775 Y94.549 E.01314
G1 X159.775 Y96.181 E.05117
G1 X159.356 Y96.181 E.01314
G1 X159.356 Y94.549 E.05117
G1 X158.937 Y94.549 E.01314
G1 X158.937 Y96.181 E.05117
G1 X158.518 Y96.181 E.01314
G1 X158.518 Y94.549 E.05117
G1 X158.099 Y94.549 E.01314
G1 X158.099 Y96.35 E.05647
M204 S1000
;WIPE_START
G1 F8640
G1 X158.099 Y94.549 E-.41586
G1 X158.518 Y94.549 E-.09675
G1 X158.518 Y96.181 E-.37683
G1 X158.937 Y96.181 E-.09675
G1 X158.937 Y96.121 E-.01381
;WIPE_END
G1 Z.4 F720
G1 X160.613 Y115.62 F10800
G1 Z.2 F720
G1 E1 F2100
M204 S800
G1 F1200
G1 X160.613 Y113.546 E.06503
G1 X160.339 Y113.819 E.01213
G1 X160.194 Y113.819 E.00455
G1 X160.194 Y115.451 E.05117
G1 X159.775 Y115.451 E.01314
G1 X159.775 Y113.819 E.05117
G1 X159.356 Y113.819 E.01314
G1 X159.356 Y115.451 E.05117
G1 X158.937 Y115.451 E.01314
G1 X158.937 Y113.819 E.05117
G1 X158.518 Y113.819 E.01314
G1 X158.518 Y115.451 E.05117
G1 X158.099 Y115.451 E.01314
G1 X158.099 Y113.65 E.05647
M204 S1000
;WIPE_START
G1 F8640
G1 X158.099 Y115.451 E-.41586
G1 X158.518 Y115.451 E-.09675
G1 X158.518 Y113.819 E-.37683
G1 X158.937 Y113.819 E-.09675
G1 X158.937 Y113.879 E-.01381
;WIPE_END
G1 Z.4 F720
G1 X120.459 Y100.068 F10800
G1 Z.2 F720
G1 E1 F2100
M204 S800
;TYPE:Perimeter
;WIDTH:0.419999
G1 F1200
G1 X120.53 Y100.049 E.0023
G1 X121.843 Y99.876 E.04152
G1 X121.986 Y99.875 E.00448
G1 X123.377 Y100.048 E.04395
G1 X123.524 Y100.087 E.00477
G1 X124.784 Y100.609 E.04276
G1 X124.912 Y100.682 E.00462
G1 X125.993 Y101.512 E.04273
G1 X126.098 Y101.617 E.00466
G1 X126.928 Y102.699 E.04276
G1 X127.524 Y104.086 E.04733
G1 X127.74 Y105.581 E.04736
G1 X127.682 Y106.167 E.01846
G1 X127.562 Y107.08 E.02887
G1 X127.524 Y107.223 E.00464
G1 X127.002 Y108.483 E.04276
G1 X126.928 Y108.611 E.00464
G1 X126.098 Y109.693 E.04276
G1 X125.993 Y109.797 E.00463
G1 X124.912 Y110.627 E.04273
G1 X124.784 Y110.701 E.00464
G1 X123.524 Y111.223 E.04276
G1 X123.381 Y111.261 E.00464
G1 X122.029 Y111.439 E.04276
G1 X121.882 Y111.439 E.00461
G1 X120.53 Y111.261 E.04276
G1 X120.387 Y111.223 E.00464
G1 X119.127 Y110.701 E.04276
G1 X119 Y110.627 E.00461
G1 X117.918 Y109.797 E.04276
G1 X117.813 Y109.692 E.00466
G1 X116.983 Y108.611 E.04273
G1 X116.553 Y107.623 E.03378
G1 X116.349 Y107.08 E.01819
G1 X116.171 Y105.728 E.04276
G1 X116.263 Y104.888 E.0265
G1 X116.349 Y104.229 E.02084
G1 X116.878 Y102.903 E.04476
G1 X116.983 Y102.699 E.00719
G1 X117.813 Y101.617 E.04276
G1 X117.918 Y101.512 E.00466
G1 X119 Y100.682 E.04276
G1 X119.127 Y100.609 E.00459
G1 X120.387 Y100.087 E.04276
G1 X120.401 Y100.083 E.00046
M204 S1000
G1 X120.401 Y100.083 F10800
G1 X120.556 Y100.432
M204 S800
;TYPE:External perimeter
G1 F1200
G1 X121.892 Y100.25 E.04228
G1 X123.331 Y100.422 E.04544
G1 X124.639 Y100.957 E.04431
G1 X125.799 Y101.846 E.04582
G1 X126.629 Y102.928 E.04276
G1 X127.175 Y104.231 E.0443
G1 X127.366 Y105.63 E.04427
G1 X127.188 Y107.031 E.04428
G1 X126.653 Y108.339 E.04431
G1 X125.764 Y109.498 E.0458
G1 X124.682 Y110.328 E.04276
G1 X123.38 Y110.874 E.04427
G1 X121.931 Y111.065 E.04583
G1 X120.579 Y110.887 E.04276
G1 X119.272 Y110.352 E.04428
G1 X118.113 Y109.463 E.0458
G1 X117.282 Y108.381 E.04278
G1 X116.723 Y107.031 E.04581
G1 X116.545 Y105.679 E.04276
G1 X116.637 Y104.937 E.02344
G1 X116.723 Y104.278 E.02084
G1 X117.226 Y103.047 E.04169
G1 X117.282 Y102.928 E.00412
G1 X118.147 Y101.812 E.04427
G1 X119.229 Y100.982 E.04276
G1 X120.499 Y100.449 E.04318
M204 S1000
;WIPE_START
G1 F8640
G1 X120.556 Y100.432 E-.01373
G1 X121.892 Y100.25 E-.31134
G1 X123.331 Y100.422 E-.33463
G1 X124.639 Y100.957 E-.32631
G1 X124.687 Y100.994 E-.01399
;WIPE_END
G1 Z.4 F720
G1 X104.229 Y109.921 F10800
G1 Z.2 F720
G1 E1 F2100
M204 S800
;TYPE:Perimeter
G1 F1200
G1 X104.177 Y109.869 E.00231
G1 X103.426 Y108.89 E.03869
G1 X102.895 Y107.658 E.04206
G1 X102.748 Y106.738 E.02921
G1 X102.681 Y106.111 E.01977
G1 X102.842 Y104.888 E.03868
G1 X103.353 Y103.606 E.04327
G1 X103.426 Y103.478 E.00462
G1 X104.177 Y102.5 E.03866
G1 X104.281 Y102.396 E.00461
G1 X105.26 Y101.645 E.03869
G1 X105.388 Y101.571 E.00464
G1 X106.527 Y101.099 E.03866
G1 X106.669 Y101.061 E.00461
G1 X107.854 Y100.905 E.03748
G1 X107.997 Y100.905 E.00448
G1 X109.258 Y101.06 E.03984
G1 X109.405 Y101.099 E.00477
G1 X110.544 Y101.571 E.03866
G1 X110.672 Y101.645 E.00464
G1 X111.65 Y102.396 E.03866
G1 X112.158 Y103.026 E.02537
G1 X112.505 Y103.478 E.01787
G1 X113.051 Y104.745 E.04326
G1 X113.25 Y106.111 E.04328
G1 X113.142 Y107.08 E.03057
G1 X113.051 Y107.623 E.01726
G1 X112.579 Y108.762 E.03866
G1 X112.505 Y108.89 E.00464
G1 X111.754 Y109.869 E.03869
G1 X111.65 Y109.973 E.00461
G1 X110.672 Y110.724 E.03866
G1 X110.544 Y110.797 E.00462
G1 X109.405 Y111.269 E.03866
G1 X109.262 Y111.307 E.00464
G1 X108.039 Y111.468 E.03868
G1 X107.892 Y111.468 E.00461
G1 X106.669 Y111.307 E.03868
G1 X106.527 Y111.269 E.00461
G1 X105.388 Y110.797 E.03866
G1 X105.26 Y110.724 E.00462
G1 X104.281 Y109.973 E.03869
G1 X104.272 Y109.963 E.00042
M204 S1000
G1 X104.272 Y109.963 F10800
G1 X104.496 Y109.654
M204 S800
;TYPE:External perimeter
G1 F1200
G1 X104.476 Y109.639 E.00078
G1 X103.726 Y108.661 E.03864
G1 X103.244 Y107.514 E.03901
G1 X103.055 Y106.16 E.04287
G1 X103.216 Y104.937 E.03868
G1 X103.726 Y103.708 E.04172
G1 X104.511 Y102.695 E.04018
G1 X105.532 Y101.92 E.04019
G1 X106.671 Y101.448 E.03866
G1 X107.903 Y101.279 E.03899
G1 X109.211 Y101.435 E.0413
G1 X110.399 Y101.92 E.04023
G1 X111.42 Y102.695 E.04019
G1 X111.859 Y103.256 E.02234
G1 X112.206 Y103.708 E.01787
G1 X112.702 Y104.89 E.04019
G1 X112.876 Y106.16 E.04019
G1 X112.768 Y107.031 E.02752
G1 X112.702 Y107.479 E.0142
G1 X112.23 Y108.618 E.03866
G1 X111.42 Y109.674 E.04173
G1 X110.442 Y110.424 E.03864
G1 X109.26 Y110.921 E.0402
G1 X107.941 Y111.095 E.04171
G1 X106.719 Y110.934 E.03865
G1 X105.532 Y110.449 E.0402
G1 X104.543 Y109.69 E.03909
M204 S1000
;WIPE_START
G1 F8640
G1 X104.496 Y109.654 E-.01367
G1 X104.476 Y109.639 E-.00577
G1 X103.726 Y108.661 E-.28458
G1 X103.244 Y107.514 E-.28728
G1 X103.055 Y106.16 E-.31567
G1 X103.108 Y105.761 E-.09303
;WIPE_END
G1 Z.4 F720
G1 X91.592 Y110.059 F10800
G1 Z.2 F720
G1 E1 F2100
M204 S800
;TYPE:Perimeter
G1 F1200
G1 X91.54 Y110.007 E.00231
G1 X90.869 Y109.132 E.03457
G1 X90.523 Y108.348 E.02687
G1 X90.335 Y107.843 E.0169
G1 X90.191 Y106.75 E.03457
G1 X90.335 Y105.509 E.03917
G1 X90.621 Y104.768 E.0249
G1 X90.869 Y104.22 E.01886
G1 X91.54 Y103.345 E.03457
G1 X91.644 Y103.241 E.00461
G1 X92.519 Y102.57 E.03457
G1 X92.647 Y102.496 E.00464
G1 X93.665 Y102.074 E.03455
G1 X93.808 Y102.036 E.00464
G1 X94.882 Y101.895 E.03396
G1 X95.008 Y101.896 E.00395
G1 X96.137 Y102.035 E.03567
G1 X96.284 Y102.074 E.00477
G1 X97.303 Y102.496 E.03458
G1 X97.431 Y102.57 E.00464
G1 X98.306 Y103.241 E.03457
G1 X98.896 Y103.978 E.0296
G1 X99.155 Y104.348 E.01416
G1 X99.577 Y105.367 E.03458
G1 X99.761 Y106.618 E.03965
G1 X99.656 Y107.533 E.02888
G1 X99.577 Y107.986 E.01442
G1 X99.155 Y109.004 E.03455
G1 X99.081 Y109.132 E.00464
G1 X98.41 Y110.007 E.03457
G1 X98.306 Y110.111 E.00461
G1 X97.431 Y110.782 E.03457
G1 X97.303 Y110.856 E.00464
G1 X96.284 Y111.278 E.03458
G1 X96.142 Y111.316 E.00461
G1 X95.049 Y111.46 E.03457
G1 X94.901 Y111.46 E.00464
G1 X93.808 Y111.316 E.03457
G1 X93.665 Y111.278 E.00464
G1 X92.647 Y110.856 E.03455
G1 X92.519 Y110.782 E.00464
G1 X91.644 Y110.111 E.03457
G1 X91.634 Y110.101 E.00044
M204 S1000
G1 X91.634 Y110.101 F10800
G1 X91.859 Y109.793
M204 S800
;TYPE:External perimeter
G1 F1200
G1 X91.168 Y108.902 E.03535
G1 X90.871 Y108.204 E.02378
G1 X90.709 Y107.794 E.01382
G1 X90.565 Y106.701 E.03457
G1 X90.709 Y105.558 E.03612
G1 X90.969 Y104.913 E.0218
G1 X91.168 Y104.45 E.0158
G1 X91.839 Y103.575 E.03457
G1 X92.791 Y102.844 E.03763
G1 X93.81 Y102.422 E.03458
G1 X94.92 Y102.27 E.03513
G1 X96.14 Y102.422 E.03855
G1 X97.159 Y102.844 E.03458
G1 X98.076 Y103.54 E.0361
G1 X98.807 Y104.492 E.03763
G1 X99.229 Y105.511 E.03458
G1 X99.386 Y106.657 E.03627
G1 X99.229 Y107.841 E.03745
G1 X98.782 Y108.902 E.0361
G1 X98.111 Y109.777 E.03457
G1 X97.159 Y110.508 E.03763
G1 X96.093 Y110.942 E.03609
G1 X95 Y111.086 E.03457
G1 X93.81 Y110.93 E.03763
G1 X92.791 Y110.508 E.03458
G1 X91.902 Y109.833 E.035
M204 S1000
;WIPE_START
G1 F8640
G1 X91.859 Y109.793 E-.01356
G1 X91.168 Y108.902 E-.26035
G1 X90.871 Y108.204 E-.17515
G1 X90.709 Y107.794 E-.10179
G1 X90.565 Y106.701 E-.25456
G1 X90.67 Y105.865 E-.19459
;WIPE_END
G1 Z.4 F720
G1 X78.28 Y109.306 F10800
G1 Z.2 F720
G1 E1 F2100
M204 S800
;TYPE:Perimeter
G1 F1200
G1 X78.069 Y108.839 E.01607
