; generated by PrusaSlicer 2.8.1+win64 on 2025-01-14 at 09:09:07 UTC


;
;
; 

; external perimeters extrusion width = 0.45mm
; perimeters extrusion width = 0.45mm
; infill extrusion width = 0.45mm
; solid infill extrusion width = 0.45mm
; top infill extrusion width = 0.40mm
; support material extrusion width = 0.35mm
; first layer extrusion width = 0.42mm

; external perimeters extrusion width = 0.45mm
; perimeters extrusion width = 0.45mm
; infill extrusion width = 0.45mm
; solid infill extrusion width = 0.45mm
; top infill extrusion width = 0.40mm
; support material extrusion width = 0.35mm
; first layer extrusion width = 0.42mm

; external perimeters extrusion width = 0.45mm
; perimeters extrusion width = 0.45mm
; infill extrusion width = 0.45mm
; solid infill extrusion width = 0.45mm
; top infill extrusion width = 0.40mm
; support material extrusion width = 0.35mm
; first layer extrusion width = 0.42mm

M73 P0 R80
M73 Q0 S81
M201 X1000 Y1000 Z200 E5000 ; sets maximum accelerations, mm/sec^2
M203 X200 Y200 Z12 E120 ; sets maximum feedrates, mm / sec
M204 S1250 T1250 ; sets acceleration (S) and retract acceleration (R), mm/sec^2
M205 X8.00 Y8.00 Z0.40 E4.50 ; sets the jerk limits, mm/sec
M205 S0 T0 ; sets the minimum extruding and travel feed rate, mm/sec

; printing object Parts.stl_2 id:0 copy 0
; stop printing object Parts.stl_2 id:0 copy 0
; printing object Parts.stl_8 id:2 copy 0
; stop printing object Parts.stl_8 id:2 copy 0
; printing object Parts.stl_5 id:1 copy 0
; stop printing object Parts.stl_5 id:1 copy 0

;TYPE:Custom
M862.3 P "MK3S" ; printer model check
M862.1 P0.4 ; nozzle diameter check
M115 U3.14.0 ; tell printer latest fw version
G90 ; use absolute coordinates
M83 ; extruder relative mode
M104 S240 ; set extruder temp
M140 S85 ; set bed temp
M190 S85 ; wait for bed temp
M109 S240 ; wait for extruder temp
G28 W ; home all without mesh bed level
G80 X91.3729 Y68.1844 W67.2542 H72.1927 ; mesh bed levelling

G1 Z0.2 F720
G1 Y-3 F1000 ; go outside print area
G92 E0
G1 X60 E9 F1000 ; intro line
G1 X100 E12.5 F1000 ; intro line

G92 E0
M221 S95

; Don't change E values below. Excessive value can damage the printer.
M907 E430 ; set extruder motor current
G21 ; set units to millimeters
G90 ; use absolute coordinates
M83 ; use relative distances for extrusion

M900 K0.08 ; Filament gcode LA 1.5
M900 K45 ; Filament gcode LA 1.0




M107
;LAYER_CHANGE
;Z:0.2
;HEIGHT:0.2
G1 E-1 F2100
G1 Z.4 F720
G1 X108.775 Y72.517 F10800
G1 Z.2 F720
G1 E1 F2100
M204 S800
;TYPE:Skirt/Brim
;WIDTH:0.42
G1 F1200
G1 X109.929 Y70.786 E.06523
G1 X111.57 Y69.819 E.05972
G1 X129.307 Y68.373 E.55798
G1 X156.366 Y69.815 E.84962
G1 X157.592 Y70.271 E.04101
G1 X158.338 Y71.345 E.041
G1 X158.439 Y72 E.02078
G1 X158.439 Y138 E2.06938
G1 X158.048 Y139.248 E.04101
G1 X157.015 Y140.051 E.04102
G1 X156.25 Y140.189 E.02437
G1 X111.75 Y140.189 E1.39527
G1 X110.502 Y139.798 E.04101
M73 Q0 S80
G1 X109.929 Y139.214 E.02565
G1 X91.929 Y112.214 E1.01745
G1 X91.561 Y111 E.03977
G1 X91.561 Y99.611 E.35709
G1 X91.561 Y99 E.01916
G1 X91.929 Y97.786 E.03977
G1 X108.742 Y72.567 E.95034
M204 S1000
;WIPE_START
G1 F8640
G1 X108.775 Y72.517 E-.01383
G1 X109.929 Y70.786 E-.48037
G1 X111.57 Y69.819 E-.43981
G1 X111.855 Y69.796 E-.06599
;WIPE_END
G1 Z.4 F720
; printing object Parts.stl_2 id:0 copy 0
G1 X101.467 Y105.46 F10800
G1 Z.2 F720
G1 E1 F2100
M204 S800
;TYPE:Perimeter
;WIDTH:0.419999
G1 F1200
G1 X101.454 Y105.533 E.00232
G1 X101.258 Y105.956 E.01462
G1 X100.959 Y106.314 E.01462
G1 X100.578 Y106.582 E.01461
G1 X100.14 Y106.742 E.01462
G1 X99.676 Y106.784 E.01461
G1 X99.217 Y106.704 E.01461
G1 X98.794 Y106.508 E.01462
G1 X98.436 Y106.209 E.01462
G1 X98.168 Y105.828 E.01461
G1 X98.008 Y105.39 E.01462
G1 X97.966 Y105.074 E.01
G1 X98.008 Y104.61 E.01461
G1 X98.168 Y104.172 E.01462
G1 X98.485 Y103.735 E.01693
G1 X98.922 Y103.418 E.01693
G1 X99.36 Y103.258 E.01462
G1 X99.824 Y103.216 E.01461
G1 X100.283 Y103.296 E.01461
G1 X100.706 Y103.492 E.01462
G1 X101.064 Y103.791 E.01462
G1 X101.332 Y104.172 E.01461
G1 X101.492 Y104.61 E.01462
G1 X101.534 Y105.074 E.01461
G1 X101.477 Y105.401 E.01041
M204 S1000
G1 X101.477 Y105.401 F10800
G1 X101.11 Y105.364
M204 S800
;TYPE:External perimeter
G1 F1200
G1 X101.106 Y105.389 E.00079
G1 X100.959 Y105.726 E.01153
G1 X100.73 Y106.015 E.01156
G1 X100.434 Y106.234 E.01154
G1 X100.091 Y106.369 E.01156
G1 X99.725 Y106.41 E.01155
G1 X99.361 Y106.356 E.01154
G1 X99.024 Y106.209 E.01153
G1 X98.735 Y105.98 E.01156
G1 X98.516 Y105.684 E.01154
G1 X98.381 Y105.341 E.01156
G1 X98.34 Y105.025 E.00999
G1 X98.394 Y104.611 E.01309
G1 X98.541 Y104.274 E.01153
G1 X98.77 Y103.985 E.01156
G1 X99.066 Y103.766 E.01154
G1 X99.409 Y103.631 E.01156
G1 X99.775 Y103.59 E.01155
G1 X100.139 Y103.644 E.01154
G1 X100.476 Y103.791 E.01153
G1 X100.765 Y104.02 E.01156
G1 X100.984 Y104.316 E.01154
G1 X101.119 Y104.659 E.01156
G1 X101.16 Y105.025 E.01155
G1 X101.118 Y105.305 E.00888
M204 S1000
;WIPE_START
G1 F8640
G1 X101.11 Y105.364 E-.01375
G1 X101.106 Y105.389 E-.00585
G1 X100.959 Y105.726 E-.0849
G1 X100.73 Y106.015 E-.08514
G1 X100.434 Y106.234 E-.08502
G1 X100.091 Y106.369 E-.08511
G1 X99.725 Y106.41 E-.08504
G1 X99.361 Y106.356 E-.08497
G1 X99.024 Y106.209 E-.0849
G1 X98.735 Y105.98 E-.08514
G1 X98.516 Y105.684 E-.08502
G1 X98.381 Y105.341 E-.08511
G1 X98.34 Y105.025 E-.07358
G1 X98.372 Y104.783 E-.05647
;WIPE_END
G1 Z.4 F720
G1 X104.963 Y99.787 F10800
G1 Z.2 F720
G1 E1 F2100
M204 S800
;TYPE:Perimeter
G1 F1200
G1 X104.963 Y102.1 E.07252
G1 X104.963 Y110.213 E.25438
G1 X94.537 Y110.213 E.3269
G1 X94.537 Y99.787 E.3269
G1 X104.903 Y99.787 E.32502
M204 S1000
G1 X105.34 Y99.41 F10800
M204 S800
;TYPE:External perimeter
G1 F1200
G1 X105.34 Y102.1 E.08434
G1 X105.34 Y110.59 E.2662
G1 X94.16 Y110.59 E.35054
G1 X94.16 Y99.41 E.35054
G1 X105.28 Y99.41 E.34866
M204 S1000
;WIPE_START
G1 F8640
G1 X105.34 Y99.41 E-.01385
G1 X105.34 Y102.1 E-.62113
G1 X105.34 Y103.681 E-.36502
;WIPE_END
G1 Z.4 F720
G1 X104.01 Y99.957 F10800
G1 Z.2 F720
G1 E1 F2100
M204 S800
;TYPE:Solid infill
;WIDTH:0.429886
G1 F1200
G1 X104.624 Y100.57 E.02792
G1 X104.624 Y101.118 E.01763
G1 X103.632 Y100.126 E.04514
G1 X103.085 Y100.126 E.0176
G1 X104.624 Y101.665 E.07003
G1 X104.624 Y102.212 E.0176
G1 X102.538 Y100.126 E.09492
G1 X101.991 Y100.126 E.0176
G1 X104.624 Y102.759 E.11981
G1 X104.624 Y103.307 E.01763
G1 X101.443 Y100.126 E.14475
G1 X100.896 Y100.126 E.0176
G1 X104.624 Y103.854 E.16964
G1 X104.624 Y104.401 E.0176
G1 X100.349 Y100.126 E.19453
G1 X99.802 Y100.126 E.0176
M73 P0 R79
G1 X104.624 Y104.948 E.21942
G1 X104.624 Y105.496 E.01763
G1 X99.254 Y100.126 E.24436
G1 X98.707 Y100.126 E.0176
G1 X104.624 Y106.043 E.26925
G1 X104.624 Y106.59 E.0176
G1 X98.16 Y100.126 E.29414
G1 X97.613 Y100.126 E.0176
G1 X100.508 Y103.021 E.13173
G1 X100.717 Y103.108 E.00728
G1 X100.906 Y103.217 E.00702
G1 X101.256 Y103.494 E.01436
G1 X101.533 Y103.844 E.01436
G1 X101.642 Y104.033 E.00702
G1 X101.729 Y104.242 E.00728
G1 X104.624 Y107.137 E.13173
G1 X104.624 Y107.685 E.01763
G1 X101.872 Y104.933 E.12523
G1 X101.879 Y105 E.00217
G1 X101.828 Y105.436 E.01412
G1 X104.624 Y108.232 E.12723
G1 X104.624 Y108.779 E.0176
G1 X101.688 Y105.844 E.13358
G1 X101.643 Y105.965 E.00415
G1 X101.498 Y106.2 E.00888
G1 X104.624 Y109.326 E.14225
G1 X104.624 Y109.874 E.01763
G1 X101.256 Y106.506 E.15326
G1 X100.95 Y106.748 E.01255
G1 X104.076 Y109.874 E.14225
G1 X103.529 Y109.874 E.0176
G1 X100.594 Y106.938 E.13358
G1 X100.186 Y107.078 E.01388
G1 X102.982 Y109.874 E.12723
G1 X102.434 Y109.874 E.01763
G1 X99.489 Y106.928 E.13403
M204 S1000
;WIPE_START
G1 F8640
G1 X102.434 Y109.874 E-.96184
G1 X102.599 Y109.874 E-.03816
;WIPE_END
G1 Z.4 F720
G1 X100.008 Y103.069 F10800
G1 Z.2 F720
G1 E1 F2100
M204 S800
G1 F1200
G1 X97.065 Y100.126 E.13392
G1 X96.518 Y100.126 E.0176
G1 X99.314 Y102.922 E.12723
G1 X98.906 Y103.062 E.01388
G1 X95.971 Y100.126 E.13358
G1 X95.424 Y100.126 E.0176
G1 X98.55 Y103.252 E.14225
G1 X98.244 Y103.494 E.01255
G1 X94.876 Y100.127 E.15324
G1 X94.876 Y100.674 E.0176
G1 X98.002 Y103.8 E.14225
G1 X97.858 Y104.033 E.00881
G1 X97.808 Y104.153 E.00418
G1 X94.876 Y101.221 E.13342
G1 X94.876 Y101.768 E.0176
G1 X97.671 Y104.563 E.12718
G1 X97.621 Y105 E.01415
G1 X97.629 Y105.068 E.0022
G1 X94.876 Y102.316 E.12525
G1 X94.876 Y102.863 E.0176
G1 X97.771 Y105.758 E.13173
G1 X97.858 Y105.967 E.00728
G1 X97.967 Y106.156 E.00702
G1 X98.244 Y106.506 E.01436
G1 X98.594 Y106.783 E.01436
G1 X98.783 Y106.892 E.00702
G1 X98.992 Y106.978 E.00727
G1 X101.887 Y109.874 E.13176
G1 X101.34 Y109.874 E.0176
G1 X94.876 Y103.41 E.29414
G1 X94.876 Y103.957 E.0176
G1 X100.793 Y109.874 E.26925
G1 X100.245 Y109.874 E.01763
G1 X94.876 Y104.505 E.24431
G1 X94.876 Y105.052 E.0176
G1 X99.698 Y109.874 E.21942
G1 X99.151 Y109.874 E.0176
G1 X94.876 Y105.599 E.19453
G1 X94.876 Y106.146 E.0176
G1 X98.604 Y109.874 E.16964
G1 X98.056 Y109.874 E.01763
G1 X94.876 Y106.694 E.1447
G1 X94.876 Y107.241 E.0176
G1 X97.509 Y109.874 E.11981
G1 X96.962 Y109.874 E.0176
G1 X94.876 Y107.788 E.09492
G1 X94.876 Y108.335 E.0176
G1 X96.415 Y109.874 E.07003
G1 X95.867 Y109.874 E.01763
G1 X94.876 Y108.883 E.04509
G1 X94.876 Y109.43 E.0176
G1 X95.49 Y110.043 E.02792
M204 S1000
;WIPE_START
G1 F8640
G1 X94.876 Y109.43 E-.20034
G1 X94.876 Y108.883 E-.1263
G1 X95.867 Y109.874 E-.32361
G1 X96.415 Y109.874 E-.12653
G1 X95.732 Y109.191 E-.22322
;WIPE_END
G1 Z.4 F720
; stop printing object Parts.stl_2 id:0 copy 0
; printing object Parts.stl_8 id:2 copy 0
G1 X131.303 Y73.72 F10800
G1 Z.2 F720
G1 E1 F2100
M204 S800
;TYPE:Support material
;WIDTH:0.42
G1 F1200
G1 X128.23 Y73.72 E.09635
G1 X128.23 Y71.801 E.06017
G1 X127.949 Y71.52 E.01246
G1 X126.358 Y71.52 E.04988
G1 X126.279 Y71.441 E.0035
G1 X129.19 Y70.558 E.09538
G1 X131.271 Y73.673 E.11746
M204 S1000
G1 X131.271 Y73.673 F10800
G1 X130.648 Y73.55
M204 S800
G1 F1200
G1 X130.648 Y73.351 E.00624
G1 X130.229 Y72.724 E.02364
G1 X130.229 Y73.381 E.0206
G1 X129.81 Y73.381 E.01314
G1 X129.81 Y72.097 E.04026
G1 X129.391 Y71.47 E.02364
G1 X129.391 Y73.381 E.05992
G1 X128.972 Y73.381 E.01314
G1 X128.972 Y70.979 E.07531
G1 X128.553 Y71.106 E.01373
G1 X128.553 Y73.55 E.07663
M204 S1000
;WIPE_START
G1 F8640
G1 X128.553 Y71.106 E-.56433
G1 X128.972 Y70.979 E-.10109
G1 X128.972 Y72.428 E-.33458
;WIPE_END
G1 Z.4 F720
G1 X116.353 Y76.566 F10800
G1 Z.2 F720
G1 E1 F2100
M204 S800
;TYPE:Perimeter
;WIDTH:0.419999
G1 F1200
G1 X116.329 Y76.579 E.00086
G1 X116.209 Y76.754 E.00665
G1 X116.163 Y76.979 E.0072
G1 X116.163 Y101.213 E.75984
G1 X112.537 Y101.213 E.11369
G1 X112.537 Y72.787 E.89128
G1 X126.963 Y72.787 E.45232
G1 X126.963 Y74.421 E.05123
G1 X127.023 Y74.674 E.00815
G1 X127.209 Y74.888 E.00889
G1 X127.529 Y74.987 E.0105
G1 X140.471 Y74.987 E.40579
G1 X140.791 Y74.888 E.0105
G1 X140.977 Y74.674 E.00889
G1 X141.037 Y74.422 E.00812
G1 X141.037 Y72.787 E.05126
G1 X155.463 Y72.787 E.45232
G1 X155.463 Y75.008 E.06964
G1 X155.463 Y101.213 E.82164
G1 X151.837 Y101.213 E.11369
M73 P1 R79
M73 Q1 S80
G1 X151.837 Y76.979 E.75984
G1 X151.791 Y76.754 E.0072
G1 X151.671 Y76.579 E.00665
G1 X151.496 Y76.459 E.00665
G1 X151.271 Y76.413 E.0072
G1 X116.729 Y76.413 E1.08304
G1 X116.631 Y76.421 E.00308
G1 X116.406 Y76.538 E.00795
M204 S1000
G1 X116.406 Y76.538 F10800
G1 X116.582 Y76.878
M204 S800
;TYPE:External perimeter
G1 F1200
G1 X116.54 Y76.979 E.00343
G1 X116.54 Y101.59 E.77166
G1 X112.16 Y101.59 E.13733
G1 X112.16 Y72.41 E.91492
G1 X127.34 Y72.41 E.47596
G1 X127.34 Y74.421 E.06305
G1 X127.422 Y74.577 E.00553
G1 X127.529 Y74.61 E.00351
G1 X140.471 Y74.61 E.40579
G1 X140.578 Y74.577 E.00351
G1 X140.66 Y74.421 E.00553
G1 X140.66 Y72.41 E.06305
G1 X155.84 Y72.41 E.47596
G1 X155.84 Y75.008 E.08146
G1 X155.84 Y101.59 E.83346
G1 X151.46 Y101.59 E.13733
G1 X151.46 Y76.979 E.77166
G1 X151.405 Y76.845 E.00454
G1 X151.271 Y76.79 E.00454
G1 X116.729 Y76.79 E1.08304
G1 X116.618 Y76.836 E.00377
M204 S1000
;WIPE_START
G1 F8640
G1 X116.582 Y76.878 E-.01277
G1 X116.54 Y76.979 E-.02526
G1 X116.54 Y81.145 E-.96197
;WIPE_END
G1 Z.4 F720
G1 X154.527 Y72.957 F10800
G1 Z.2 F720
G1 E1 F2100
M204 S800
;TYPE:Solid infill
;WIDTH:0.421909
G1 F1200
G1 X155.124 Y73.553 E.02658
G1 X155.124 Y74.089 E.01689
G1 X154.161 Y73.126 E.04292
G1 X153.625 Y73.126 E.01689
G1 X155.124 Y74.625 E.0668
G1 X155.124 Y75.161 E.01689
G1 X153.089 Y73.126 E.09069
G1 X152.553 Y73.126 E.01689
G1 X155.124 Y75.697 E.11458
G1 X155.124 Y76.233 E.01689
G1 X152.017 Y73.126 E.13847
G1 X151.481 Y73.126 E.01689
G1 X155.124 Y76.769 E.16235
G1 X155.124 Y77.305 E.01689
G1 X150.945 Y73.126 E.18624
G1 X150.409 Y73.126 E.01689
G1 X155.124 Y77.841 E.21013
G1 X155.124 Y78.377 E.01689
G1 X149.873 Y73.126 E.23402
G1 X149.337 Y73.126 E.01689
G1 X155.124 Y78.913 E.2579
G1 X155.124 Y79.449 E.01689
G1 X148.801 Y73.126 E.28179
G1 X148.265 Y73.126 E.01689
G1 X151.212 Y76.074 E.13136
G1 X151.287 Y76.074 E.00236
G1 X151.631 Y76.145 E.01107
G1 X151.913 Y76.337 E.01075
G1 X152.105 Y76.619 E.01075
G1 X152.176 Y76.963 E.01107
G1 X152.176 Y77.038 E.00236
G1 X155.124 Y79.985 E.13136
G1 X155.124 Y80.521 E.01689
G1 X152.176 Y77.574 E.13136
G1 X152.176 Y78.11 E.01689
G1 X155.124 Y81.057 E.13136
G1 X155.124 Y81.593 E.01689
G1 X152.176 Y78.646 E.13136
G1 X152.176 Y79.182 E.01689
G1 X155.124 Y82.129 E.13136
G1 X155.124 Y82.665 E.01689
G1 X152.176 Y79.718 E.13136
G1 X152.176 Y80.254 E.01689
G1 X155.124 Y83.201 E.13136
G1 X155.124 Y83.737 E.01689
G1 X152.176 Y80.79 E.13136
G1 X152.176 Y81.326 E.01689
G1 X155.124 Y84.273 E.13136
G1 X155.124 Y84.809 E.01689
G1 X152.176 Y81.862 E.13136
G1 X152.176 Y82.398 E.01689
G1 X155.124 Y85.345 E.13136
G1 X155.124 Y85.881 E.01689
G1 X152.176 Y82.934 E.13136
G1 X152.176 Y83.47 E.01689
G1 X155.124 Y86.417 E.13136
G1 X155.124 Y86.953 E.01689
G1 X152.176 Y84.006 E.13136
G1 X152.176 Y84.542 E.01689
G1 X155.124 Y87.489 E.13136
G1 X155.124 Y88.025 E.01689
G1 X152.176 Y85.078 E.13136
G1 X152.176 Y85.613 E.01686
G1 X155.124 Y88.561 E.13138
G1 X155.124 Y89.097 E.01689
G1 X152.176 Y86.149 E.13138
G1 X152.176 Y86.685 E.01689
G1 X155.124 Y89.633 E.13138
G1 X155.124 Y90.169 E.01689
G1 X152.176 Y87.221 E.13138
G1 X152.176 Y87.757 E.01689
G1 X155.124 Y90.704 E.13136
G1 X155.124 Y91.24 E.01689
G1 X152.176 Y88.293 E.13136
G1 X152.176 Y88.829 E.01689
G1 X155.124 Y91.776 E.13136
G1 X155.124 Y92.312 E.01689
G1 X152.176 Y89.365 E.13136
G1 X152.176 Y89.901 E.01689
G1 X155.124 Y92.848 E.13136
G1 X155.124 Y93.384 E.01689
G1 X152.176 Y90.437 E.13136
G1 X152.176 Y90.973 E.01689
G1 X155.124 Y93.92 E.13136
G1 X155.124 Y94.456 E.01689
G1 X152.176 Y91.509 E.13136
G1 X152.176 Y92.045 E.01689
G1 X155.124 Y94.992 E.13136
G1 X155.124 Y95.528 E.01689
M73 Q1 S79
G1 X152.176 Y92.581 E.13136
G1 X152.176 Y93.117 E.01689
G1 X155.124 Y96.064 E.13136
G1 X155.124 Y96.6 E.01689
G1 X152.176 Y93.653 E.13136
G1 X152.176 Y94.189 E.01689
G1 X155.124 Y97.136 E.13136
G1 X155.124 Y97.672 E.01689
G1 X152.176 Y94.725 E.13136
G1 X152.176 Y95.261 E.01689
G1 X155.124 Y98.208 E.13136
G1 X155.124 Y98.744 E.01689
G1 X152.176 Y95.797 E.13136
G1 X152.176 Y96.333 E.01689
G1 X155.124 Y99.28 E.13136
G1 X155.124 Y99.816 E.01689
G1 X152.176 Y96.869 E.13136
G1 X152.176 Y97.405 E.01689
G1 X155.124 Y100.352 E.13136
G1 X155.124 Y100.874 E.01645
G1 X155.109 Y100.874 E.00047
G1 X152.176 Y97.941 E.13071
G1 X152.176 Y98.477 E.01689
G1 X154.573 Y100.874 E.10683
G1 X154.037 Y100.874 E.01689
G1 X152.176 Y99.013 E.08294
G1 X152.176 Y99.549 E.01689
G1 X153.501 Y100.874 E.05905
G1 X152.965 Y100.874 E.01689
G1 X152.176 Y100.085 E.03516
G1 X152.176 Y100.621 E.01689
G1 X152.599 Y101.043 E.01883
M204 S1000
;WIPE_START
G1 F8640
G1 X152.176 Y100.621 E-.13797
G1 X152.176 Y100.085 E-.12376
G1 X152.965 Y100.874 E-.25764
G1 X153.501 Y100.874 E-.12376
G1 X152.408 Y99.781 E-.35687
;WIPE_END
G1 Z.4 F720
G1 X150.846 Y76.243 F10800
G1 Z.2 F720
G1 E1 F2100
M204 S800
G1 F1200
G1 X147.729 Y73.126 E.13891
G1 X147.193 Y73.126 E.01689
G1 X150.14 Y76.074 E.13136
G1 X149.604 Y76.074 E.01689
G1 X146.657 Y73.126 E.13136
G1 X146.121 Y73.126 E.01689
G1 X149.068 Y76.074 E.13136
G1 X148.532 Y76.074 E.01689
