; generated by PrusaSlicer 2.8.1+win64 on 2024-12-13 at 23:02:38 UTC


;
;
; 

; external perimeters extrusion width = 0.45mm
; perimeters extrusion width = 0.45mm
; infill extrusion width = 0.45mm
; solid infill extrusion width = 0.45mm
; top infill extrusion width = 0.40mm
; support material extrusion width = 0.35mm
; first layer extrusion width = 0.42mm

M73 P0 R74
M73 Q0 S75
M201 X1000 Y1000 Z200 E5000 ; sets maximum accelerations, mm/sec^2
M203 X200 Y200 Z12 E120 ; sets maximum feedrates, mm / sec
M204 S1250 T1250 ; sets acceleration (S) and retract acceleration (R), mm/sec^2
M205 X8.00 Y8.00 Z0.40 E4.50 ; sets the jerk limits, mm/sec
M205 S0 T0 ; sets the minimum extruding and travel feed rate, mm/sec

; printing object Leg v3 capat 2.stl id:0 copy 0
; stop printing object Leg v3 capat 2.stl id:0 copy 0

;TYPE:Custom
M862.3 P "MK3S" ; printer model check
M862.1 P0.4 ; nozzle diameter check
M115 U3.14.0 ; tell printer latest fw version
G90 ; use absolute coordinates
M83 ; extruder relative mode
M104 S240 ; set extruder temp
M140 S85 ; set bed temp
M190 S85 ; wait for bed temp
M109 S240 ; wait for extruder temp
G28 W ; home all without mesh bed level
G80 X102.783 Y59.6128 W44.4342 H88.1143 ; mesh bed levelling

G1 Z0.2 F720
G1 Y-3 F1000 ; go outside print area
G92 E0
G1 X60 E9 F1000 ; intro line
G1 X100 E12.5 F1000 ; intro line

G92 E0
M221 S95

; Don't change E values below. Excessive value can damage the printer.
M907 E430 ; set extruder motor current
G21 ; set units to millimeters
G90 ; use absolute coordinates
M83 ; use relative distances for extrusion

M900 K0.08 ; Filament gcode LA 1.5
M900 K45 ; Filament gcode LA 1.0




M107
;LAYER_CHANGE
;Z:0.2
;HEIGHT:0.2
G1 E-1 F2100
G1 Z.4 F720
G1 X103.362 Y60.742 F10800
G1 Z.2 F720
G1 E1 F2100
M204 S800
;TYPE:Skirt/Brim
;WIDTH:0.42
G1 F1200
G1 X104.395 Y59.939 E.04102
G1 X105.16 Y59.801 E.02437
G1 X144.84 Y59.801 E1.24414
G1 X146.088 Y60.192 E.04101
G1 X146.891 Y61.225 E.04102
G1 X147.029 Y61.99 E.02437
G1 X147.029 Y112.64 E1.5881
G1 X143.923 Y138.611 E.82011
G1 X143.386 Y139.804 E.04102
G1 X142.486 Y140.411 E.03404
G1 X122.886 Y147.411 E.65256
G1 X122.15 Y147.539 E.02342
G1 X117.15 Y147.539 E.15677
G1 X115.902 Y147.148 E.04101
G1 X115.095 Y146.103 E.0414
G1 X103.105 Y113.393 E1.09233
G1 X102.971 Y112.64 E.02398
G1 X102.971 Y61.99 E1.5881
G1 X103.344 Y60.799 E.03913
M73 Q0 S74
M204 S1000
;WIPE_START
G1 F8640
G1 X103.362 Y60.742 E-.0138
G1 X104.395 Y59.939 E-.30211
G1 X105.16 Y59.801 E-.17949
G1 X107.345 Y59.801 E-.5046
;WIPE_END
G1 Z.4 F720
; printing object Leg v3 capat 2.stl id:0 copy 0
G1 X126.41 Y139.79 F10800
G1 Z.2 F720
G1 E1 F2100
M204 S800
;TYPE:Support material
G1 F1200
G1 X124.654 Y140.964 E.06623
G1 X122.63 Y142.987 E.08973
G1 X122.63 Y138.83 E.13034
G1 X126.119 Y138.83 E.1094
G1 X126.393 Y139.736 E.02968
M204 S1000
G1 X126.393 Y139.736 F10800
G1 X125.838 Y139.968
M204 S800
G1 F1200
G1 X125.838 Y139.169 E.02505
G1 X125.419 Y139.169 E.01314
G1 X125.419 Y140.044 E.02744
G1 X125 Y140.324 E.0158
G1 X125 Y139.169 E.03621
G1 X124.581 Y139.169 E.01314
G1 X124.581 Y140.604 E.04499
G1 X124.162 Y140.975 E.01755
G1 X124.162 Y139.169 E.05663
G1 X123.743 Y139.169 E.01314
G1 X123.743 Y141.394 E.06976
G1 X123.324 Y141.813 E.01858
G1 X123.324 Y139 E.0882
M204 S1000
;WIPE_START
G1 F8640
G1 X123.324 Y141.813 E-.64953
G1 X123.743 Y141.394 E-.13682
G1 X123.743 Y140.469 E-.21365
;WIPE_END
G1 Z.4 F720
G1 X144.84 Y112.64 F10800
G1 Z.2 F720
G1 E1 F2100
M204 S800
G1 F1200
G1 X142.23 Y112.64 E.08183
G1 X142.23 Y109.651 E.09372
G1 X141.949 Y109.37 E.01246
G1 X116.951 Y109.37 E.78379
G1 X116.67 Y109.651 E.01246
G1 X116.67 Y114.487 E.15163
G1 X114.823 Y112.64 E.0819
G1 X105.16 Y112.64 E.30298
G1 X105.16 Y61.99 E1.5881
G1 X144.84 Y61.99 E1.24414
G1 X144.84 Y112.583 E1.58631
M204 S1000
;WIPE_START
G1 F8640
G1 X144.84 Y108.252 E-1
;WIPE_END
G1 Z.4 F720
G1 X114.74 Y101.86 F10800
G1 Z.2 F720
G1 E1 F2100
M204 S800
G1 F1200
G1 X114.74 Y74.636 E.85359
G1 X135.26 Y74.636 E.64339
G1 X135.26 Y101.86 E.85359
G1 X114.797 Y101.86 E.6416
M204 S1000
;WIPE_START
G1 F8640
G1 X119.128 Y101.86 E-1
;WIPE_END
G1 Z.4 F720
G1 X144.273 Y112.47 F10800
G1 Z.2 F720
G1 E1 F2100
M204 S800
G1 F1200
G1 X144.273 Y62.329 E1.57214
G1 X143.854 Y62.329 E.01314
M73 P0 R73
G1 X143.854 Y112.301 E1.56684
G1 X143.435 Y112.301 E.01314
G1 X143.435 Y62.329 E1.56684
G1 X143.016 Y62.329 E.01314
M73 P1 R73
M73 Q1 S74
G1 X143.016 Y112.301 E1.56684
G1 X142.597 Y112.301 E.01314
G1 X142.597 Y62.329 E1.56684
G1 X142.178 Y62.329 E.01314
G1 X142.178 Y109.119 E1.46707
G1 X142.089 Y109.031 E.00392
G1 X141.759 Y109.031 E.01035
G1 X141.759 Y62.329 E1.46431
G1 X141.34 Y62.329 E.01314
G1 X141.34 Y109.031 E1.46431
G1 X140.921 Y109.031 E.01314
G1 X140.921 Y62.329 E1.46431
G1 X140.502 Y62.329 E.01314
G1 X140.502 Y109.031 E1.46431
G1 X140.083 Y109.031 E.01314
G1 X140.083 Y62.329 E1.46431
G1 X139.664 Y62.329 E.01314
G1 X139.664 Y109.031 E1.46431
G1 X139.245 Y109.031 E.01314
G1 X139.245 Y62.329 E1.46431
G1 X138.826 Y62.329 E.01314
G1 X138.826 Y109.031 E1.46431
G1 X138.407 Y109.031 E.01314
G1 X138.407 Y62.329 E1.46431
G1 X137.988 Y62.329 E.01314
G1 X137.988 Y109.031 E1.46431
G1 X137.569 Y109.031 E.01314
G1 X137.569 Y62.329 E1.46431
G1 X137.15 Y62.329 E.01314
M73 Q1 S73
G1 X137.15 Y109.031 E1.46431
G1 X136.731 Y109.031 E.01314
G1 X136.731 Y62.329 E1.46431
G1 X136.312 Y62.329 E.01314
G1 X136.312 Y109.031 E1.46431
G1 X135.893 Y109.031 E.01314
G1 X135.893 Y62.329 E1.46431
G1 X135.474 Y62.329 E.01314
G1 X135.474 Y109.031 E1.46431
G1 X135.055 Y109.031 E.01314
M73 P2 R73
M73 Q2 S73
G1 X135.055 Y102.199 E.21421
G1 X134.636 Y102.199 E.01314
G1 X134.636 Y109.031 E.21421
G1 X134.217 Y109.031 E.01314
G1 X134.217 Y102.199 E.21421
G1 X133.799 Y102.199 E.01311
G1 X133.799 Y109.031 E.21421
G1 X133.38 Y109.031 E.01314
G1 X133.38 Y102.199 E.21421
G1 X132.961 Y102.199 E.01314
G1 X132.961 Y109.031 E.21421
G1 X132.542 Y109.031 E.01314
G1 X132.542 Y102.199 E.21421
G1 X132.123 Y102.199 E.01314
G1 X132.123 Y109.031 E.21421
G1 X131.704 Y109.031 E.01314
G1 X131.704 Y102.199 E.21421
G1 X131.285 Y102.199 E.01314
G1 X131.285 Y109.031 E.21421
G1 X130.866 Y109.031 E.01314
G1 X130.866 Y102.199 E.21421
G1 X130.447 Y102.199 E.01314
G1 X130.447 Y109.031 E.21421
G1 X130.028 Y109.031 E.01314
G1 X130.028 Y102.199 E.21421
G1 X129.609 Y102.199 E.01314
G1 X129.609 Y109.031 E.21421
G1 X129.19 Y109.031 E.01314
G1 X129.19 Y102.199 E.21421
G1 X128.771 Y102.199 E.01314
G1 X128.771 Y109.031 E.21421
G1 X128.352 Y109.031 E.01314
G1 X128.352 Y102.199 E.21421
G1 X127.933 Y102.199 E.01314
G1 X127.933 Y109.031 E.21421
G1 X127.514 Y109.031 E.01314
G1 X127.514 Y102.199 E.21421
G1 X127.095 Y102.199 E.01314
G1 X127.095 Y109.031 E.21421
G1 X126.676 Y109.031 E.01314
G1 X126.676 Y102.199 E.21421
G1 X126.257 Y102.199 E.01314
G1 X126.257 Y109.031 E.21421
G1 X125.838 Y109.031 E.01314
G1 X125.838 Y102.199 E.21421
G1 X125.419 Y102.199 E.01314
G1 X125.419 Y109.031 E.21421
G1 X125 Y109.031 E.01314
G1 X125 Y102.199 E.21421
G1 X124.581 Y102.199 E.01314
M73 P2 R72
G1 X124.581 Y109.031 E.21421
G1 X124.162 Y109.031 E.01314
G1 X124.162 Y102.199 E.21421
G1 X123.743 Y102.199 E.01314
G1 X123.743 Y109.031 E.21421
G1 X123.324 Y109.031 E.01314
G1 X123.324 Y102.199 E.21421
G1 X122.905 Y102.199 E.01314
G1 X122.905 Y109.031 E.21421
G1 X122.486 Y109.031 E.01314
G1 X122.486 Y102.199 E.21421
G1 X122.067 Y102.199 E.01314
G1 X122.067 Y109.031 E.21421
G1 X121.648 Y109.031 E.01314
G1 X121.648 Y102.199 E.21421
G1 X121.229 Y102.199 E.01314
G1 X121.229 Y109.031 E.21421
G1 X120.81 Y109.031 E.01314
G1 X120.81 Y102.199 E.21421
G1 X120.391 Y102.199 E.01314
G1 X120.391 Y109.031 E.21421
G1 X119.972 Y109.031 E.01314
G1 X119.972 Y102.199 E.21421
G1 X119.553 Y102.199 E.01314
G1 X119.553 Y109.031 E.21421
G1 X119.134 Y109.031 E.01314
G1 X119.134 Y102.199 E.21421
G1 X118.715 Y102.199 E.01314
G1 X118.715 Y109.031 E.21421
G1 X118.296 Y109.031 E.01314
G1 X118.296 Y102.199 E.21421
G1 X117.877 Y102.199 E.01314
G1 X117.877 Y109.031 E.21421
G1 X117.458 Y109.031 E.01314
G1 X117.458 Y102.199 E.21421
G1 X117.039 Y102.199 E.01314
G1 X117.039 Y109.031 E.21421
G1 X116.811 Y109.031 E.00715
G1 X116.62 Y109.221 E.00845
G1 X116.62 Y102.199 E.22017
G1 X116.201 Y102.199 E.01314
G1 X116.201 Y113.539 E.35556
G1 X115.783 Y113.12 E.01856
G1 X115.783 Y102.199 E.34242
G1 X115.364 Y102.199 E.01314
G1 X115.364 Y112.701 E.32928
G1 X114.945 Y112.301 E.01816
G1 X114.945 Y102.03 E.32204
M204 S1000
;WIPE_START
G1 F8640
G1 X114.945 Y106.361 E-1
;WIPE_END
G1 Z.4 F720
G1 X135.055 Y74.466 F10800
G1 Z.2 F720
G1 E1 F2100
M204 S800
G1 F1200
G1 X135.055 Y62.329 E.38055
G1 X134.636 Y62.329 E.01314
G1 X134.636 Y74.297 E.37525
G1 X134.217 Y74.297 E.01314
G1 X134.217 Y62.329 E.37525
G1 X133.799 Y62.329 E.01311
G1 X133.799 Y74.297 E.37525
G1 X133.38 Y74.297 E.01314
G1 X133.38 Y62.329 E.37525
G1 X132.961 Y62.329 E.01314
G1 X132.961 Y74.297 E.37525
G1 X132.542 Y74.297 E.01314
G1 X132.542 Y62.329 E.37525
G1 X132.123 Y62.329 E.01314
G1 X132.123 Y74.297 E.37525
G1 X131.704 Y74.297 E.01314
G1 X131.704 Y62.329 E.37525
G1 X131.285 Y62.329 E.01314
G1 X131.285 Y74.297 E.37525
G1 X130.866 Y74.297 E.01314
G1 X130.866 Y62.329 E.37525
G1 X130.447 Y62.329 E.01314
G1 X130.447 Y74.297 E.37525
G1 X130.028 Y74.297 E.01314
G1 X130.028 Y62.329 E.37525
G1 X129.609 Y62.329 E.01314
G1 X129.609 Y74.297 E.37525
G1 X129.19 Y74.297 E.01314
G1 X129.19 Y62.329 E.37525
G1 X128.771 Y62.329 E.01314
G1 X128.771 Y74.297 E.37525
G1 X128.352 Y74.297 E.01314
G1 X128.352 Y62.329 E.37525
G1 X127.933 Y62.329 E.01314
G1 X127.933 Y74.297 E.37525
G1 X127.514 Y74.297 E.01314
G1 X127.514 Y62.329 E.37525
G1 X127.095 Y62.329 E.01314
G1 X127.095 Y74.297 E.37525
G1 X126.676 Y74.297 E.01314
G1 X126.676 Y62.329 E.37525
G1 X126.257 Y62.329 E.01314
G1 X126.257 Y74.297 E.37525
G1 X125.838 Y74.297 E.01314
G1 X125.838 Y62.329 E.37525
G1 X125.419 Y62.329 E.01314
G1 X125.419 Y74.297 E.37525
G1 X125 Y74.297 E.01314
G1 X125 Y62.329 E.37525
G1 X124.581 Y62.329 E.01314
G1 X124.581 Y74.297 E.37525
G1 X124.162 Y74.297 E.01314
G1 X124.162 Y62.329 E.37525
G1 X123.743 Y62.329 E.01314
G1 X123.743 Y74.297 E.37525
G1 X123.324 Y74.297 E.01314
G1 X123.324 Y62.329 E.37525
G1 X122.905 Y62.329 E.01314
G1 X122.905 Y74.297 E.37525
G1 X122.486 Y74.297 E.01314
G1 X122.486 Y62.329 E.37525
G1 X122.067 Y62.329 E.01314
G1 X122.067 Y74.297 E.37525
G1 X121.648 Y74.297 E.01314
G1 X121.648 Y62.329 E.37525
G1 X121.229 Y62.329 E.01314
G1 X121.229 Y74.297 E.37525
G1 X120.81 Y74.297 E.01314
G1 X120.81 Y62.329 E.37525
G1 X120.391 Y62.329 E.01314
G1 X120.391 Y74.297 E.37525
G1 X119.972 Y74.297 E.01314
G1 X119.972 Y62.329 E.37525
G1 X119.553 Y62.329 E.01314
M73 P3 R72
G1 X119.553 Y74.297 E.37525
G1 X119.134 Y74.297 E.01314
M73 Q3 S73
G1 X119.134 Y62.329 E.37525
G1 X118.715 Y62.329 E.01314
G1 X118.715 Y74.297 E.37525
G1 X118.296 Y74.297 E.01314
G1 X118.296 Y62.329 E.37525
G1 X117.877 Y62.329 E.01314
M73 Q3 S72
G1 X117.877 Y74.297 E.37525
G1 X117.458 Y74.297 E.01314
G1 X117.458 Y62.329 E.37525
G1 X117.039 Y62.329 E.01314
G1 X117.039 Y74.297 E.37525
G1 X116.62 Y74.297 E.01314
G1 X116.62 Y62.329 E.37525
G1 X116.201 Y62.329 E.01314
G1 X116.201 Y74.297 E.37525
G1 X115.783 Y74.297 E.01311
G1 X115.783 Y62.329 E.37525
G1 X115.364 Y62.329 E.01314
G1 X115.364 Y74.297 E.37525
G1 X114.945 Y74.297 E.01314
G1 X114.945 Y62.329 E.37525
G1 X114.526 Y62.329 E.01314
G1 X114.526 Y112.301 E1.56684
G1 X114.107 Y112.301 E.01314
G1 X114.107 Y62.329 E1.56684
G1 X113.688 Y62.329 E.01314
G1 X113.688 Y112.301 E1.56684
G1 X113.269 Y112.301 E.01314
G1 X113.269 Y62.329 E1.56684
G1 X112.85 Y62.329 E.01314
G1 X112.85 Y112.301 E1.56684
G1 X112.431 Y112.301 E.01314
G1 X112.431 Y62.329 E1.56684
G1 X112.012 Y62.329 E.01314
G1 X112.012 Y112.301 E1.56684
G1 X111.593 Y112.301 E.01314
G1 X111.593 Y62.329 E1.56684
G1 X111.174 Y62.329 E.01314
M73 P3 R71
G1 X111.174 Y112.301 E1.56684
G1 X110.755 Y112.301 E.01314
G1 X110.755 Y62.329 E1.56684
G1 X110.336 Y62.329 E.01314
G1 X110.336 Y112.301 E1.56684
G1 X109.917 Y112.301 E.01314
G1 X109.917 Y62.329 E1.56684
G1 X109.498 Y62.329 E.01314
G1 X109.498 Y112.301 E1.56684
G1 X109.079 Y112.301 E.01314
G1 X109.079 Y62.329 E1.56684
G1 X108.66 Y62.329 E.01314
G1 X108.66 Y112.301 E1.56684
G1 X108.241 Y112.301 E.01314
M73 P4 R71
M73 Q4 S72
G1 X108.241 Y62.329 E1.56684
G1 X107.822 Y62.329 E.01314
G1 X107.822 Y112.301 E1.56684
G1 X107.403 Y112.301 E.01314
G1 X107.403 Y62.329 E1.56684
G1 X106.984 Y62.329 E.01314
G1 X106.984 Y112.301 E1.56684
G1 X106.565 Y112.301 E.01314
G1 X106.565 Y62.329 E1.56684
G1 X106.146 Y62.329 E.01314
G1 X106.146 Y112.301 E1.56684
G1 X105.727 Y112.301 E.01314
G1 X105.727 Y62.16 E1.57214
M204 S1000
;WIPE_START
G1 F8640
M73 Q4 S71
G1 X105.727 Y66.491 E-1
;WIPE_END
G1 Z.4 F720
G1 X121.535 Y137.751 F10800
G1 Z.2 F720
G1 E1 F2100
M204 S800
;TYPE:Perimeter
;WIDTH:0.419999
G1 F1200
G1 X121.393 Y137.945 E.00754
G1 X121.363 Y138.129 E.00585
G1 X121.363 Y144.563 E.20173
G1 X117.937 Y144.563 E.10742
G1 X117.937 Y110.637 E1.06372
G1 X140.963 Y110.637 E.72196
G1 X140.963 Y122.15 E.36098
G1 X140.963 Y137.563 E.48326
G1 X121.827 Y137.572 E.59999
G1 X121.589 Y137.676 E.00814
G1 X121.57 Y137.702 E.00101
M204 S1000
G1 X121.57 Y137.702 F10800
G1 X121.791 Y138.026
M204 S800
;TYPE:External perimeter
G1 F1200
G1 X121.74 Y138.129 E.0036
G1 X121.74 Y144.94 E.21355
G1 X117.56 Y144.94 E.13106
G1 X117.56 Y110.26 E1.08737
G1 X141.34 Y110.26 E.7456
G1 X141.34 Y122.15 E.3728
G1 X141.34 Y137.94 E.49508
G1 X121.929 Y137.94 E.60862
G1 X121.821 Y137.976 E.00357
M204 S1000
;WIPE_START
G1 F8640
G1 X121.791 Y138.026 E-.01346
G1 X121.74 Y138.129 E-.02654
G1 X121.74 Y142.287 E-.96
;WIPE_END
G1 Z.4 F720
G1 X140.793 Y111.574 F10800
G1 Z.2 F720
G1 E1 F2100
M204 S800
;TYPE:Solid infill
;WIDTH:0.422389
G1 F1200
G1 X140.196 Y110.976 E.02666
G1 X139.659 Y110.976 E.01694
G1 X140.624 Y111.941 E.04306
G1 X140.624 Y112.478 E.01694
G1 X139.122 Y110.976 E.06702
G1 X138.586 Y110.976 E.01691
G1 X140.624 Y113.014 E.09094
G1 X140.624 Y113.551 E.01694
G1 X138.049 Y110.976 E.1149
G1 X137.512 Y110.976 E.01694
G1 X140.624 Y114.088 E.13887
G1 X140.624 Y114.624 E.01691
G1 X136.976 Y110.976 E.16278
G1 X136.439 Y110.976 E.01694
G1 X140.624 Y115.161 E.18675
G1 X140.624 Y115.698 E.01694
G1 X135.902 Y110.976 E.21071
G1 X135.366 Y110.976 E.01691
G1 X140.624 Y116.234 E.23463
G1 X140.624 Y116.771 E.01694
G1 X134.829 Y110.976 E.25859
G1 X134.292 Y110.976 E.01694
G1 X140.624 Y117.308 E.28255
G1 X140.624 Y117.844 E.01691
G1 X133.756 Y110.976 E.30647
G1 X133.219 Y110.976 E.01694
G1 X140.624 Y118.381 E.33043
G1 X140.624 Y118.918 E.01694
G1 X132.682 Y110.976 E.35439
G1 X132.146 Y110.976 E.01691
G1 X140.624 Y119.454 E.37831
G1 X140.624 Y119.991 E.01694
G1 X131.609 Y110.976 E.40227
G1 X131.073 Y110.976 E.01691
G1 X140.624 Y120.527 E.42619
G1 X140.624 Y121.064 E.01694
G1 X130.536 Y110.976 E.45015
G1 X129.999 Y110.976 E.01694
G1 X140.624 Y121.601 E.47412
G1 X140.624 Y122.137 E.01691
G1 X129.463 Y110.976 E.49803
G1 X128.926 Y110.976 E.01694
M73 P4 R70
G1 X140.624 Y122.674 E.522
G1 X140.624 Y123.211 E.01694
G1 X128.389 Y110.976 E.54596
G1 X127.853 Y110.976 E.01691
G1 X140.624 Y123.747 E.56988
G1 X140.624 Y124.284 E.01694
G1 X127.316 Y110.976 E.59384
G1 X126.779 Y110.976 E.01694
M73 P5 R70
G1 X140.624 Y124.821 E.6178
G1 X140.624 Y125.357 E.01691
M73 Q5 S71
G1 X126.243 Y110.976 E.64172
G1 X125.706 Y110.976 E.01694
G1 X140.624 Y125.894 E.66568
G1 X140.624 Y126.431 E.01694
G1 X125.169 Y110.976 E.68964
G1 X124.633 Y110.976 E.01691
G1 X140.624 Y126.967 E.71356
G1 X140.624 Y127.504 E.01694
G1 X124.096 Y110.976 E.73752
G1 X123.559 Y110.976 E.01694
G1 X140.624 Y128.041 E.76149
G1 X140.624 Y128.577 E.01691
G1 X123.023 Y110.976 E.7854
G1 X122.486 Y110.976 E.01694
G1 X140.624 Y129.114 E.80937
G1 X140.624 Y129.651 E.01694
G1 X121.949 Y110.976 E.83333
G1 X121.413 Y110.976 E.01691
G1 X140.624 Y130.187 E.85725
G1 X140.624 Y130.724 E.01694
G1 X120.876 Y110.976 E.88121
G1 X120.34 Y110.976 E.01691
G1 X140.624 Y131.26 E.90513
G1 X140.624 Y131.797 E.01694
G1 X119.803 Y110.976 E.92909
G1 X119.266 Y110.976 E.01694
G1 X140.624 Y132.334 E.95305
