; generated by PrusaSlicer 2.8.1+win64 on 2024-12-07 at 09:42:51 UTC


;
;
; 

; external perimeters extrusion width = 0.45mm
; perimeters extrusion width = 0.45mm
; infill extrusion width = 0.45mm
; solid infill extrusion width = 0.45mm
; top infill extrusion width = 0.40mm
; support material extrusion width = 0.35mm
; first layer extrusion width = 0.42mm

; external perimeters extrusion width = 0.45mm
; perimeters extrusion width = 0.45mm
; infill extrusion width = 0.45mm
; solid infill extrusion width = 0.45mm
; top infill extrusion width = 0.40mm
; support material extrusion width = 0.35mm
; first layer extrusion width = 0.42mm

M73 P0 R73
M73 Q0 S74
M201 X1000 Y1000 Z200 E5000 ; sets maximum accelerations, mm/sec^2
M203 X200 Y200 Z12 E120 ; sets maximum feedrates, mm / sec
M204 S1250 T1250 ; sets acceleration (S) and retract acceleration (R), mm/sec^2
M205 X8.00 Y8.00 Z0.40 E4.50 ; sets the jerk limits, mm/sec
M205 S0 T0 ; sets the minimum extruding and travel feed rate, mm/sec

; printing object Leg v3 parts v2.stl_3 id:1 copy 0
; stop printing object Leg v3 parts v2.stl_3 id:1 copy 0
; printing object Leg v3 parts v2.stl_2 id:0 copy 0
; stop printing object Leg v3 parts v2.stl_2 id:0 copy 0

;TYPE:Custom
M862.3 P "MK3S" ; printer model check
M862.1 P0.4 ; nozzle diameter check
M115 U3.14.0 ; tell printer latest fw version
G90 ; use absolute coordinates
M83 ; extruder relative mode
M104 S240 ; set extruder temp
M140 S85 ; set bed temp
M190 S85 ; wait for bed temp
M109 S240 ; wait for extruder temp
G28 W ; home all without mesh bed level
G80 X100.373 Y69.6229 W49.2542 H72.1927 ; mesh bed levelling

G1 Z0.2 F720
G1 Y-3 F1000 ; go outside print area
G92 E0
G1 X60 E9 F1000 ; intro line
G1 X100 E12.5 F1000 ; intro line

G92 E0
M221 S95

; Don't change E values below. Excessive value can damage the printer.
M907 E430 ; set extruder motor current
G21 ; set units to millimeters
G90 ; use absolute coordinates
M83 ; use relative distances for extrusion

M900 K0.08 ; Filament gcode LA 1.5
M900 K45 ; Filament gcode LA 1.0




M107
;LAYER_CHANGE
;Z:0.2
;HEIGHT:0.2
G1 E-1 F2100
G1 Z.4 F720
G1 X100.952 Y70.752 F10800
G1 Z.2 F720
G1 E1 F2100
M204 S800
;TYPE:Skirt/Brim
;WIDTH:0.42
G1 F1200
G1 X101.985 Y69.949 E.04102
G1 X102.75 Y69.811 E.02437
G1 X147.25 Y69.811 E1.39527
G1 X148.498 Y70.202 E.04101
G1 X149.301 Y71.235 E.04102
G1 X149.439 Y72 E.02437
G1 X149.439 Y138 E2.06938
G1 X149.048 Y139.248 E.04101
G1 X148.015 Y140.051 E.04102
G1 X147.366 Y140.185 E.02078
G1 X120.307 Y141.627 E.84962
G1 X102.57 Y140.181 E.55798
G1 X101.358 Y139.689 E.04101
G1 X100.561 Y138 E.05856
G1 X100.561 Y72 E2.06938
G1 X100.934 Y70.809 E.03913
M204 S1000
;WIPE_START
G1 F8640
G1 X100.952 Y70.752 E-.0138
G1 X101.985 Y69.949 E-.30211
G1 X102.75 Y69.811 E-.17949
G1 X104.935 Y69.811 E-.5046
;WIPE_END
G1 Z.4 F720
; printing object Leg v3 parts v2.stl_2 id:0 copy 0
G1 X120.19 Y139.442 F10800
G1 Z.2 F720
G1 E1 F2100
M204 S800
;TYPE:Support material
G1 F1200
G1 X117.279 Y138.559 E.09538
G1 X117.358 Y138.48 E.0035
G1 X118.949 Y138.48 E.04988
G1 X119.23 Y138.199 E.01246
G1 X119.23 Y136.28 E.06017
G1 X122.303 Y136.28 E.09635
G1 X120.222 Y139.395 E.11746
M204 S1000
G1 X120.222 Y139.395 F10800
G1 X121.648 Y136.954
M204 S800
G1 F1200
G1 X121.648 Y136.619 E.0105
G1 X121.229 Y136.619 E.01314
G1 X121.229 Y137.276 E.0206
G1 X120.81 Y137.903 E.02364
G1 X120.81 Y136.619 E.04026
G1 X120.391 Y136.619 E.01314
G1 X120.391 Y138.53 E.05992
G1 X120.048 Y139.044 E.01937
G1 X119.972 Y139.021 E.00249
G1 X119.972 Y136.619 E.07531
G1 X119.569 Y136.619 E.01264
G1 X119.553 Y139.071 E.07688
M204 S1000
;WIPE_START
G1 F8640
G1 X119.569 Y136.619 E-.56619
G1 X119.972 Y136.619 E-.09305
G1 X119.972 Y138.095 E-.34076
;WIPE_END
G1 Z.4 F720
G1 X118.137 Y135.194 F10800
G1 Z.2 F720
G1 E1 F2100
M204 S800
;TYPE:Perimeter
;WIDTH:0.419999
G1 F1200
G1 X118.023 Y135.326 E.00547
G1 X117.963 Y135.579 E.00815
G1 X117.963 Y137.213 E.05123
G1 X103.537 Y137.213 E.45232
G1 X103.537 Y108.787 E.89128
G1 X107.163 Y108.787 E.11369
G1 X107.163 Y133.021 E.75984
G1 X107.171 Y133.119 E.00308
G1 X107.329 Y133.421 E.01069
G1 X107.504 Y133.541 E.00665
G1 X107.729 Y133.587 E.0072
G1 X142.271 Y133.587 E1.08304
G1 X142.369 Y133.579 E.00308
G1 X142.671 Y133.421 E.01069
G1 X142.791 Y133.246 E.00665
G1 X142.837 Y133.021 E.0072
G1 X142.837 Y108.787 E.75984
G1 X146.463 Y108.787 E.11369
G1 X146.463 Y110.6 E.05685
G1 X146.463 Y137.213 E.83443
G1 X132.037 Y137.213 E.45232
G1 X132.037 Y135.579 E.05123
G1 X131.977 Y135.326 E.00815
G1 X131.791 Y135.112 E.00889
G1 X131.471 Y135.013 E.0105
G1 X118.529 Y135.013 E.40579
G1 X118.209 Y135.112 E.0105
G1 X118.177 Y135.149 E.00153
M204 S1000
G1 X118.177 Y135.149 F10800
G1 X118.394 Y135.475
M204 S800
;TYPE:External perimeter
G1 F1200
G1 X118.34 Y135.579 E.00367
G1 X118.34 Y137.59 E.06305
G1 X103.16 Y137.59 E.47596
G1 X103.16 Y108.41 E.91492
G1 X107.54 Y108.41 E.13733
G1 X107.54 Y133.021 E.77166
G1 X107.595 Y133.155 E.00454
G1 X107.729 Y133.21 E.00454
G1 X142.271 Y133.21 E1.08304
G1 X142.405 Y133.155 E.00454
M73 Q0 S73
G1 X142.46 Y133.021 E.00454
G1 X142.46 Y108.41 E.77166
G1 X146.84 Y108.41 E.13733
G1 X146.84 Y110.6 E.06867
G1 X146.84 Y137.59 E.84625
G1 X131.66 Y137.59 E.47596
G1 X131.66 Y135.579 E.06305
G1 X131.578 Y135.423 E.00553
G1 X131.471 Y135.39 E.00351
G1 X118.529 Y135.39 E.40579
G1 X118.423 Y135.423 E.00348
M204 S1000
;WIPE_START
G1 F8640
G1 X118.394 Y135.475 E-.01375
G1 X118.34 Y135.579 E-.02706
G1 X118.34 Y137.59 E-.46435
G1 X116.197 Y137.59 E-.49484
;WIPE_END
G1 Z.4 F720
G1 X145.527 Y108.957 F10800
G1 Z.2 F720
G1 E1 F2100
M204 S800
;TYPE:Solid infill
;WIDTH:0.421909
G1 F1200
G1 X146.124 Y109.553 E.02658
G1 X146.124 Y110.089 E.01689
G1 X145.161 Y109.126 E.04292
G1 X144.625 Y109.126 E.01689
G1 X146.124 Y110.625 E.0668
G1 X146.124 Y111.161 E.01689
G1 X144.089 Y109.126 E.09069
G1 X143.553 Y109.126 E.01689
G1 X146.124 Y111.697 E.11458
G1 X146.124 Y112.233 E.01689
G1 X143.176 Y109.286 E.13136
G1 X143.176 Y109.822 E.01689
G1 X146.124 Y112.769 E.13136
G1 X146.124 Y113.305 E.01689
G1 X143.176 Y110.358 E.13136
G1 X143.176 Y110.894 E.01689
G1 X146.124 Y113.841 E.13136
G1 X146.124 Y114.377 E.01689
G1 X143.176 Y111.43 E.13136
G1 X143.176 Y111.966 E.01689
G1 X146.124 Y114.913 E.13136
G1 X146.124 Y115.449 E.01689
M73 P1 R73
M73 Q1 S73
G1 X143.176 Y112.502 E.13136
G1 X143.176 Y113.038 E.01689
G1 X146.124 Y115.985 E.13136
G1 X146.124 Y116.521 E.01689
G1 X143.176 Y113.574 E.13136
G1 X143.176 Y114.11 E.01689
G1 X146.124 Y117.057 E.13136
G1 X146.124 Y117.593 E.01689
G1 X143.176 Y114.646 E.13136
G1 X143.176 Y115.182 E.01689
G1 X146.124 Y118.129 E.13136
G1 X146.124 Y118.665 E.01689
G1 X143.176 Y115.718 E.13136
G1 X143.176 Y116.254 E.01689
G1 X146.124 Y119.201 E.13136
G1 X146.124 Y119.737 E.01689
G1 X143.176 Y116.79 E.13136
G1 X143.176 Y117.326 E.01689
G1 X146.124 Y120.273 E.13136
G1 X146.124 Y120.809 E.01689
G1 X143.176 Y117.862 E.13136
G1 X143.176 Y118.398 E.01689
G1 X146.124 Y121.345 E.13136
G1 X146.124 Y121.881 E.01689
G1 X143.176 Y118.934 E.13136
G1 X143.176 Y119.47 E.01689
G1 X146.124 Y122.417 E.13136
G1 X146.124 Y122.953 E.01689
G1 X143.176 Y120.006 E.13136
G1 X143.176 Y120.542 E.01689
G1 X146.124 Y123.489 E.13136
G1 X146.124 Y124.025 E.01689
G1 X143.176 Y121.078 E.13136
G1 X143.176 Y121.613 E.01686
G1 X146.124 Y124.561 E.13138
G1 X146.124 Y125.097 E.01689
G1 X143.176 Y122.149 E.13138
G1 X143.176 Y122.685 E.01689
G1 X146.124 Y125.633 E.13138
G1 X146.124 Y126.169 E.01689
G1 X143.176 Y123.221 E.13138
G1 X143.176 Y123.757 E.01689
G1 X146.124 Y126.704 E.13136
G1 X146.124 Y127.24 E.01689
G1 X143.176 Y124.293 E.13136
G1 X143.176 Y124.829 E.01689
G1 X146.124 Y127.776 E.13136
G1 X146.124 Y128.312 E.01689
G1 X143.176 Y125.365 E.13136
G1 X143.176 Y125.901 E.01689
G1 X146.124 Y128.848 E.13136
G1 X146.124 Y129.384 E.01689
G1 X143.176 Y126.437 E.13136
G1 X143.176 Y126.973 E.01689
G1 X146.124 Y129.92 E.13136
G1 X146.124 Y130.456 E.01689
G1 X143.176 Y127.509 E.13136
G1 X143.176 Y128.045 E.01689
G1 X146.124 Y130.992 E.13136
G1 X146.124 Y131.528 E.01689
G1 X143.176 Y128.581 E.13136
G1 X143.176 Y129.117 E.01689
G1 X146.124 Y132.064 E.13136
G1 X146.124 Y132.6 E.01689
G1 X143.176 Y129.653 E.13136
G1 X143.176 Y130.189 E.01689
G1 X146.124 Y133.136 E.13136
G1 X146.124 Y133.672 E.01689
G1 X143.176 Y130.725 E.13136
G1 X143.176 Y131.261 E.01689
G1 X146.124 Y134.208 E.13136
G1 X146.124 Y134.744 E.01689
G1 X143.176 Y131.797 E.13136
G1 X143.176 Y132.333 E.01689
G1 X146.124 Y135.28 E.13136
G1 X146.124 Y135.816 E.01689
G1 X143.176 Y132.869 E.13136
G1 X143.163 Y133.18 E.00981
G1 X143.114 Y133.343 E.00536
G1 X146.124 Y136.352 E.13412
G1 X146.124 Y136.874 E.01645
G1 X142.905 Y133.669 E.14315
G1 X142.637 Y133.851 E.01021
G1 X142.571 Y133.871 E.00217
G1 X145.573 Y136.874 E.13381
G1 X145.037 Y136.874 E.01689
G1 X142.09 Y133.926 E.13136
G1 X141.554 Y133.926 E.01689
G1 X144.501 Y136.874 E.13136
G1 X143.965 Y136.874 E.01689
G1 X141.018 Y133.926 E.13136
G1 X140.482 Y133.926 E.01689
M73 P1 R72
G1 X143.429 Y136.874 E.13136
G1 X142.893 Y136.874 E.01689
G1 X139.946 Y133.926 E.13136
G1 X139.41 Y133.926 E.01689
G1 X142.357 Y136.874 E.13136
G1 X141.821 Y136.874 E.01689
G1 X138.874 Y133.926 E.13136
G1 X138.338 Y133.926 E.01689
G1 X141.285 Y136.874 E.13136
G1 X140.749 Y136.874 E.01689
G1 X137.802 Y133.926 E.13136
G1 X137.266 Y133.926 E.01689
G1 X140.213 Y136.874 E.13136
G1 X139.678 Y136.874 E.01686
G1 X136.73 Y133.926 E.13138
G1 X136.194 Y133.926 E.01689
G1 X139.142 Y136.874 E.13138
G1 X138.606 Y136.874 E.01689
G1 X135.658 Y133.926 E.13138
G1 X135.123 Y133.926 E.01686
G1 X138.07 Y136.874 E.13136
G1 X137.534 Y136.874 E.01689
G1 X134.587 Y133.926 E.13136
G1 X134.051 Y133.926 E.01689
G1 X136.998 Y136.874 E.13136
G1 X136.462 Y136.874 E.01689
G1 X133.515 Y133.926 E.13136
G1 X132.979 Y133.926 E.01689
G1 X135.926 Y136.874 E.13136
G1 X135.39 Y136.874 E.01689
G1 X132.443 Y133.926 E.13136
G1 X131.907 Y133.926 E.01689
G1 X134.854 Y136.874 E.13136
G1 X134.318 Y136.874 E.01689
G1 X131.371 Y133.926 E.13136
G1 X130.835 Y133.926 E.01689
G1 X131.621 Y134.713 E.03505
G1 X131.983 Y134.825 E.01194
G1 X132.282 Y135.168 E.01434
G1 X132.361 Y135.453 E.00932
G1 X133.782 Y136.874 E.06333
G1 X133.246 Y136.874 E.01689
G1 X132.375 Y136.003 E.03882
G1 X132.376 Y136.539 E.01689
G1 X132.88 Y137.043 E.02246
M204 S1000
;WIPE_START
G1 F8640
G1 X132.376 Y136.539 E-.16458
G1 X132.375 Y136.003 E-.12376
G1 X133.246 Y136.874 E-.28442
G1 X133.782 Y136.874 E-.12376
G1 X132.853 Y135.944 E-.30348
;WIPE_END
G1 Z.4 F720
G1 X131.216 Y134.843 F10800
G1 Z.2 F720
G1 E1 F2100
M204 S800
G1 F1200
G1 X130.299 Y133.926 E.04087
G1 X129.763 Y133.926 E.01689
G1 X130.51 Y134.674 E.03331
G1 X129.974 Y134.674 E.01689
G1 X129.227 Y133.926 E.03331
G1 X128.691 Y133.926 E.01689
G1 X129.438 Y134.674 E.03331
G1 X128.902 Y134.674 E.01689
G1 X128.155 Y133.926 E.03331
G1 X127.619 Y133.926 E.01689
G1 X128.366 Y134.674 E.03331
G1 X127.83 Y134.674 E.01689
G1 X127.083 Y133.926 E.03331
G1 X126.547 Y133.926 E.01689
G1 X127.294 Y134.674 E.03331
G1 X126.758 Y134.674 E.01689
G1 X126.011 Y133.926 E.03331
G1 X125.475 Y133.926 E.01689
G1 X126.222 Y134.674 E.03331
G1 X125.686 Y134.674 E.01689
G1 X124.939 Y133.926 E.03331
G1 X124.403 Y133.926 E.01689
G1 X125.15 Y134.674 E.03331
G1 X124.614 Y134.674 E.01689
G1 X123.867 Y133.926 E.03331
G1 X123.331 Y133.926 E.01689
G1 X124.078 Y134.674 E.03331
G1 X123.542 Y134.674 E.01689
G1 X122.795 Y133.926 E.03331
G1 X122.259 Y133.926 E.01689
G1 X123.006 Y134.674 E.03331
G1 X122.47 Y134.674 E.01689
G1 X121.723 Y133.926 E.03331
G1 X121.187 Y133.926 E.01689
G1 X121.934 Y134.674 E.03331
G1 X121.398 Y134.674 E.01689
G1 X120.651 Y133.926 E.03331
G1 X120.115 Y133.926 E.01689
G1 X120.862 Y134.674 E.03331
G1 X120.326 Y134.674 E.01689
G1 X119.579 Y133.926 E.03331
G1 X119.043 Y133.926 E.01689
G1 X119.79 Y134.674 E.03331
G1 X119.254 Y134.674 E.01689
G1 X118.507 Y133.926 E.03331
G1 X117.971 Y133.926 E.01689
G1 X118.719 Y134.674 E.03334
G1 X118.362 Y134.687 E.01126
G1 X118.244 Y134.735 E.00401
G1 X117.435 Y133.926 E.03605
G1 X116.899 Y133.926 E.01689
G1 X117.915 Y134.942 E.04528
G1 X117.718 Y135.168 E.00945
G1 X117.693 Y135.256 E.00288
G1 X116.364 Y133.926 E.05925
G1 X115.828 Y133.926 E.01689
G1 X117.625 Y135.724 E.08011
G1 X117.625 Y136.26 E.01689
G1 X115.292 Y133.926 E.104
G1 X114.756 Y133.926 E.01689
G1 X117.624 Y136.795 E.12784
G1 X117.624 Y136.874 E.00249
G1 X117.167 Y136.874 E.0144
G1 X114.22 Y133.926 E.13136
G1 X113.684 Y133.926 E.01689
G1 X116.631 Y136.874 E.13136
G1 X116.095 Y136.874 E.01689
G1 X113.148 Y133.926 E.13136
G1 X112.612 Y133.926 E.01689
G1 X115.559 Y136.874 E.13136
G1 X115.023 Y136.874 E.01689
G1 X112.076 Y133.926 E.13136
G1 X111.54 Y133.926 E.01689
G1 X114.487 Y136.874 E.13136
G1 X113.951 Y136.874 E.01689
G1 X111.004 Y133.926 E.13136
G1 X110.468 Y133.926 E.01689
G1 X113.415 Y136.874 E.13136
G1 X112.879 Y136.874 E.01689
G1 X109.932 Y133.926 E.13136
G1 X109.396 Y133.926 E.01689
G1 X112.343 Y136.874 E.13136
G1 X111.807 Y136.874 E.01689
G1 X108.86 Y133.926 E.13136
G1 X108.324 Y133.926 E.01689
G1 X111.441 Y137.043 E.13891
M204 S1000
;WIPE_START
G1 F8640
G1 X108.379 Y133.981 E-1
;WIPE_END
G1 Z.4 F720
G1 X106.993 Y109.549 F10800
G1 Z.2 F720
G1 E1 F2100
M204 S800
G1 F1200
G1 X106.571 Y109.126 E.01883
G1 X106.035 Y109.126 E.01689
G1 X106.824 Y109.915 E.03516
G1 X106.824 Y110.451 E.01689
G1 X105.499 Y109.126 E.05905
G1 X104.963 Y109.126 E.01689
G1 X106.824 Y110.987 E.08294
G1 X106.824 Y111.523 E.01689
G1 X104.427 Y109.126 E.10683
G1 X103.891 Y109.126 E.01689
G1 X106.824 Y112.059 E.13071
G1 X106.824 Y112.595 E.01689
G1 X103.876 Y109.648 E.13136
G1 X103.876 Y110.184 E.01689
G1 X106.824 Y113.131 E.13136
G1 X106.824 Y113.667 E.01689
G1 X103.876 Y110.72 E.13136
G1 X103.876 Y111.256 E.01689
G1 X106.824 Y114.203 E.13136
G1 X106.824 Y114.739 E.01689
G1 X103.876 Y111.792 E.13136
G1 X103.876 Y112.328 E.01689
G1 X106.824 Y115.275 E.13136
G1 X106.824 Y115.811 E.01689
G1 X103.876 Y112.864 E.13136
G1 X103.876 Y113.4 E.01689
G1 X106.824 Y116.347 E.13136
G1 X106.824 Y116.883 E.01689
G1 X103.876 Y113.936 E.13136
G1 X103.876 Y114.472 E.01689
G1 X106.824 Y117.419 E.13136
G1 X106.824 Y117.955 E.01689
G1 X103.876 Y115.008 E.13136
G1 X103.876 Y115.544 E.01689
G1 X106.824 Y118.491 E.13136
G1 X106.824 Y119.027 E.01689
G1 X103.876 Y116.08 E.13136
G1 X103.876 Y116.616 E.01689
G1 X106.824 Y119.563 E.13136
G1 X106.824 Y120.099 E.01689
G1 X103.876 Y117.152 E.13136
G1 X103.876 Y117.688 E.01689
G1 X106.824 Y120.635 E.13136
G1 X106.824 Y121.171 E.01689
G1 X103.876 Y118.224 E.13136
G1 X103.876 Y118.76 E.01689
G1 X106.824 Y121.707 E.13136
G1 X106.824 Y122.243 E.01689
G1 X103.876 Y119.296 E.13136
G1 X103.876 Y119.831 E.01686
G1 X106.824 Y122.779 E.13138
G1 X106.824 Y123.315 E.01689
G1 X103.876 Y120.367 E.13138
G1 X103.876 Y120.903 E.01689
G1 X106.824 Y123.851 E.13138
G1 X106.824 Y124.387 E.01689
G1 X103.876 Y121.439 E.13138
G1 X103.876 Y121.975 E.01689
G1 X106.824 Y124.922 E.13136
G1 X106.824 Y125.458 E.01689
G1 X103.876 Y122.511 E.13136
G1 X103.876 Y123.047 E.01689
G1 X106.824 Y125.994 E.13136
G1 X106.824 Y126.53 E.01689
G1 X103.876 Y123.583 E.13136
G1 X103.876 Y124.119 E.01689
G1 X106.824 Y127.066 E.13136
G1 X106.824 Y127.602 E.01689
G1 X103.876 Y124.655 E.13136
G1 X103.876 Y125.191 E.01689
G1 X106.824 Y128.138 E.13136
G1 X106.824 Y128.674 E.01689
G1 X103.876 Y125.727 E.13136
G1 X103.876 Y126.263 E.01689
G1 X106.824 Y129.21 E.13136
G1 X106.824 Y129.746 E.01689
G1 X103.876 Y126.799 E.13136
G1 X103.876 Y127.335 E.01689
G1 X106.824 Y130.282 E.13136
G1 X106.824 Y130.818 E.01689
G1 X103.876 Y127.871 E.13136
G1 X103.876 Y128.407 E.01689
G1 X106.824 Y131.354 E.13136
G1 X106.824 Y131.89 E.01689
G1 X103.876 Y128.943 E.13136
G1 X103.876 Y129.479 E.01689
G1 X106.993 Y132.596 E.13891
M204 S1000
;WIPE_START
G1 F8640
G1 X103.931 Y129.534 E-1
;WIPE_END
G1 Z.4 F720
G1 X103.707 Y129.845 F10800
G1 Z.2 F720
G1 E1 F2100
M204 S800
G1 F1200
G1 X106.824 Y132.962 E.13891
G1 X106.837 Y133.18 E.00688
G1 X106.899 Y133.387 E.00681
G1 X107.087 Y133.663 E.01052
G1 X107.369 Y133.855 E.01075
G1 X107.713 Y133.926 E.01107
