; generated by PrusaSlicer 2.8.1+win64 on 2025-01-14 at 09:12:57 UTC


;
;
; 

; external perimeters extrusion width = 0.45mm
; perimeters extrusion width = 0.45mm
; infill extrusion width = 0.45mm
; solid infill extrusion width = 0.45mm
; top infill extrusion width = 0.40mm
; support material extrusion width = 0.35mm
; first layer extrusion width = 0.42mm

; external perimeters extrusion width = 0.45mm
; perimeters extrusion width = 0.45mm
; infill extrusion width = 0.45mm
; solid infill extrusion width = 0.45mm
; top infill extrusion width = 0.40mm
; support material extrusion width = 0.35mm
; first layer extrusion width = 0.42mm

; external perimeters extrusion width = 0.45mm
; perimeters extrusion width = 0.45mm
; infill extrusion width = 0.45mm
; solid infill extrusion width = 0.45mm
; top infill extrusion width = 0.40mm
; support material extrusion width = 0.35mm
; first layer extrusion width = 0.42mm

M73 P0 R31
M73 Q0 S31
M201 X1000 Y1000 Z200 E5000 ; sets maximum accelerations, mm/sec^2
M203 X200 Y200 Z12 E120 ; sets maximum feedrates, mm / sec
M204 S1250 T1250 ; sets acceleration (S) and retract acceleration (R), mm/sec^2
M205 X8.00 Y8.00 Z0.40 E4.50 ; sets the jerk limits, mm/sec
M205 S0 T0 ; sets the minimum extruding and travel feed rate, mm/sec

; printing object Parts.stl_7 id:1 copy 0
; stop printing object Parts.stl_7 id:1 copy 0
; printing object Parts.stl_6 id:0 copy 0
; stop printing object Parts.stl_6 id:0 copy 0
; printing object Parts.stl_11 id:2 copy 0
; stop printing object Parts.stl_11 id:2 copy 0

;TYPE:Custom
M862.3 P "MK3S" ; printer model check
M862.1 P0.4 ; nozzle diameter check
M115 U3.14.0 ; tell printer latest fw version
G90 ; use absolute coordinates
M83 ; extruder relative mode
M104 S240 ; set extruder temp
M140 S85 ; set bed temp
M190 S85 ; wait for bed temp
M109 S240 ; wait for extruder temp
G28 W ; home all without mesh bed level
G80 X112.553 Y93.4435 W24.9175 H23.1327 ; mesh bed levelling

G1 Z0.2 F720
G1 Y-3 F1000 ; go outside print area
G92 E0
G1 X60 E9 F1000 ; intro line
G1 X100 E12.5 F1000 ; intro line

G92 E0
M221 S95

; Don't change E values below. Excessive value can damage the printer.
M907 E430 ; set extruder motor current
G21 ; set units to millimeters
G90 ; use absolute coordinates
M83 ; use relative distances for extrusion

M900 K0.08 ; Filament gcode LA 1.5
M900 K45 ; Filament gcode LA 1.0




M107
;LAYER_CHANGE
;Z:0.2
;HEIGHT:0.2
G1 E-1 F2100
G1 Z.4 F720
G1 X114.39 Y104.943 F10800
G1 Z.2 F720
G1 E1 F2100
M204 S800
;TYPE:Skirt/Brim
;WIDTH:0.42
G1 F1200
G1 X114.864 Y104.469 E.02102
G1 X115.749 Y103.792 E.03494
G1 X128.881 Y94.471 E.50492
G1 X130.084 Y93.903 E.04171
G1 X130.731 Y93.729 E.02101
G1 X132.171 Y93.633 E.04525
G1 X133.549 Y93.903 E.04403
G1 X134.248 Y94.192 E.02372
G1 X135.429 Y94.988 E.04466
G1 X136.363 Y96.062 E.04463
G1 X136.988 Y97.342 E.04466
G1 X137.161 Y97.989 E.021
G1 X137.282 Y99.074 E.03423
G1 X137.26 Y111.261 E.38212
G1 X136.981 Y112.676 E.04522
G1 X136.363 Y113.938 E.04406
G1 X135.902 Y114.538 E.02372
G1 X135.429 Y115.012 E.021
G1 X134.248 Y115.808 E.04466
G1 X132.902 Y116.271 E.04463
G1 X131.682 Y116.388 E.03843
G1 X119.049 Y115.724 E.39665
G1 X117.839 Y115.573 E.03823
G1 X117.192 Y115.4 E.021
G1 X116.252 Y115.01 E.03191
G1 X115.672 Y114.675 E.021
G1 X114.864 Y114.055 E.03193
G1 X114.39 Y113.582 E.021
G1 X113.771 Y112.774 E.03191
G1 X113.436 Y112.194 E.021
G1 X113.046 Y111.253 E.03194
G1 X112.873 Y110.606 E.021
G1 X112.74 Y109.597 E.03191
G1 X112.74 Y108.927 E.02101
G1 X112.873 Y107.918 E.03191
G1 X113.046 Y107.271 E.021
G1 X113.436 Y106.33 E.03194
G1 X113.77 Y105.75 E.02099
G1 X114.354 Y104.99 E.03005
M204 S1000
G1 X114.354 Y104.99 F10800
G1 X114.653 Y105.22
M204 S800
G1 F1200
G1 X114.69 Y105.172 E.0019
G1 X115.967 Y104.1 E.05228
G1 X129.1 Y94.778 E.50497
G1 X130.228 Y94.251 E.03904
G1 X130.78 Y94.103 E.01792
G1 X132.122 Y94.007 E.04218
G1 X133.404 Y94.251 E.04092
G1 X134.104 Y94.541 E.02376
M73 P0 R30
G1 X135.199 Y95.287 E.04154
G1 X136.064 Y96.292 E.04158
G1 X136.639 Y97.486 E.04155
G1 X136.787 Y98.038 E.01792
G1 X136.905 Y99.074 E.03269
G1 X136.886 Y111.211 E.38055
G1 X136.639 Y112.514 E.04158
G1 X136.35 Y113.213 E.02372
G1 X135.603 Y114.309 E.04159
G1 X135.199 Y114.713 E.01791
G1 X134.104 Y115.459 E.04154
G1 X132.853 Y115.897 E.04156
G1 X131.702 Y116.011 E.03627
G1 X119.069 Y115.348 E.39664
G1 X117.889 Y115.199 E.03729
G1 X116.396 Y114.662 E.04975
G1 X115.094 Y113.756 E.04973
G1 X114.07 Y112.544 E.04975
G1 X113.784 Y112.05 E.0179
G1 X113.247 Y110.557 E.04975
G1 X113.114 Y109.548 E.03191
G1 X113.114 Y108.976 E.01793
G1 X113.394 Y107.415 E.04973
G1 X114.07 Y105.98 E.04974
G1 X114.617 Y105.267 E.02818
M204 S1000
;WIPE_START
G1 F8640
G1 X114.653 Y105.22 E-.01367
G1 X114.69 Y105.172 E-.01399
G1 X115.967 Y104.1 E-.38499
G1 X118.041 Y102.628 E-.58735
;WIPE_END
G1 Z.4 F720
; printing object Parts.stl_11 id:2 copy 0
G1 X120.022 Y107.809 F10800
G1 Z.2 F720
G1 E1 F2100
M204 S800
;TYPE:Perimeter
;WIDTH:0.419999
G1 F1200
G1 X120.09 Y107.84 E.00234
G1 X120.427 Y108.123 E.0138
G1 X120.679 Y108.484 E.0138
G1 X120.829 Y108.898 E.01381
G1 X120.868 Y109.336 E.01379
G1 X120.791 Y109.769 E.01379
G1 X120.605 Y110.168 E.0138
G1 X120.322 Y110.505 E.0138
G1 X119.962 Y110.758 E.0138
G1 X119.548 Y110.908 E.01381
G1 X119.11 Y110.946 E.01378
G1 X118.676 Y110.87 E.01381
G1 X118.278 Y110.684 E.01377
G1 X117.941 Y110.401 E.0138
G1 X117.688 Y110.04 E.01382
G1 X117.538 Y109.627 E.01378
G1 X117.499 Y109.188 E.01382
G1 X117.576 Y108.755 E.01379
G1 X117.762 Y108.356 E.0138
G1 X118.045 Y108.019 E.0138
G1 X118.405 Y107.767 E.01378
G1 X118.819 Y107.616 E.01382
G1 X119.257 Y107.578 E.01378
G1 X119.691 Y107.654 E.01381
G1 X119.968 Y107.784 E.00959
M204 S1000
G1 X119.968 Y107.784 F10800
G1 X119.837 Y108.13
M204 S800
;TYPE:External perimeter
G1 F1200
G1 X119.86 Y108.14 E.00079
G1 X120.128 Y108.353 E.01073
G1 X120.331 Y108.628 E.01072
G1 X120.456 Y108.947 E.01074
G1 X120.494 Y109.287 E.01073
G1 X120.443 Y109.625 E.01072
G1 X120.306 Y109.939 E.01074
G1 X120.093 Y110.206 E.01071
G1 X119.817 Y110.409 E.01074
G1 X119.499 Y110.534 E.01071
G1 X119.159 Y110.572 E.01073
G1 X118.821 Y110.521 E.01072
G1 X118.507 Y110.385 E.01073
G1 X118.24 Y110.171 E.01073
G1 X118.037 Y109.896 E.01072
G1 X117.912 Y109.577 E.01074
G1 X117.873 Y109.237 E.01073
G1 X117.924 Y108.899 E.01072
G1 X118.061 Y108.586 E.01071
G1 X118.275 Y108.318 E.01075
G1 X118.55 Y108.115 E.01072
G1 X118.868 Y107.99 E.01071
G1 X119.208 Y107.952 E.01073
G1 X119.547 Y108.003 E.01075
G1 X119.782 Y108.106 E.00804
M204 S1000
;WIPE_START
G1 F8640
G1 X119.837 Y108.13 E-.01386
G1 X119.86 Y108.14 E-.00579
G1 X120.128 Y108.353 E-.07905
G1 X120.331 Y108.628 E-.07892
G1 X120.456 Y108.947 E-.07911
G1 X120.494 Y109.287 E-.079
G1 X120.443 Y109.625 E-.07893
G1 X120.306 Y109.939 E-.0791
G1 X120.093 Y110.206 E-.07887
G1 X119.817 Y110.409 E-.07911
G1 X119.499 Y110.534 E-.0789
G1 X119.159 Y110.572 E-.079
G1 X118.821 Y110.521 E-.07893
G1 X118.507 Y110.385 E-.07901
G1 X118.397 Y110.297 E-.03242
;WIPE_END
G1 Z.4 F720
G1 X122.29 Y109.262 F10800
G1 Z.2 F720
G1 E1 F2100
M204 S800
;TYPE:Perimeter
G1 F1200
G1 X122.184 Y110.066 E.02543
G1 X121.874 Y110.815 E.02542
G1 X121.38 Y111.458 E.02542
G1 X120.737 Y111.952 E.02542
G1 X119.988 Y112.262 E.02542
G1 X119.184 Y112.368 E.02543
G1 X118.38 Y112.262 E.02543
G1 X117.631 Y111.952 E.02542
G1 X116.987 Y111.458 E.02545
G1 X116.494 Y110.815 E.0254
G1 X116.183 Y110.066 E.02543
G1 X116.077 Y109.262 E.02543
G1 X116.183 Y108.458 E.02543
G1 X116.494 Y107.709 E.02543
G1 X116.987 Y107.066 E.0254
G1 X117.631 Y106.572 E.02545
G1 X118.38 Y106.262 E.02542
G1 X119.184 Y106.156 E.02543
G1 X119.988 Y106.262 E.02543
G1 X120.737 Y106.572 E.02542
G1 X121.38 Y107.066 E.02542
G1 X121.817 Y107.635 E.0225
G1 X121.973 Y107.948 E.01097
G1 X122.196 Y108.55 E.02013
G1 X122.282 Y109.203 E.02065
M204 S1000
G1 X122.282 Y109.203 F10800
G1 X122.67 Y109.262
M204 S800
;TYPE:External perimeter
G1 F1200
G1 X122.551 Y110.164 E.02853
G1 X122.203 Y111.005 E.02854
G1 X121.649 Y111.727 E.02853
G1 X120.927 Y112.281 E.02853
G1 X120.086 Y112.63 E.02855
G1 X119.184 Y112.749 E.02853
G1 X118.281 Y112.63 E.02856
G1 X117.44 Y112.281 E.02855
G1 X116.718 Y111.727 E.02853
G1 X116.164 Y111.005 E.02853
G1 X115.816 Y110.164 E.02854
G1 X115.697 Y109.262 E.02853
G1 X115.816 Y108.36 E.02853
G1 X116.164 Y107.519 E.02854
G1 X116.718 Y106.797 E.02853
G1 X117.44 Y106.243 E.02853
G1 X118.281 Y105.894 E.02855
G1 X119.184 Y105.776 E.02855
G1 X120.086 Y105.894 E.02852
M73 Q1 S31
G1 X120.927 Y106.243 E.02855
G1 X121.649 Y106.797 E.02853
G1 X122.203 Y107.519 E.02853
G1 X122.497 Y108.228 E.02407
G1 X122.57 Y108.501 E.00886
G1 X122.662 Y109.203 E.0222
M73 P1 R30
M204 S1000
;WIPE_START
G1 F8640
G1 X122.67 Y109.262 E-.01375
G1 X122.551 Y110.164 E-.21008
G1 X122.203 Y111.005 E-.21016
G1 X121.649 Y111.727 E-.21013
G1 X120.927 Y112.281 E-.21013
G1 X120.344 Y112.523 E-.14575
;WIPE_END
G1 Z.4 F720
G1 X120.463 Y106.642 F10800
G1 Z.2 F720
G1 E1 F2100
M204 S800
;TYPE:Solid infill
;WIDTH:0.436787
G1 F1200
G1 X121.17 Y107.349 E.03275
G1 X121.577 Y107.88 E.02191
G1 X121.86 Y108.596 E.02521
G1 X119.849 Y106.586 E.09312
G1 X119.208 Y106.501 E.02118
G1 X121.944 Y109.238 E.12674
G1 X121.885 Y109.736 E.01642
G1 X121.187 Y109.038 E.03233
G1 X121.213 Y109.262 E.00739
G1 X121.176 Y109.584 E.01061
G1 X121.77 Y110.178 E.02751
G1 X121.607 Y110.572 E.01396
G1 X121.053 Y110.018 E.02566
G1 X120.941 Y110.278 E.00927
G1 X120.861 Y110.382 E.0043
G1 X121.38 Y110.901 E.02404
G1 X121.138 Y111.216 E.01301
G1 X120.619 Y110.697 E.02404
G1 X120.304 Y110.939 E.01301
G1 X120.823 Y111.458 E.02404
G1 X120.566 Y111.656 E.01063
G1 X120.493 Y111.686 E.00258
G1 X119.939 Y111.132 E.02566
G1 X119.813 Y111.187 E.0045
G1 X119.505 Y111.255 E.01033
G1 X120.099 Y111.849 E.02751
G1 X119.899 Y111.932 E.00709
G1 X119.657 Y111.964 E.00799
G1 X118.758 Y111.065 E.04164
M204 S1000
;WIPE_START
G1 F8640
G1 X119.657 Y111.964 E-.29356
G1 X119.899 Y111.932 E-.05636
G1 X120.099 Y111.849 E-.05
G1 X119.505 Y111.255 E-.19397
G1 X119.813 Y111.187 E-.07283
G1 X119.939 Y111.132 E-.03174
G1 X120.493 Y111.686 E-.18091
G1 X120.566 Y111.656 E-.01822
G1 X120.823 Y111.458 E-.07491
G1 X120.739 Y111.374 E-.0275
;WIPE_END
G1 Z.4 F720
G1 X119.608 Y107.458 F10800
G1 Z.2 F720
G1 E1 F2100
M204 S800
G1 F1200
G1 X118.71 Y106.561 E.04157
G1 X118.468 Y106.592 E.00799
G1 X118.268 Y106.675 E.00709
G1 X118.864 Y107.271 E.0276
G1 X118.658 Y107.302 E.00682
G1 X118.428 Y107.393 E.0081
G1 X117.874 Y106.839 E.02566
G1 X117.802 Y106.869 E.00255
G1 X117.544 Y107.066 E.01063
G1 X118.059 Y107.581 E.02385
G1 X117.749 Y107.827 E.01296
G1 X117.229 Y107.308 E.02406
G1 X116.987 Y107.623 E.01301
G1 X117.507 Y108.142 E.02406
G1 X117.427 Y108.246 E.0043
G1 X117.314 Y108.506 E.00928
G1 X116.76 Y107.953 E.02564
G1 X116.597 Y108.347 E.01396
G1 X117.191 Y108.941 E.02751
G1 X117.154 Y109.262 E.01058
G1 X117.18 Y109.487 E.00742
G1 X116.482 Y108.789 E.03233
G1 X116.423 Y109.287 E.01642
G1 X119.159 Y112.023 E.12672
G1 X118.518 Y111.938 E.02118
G1 X116.507 Y109.928 E.09312
G1 X116.79 Y110.644 E.02521
G1 X117.198 Y111.176 E.02196
G1 X117.904 Y111.882 E.0327
M204 S1000
;WIPE_START
G1 F8640
G1 X117.198 Y111.176 E-.23054
G1 X116.79 Y110.644 E-.15481
G1 X116.507 Y109.928 E-.17777
G1 X117.845 Y111.266 E-.43688
;WIPE_END
G1 Z.4 F720
; stop printing object Parts.stl_11 id:2 copy 0
; printing object Parts.stl_6 id:0 copy 0
G1 X130.152 Y111.372 F10800
G1 Z.2 F720
G1 E1 F2100
M204 S800
;TYPE:Perimeter
;WIDTH:0.411038
G1 F1200
G1 X130.127 Y111.303 E.00225
G1 X130.087 Y110.853 E.01383
G1 X130.165 Y110.407 E.01386
G1 X130.355 Y109.998 E.0138
G1 X130.645 Y109.651 E.01384
G1 X131.015 Y109.391 E.01384
G1 X131.439 Y109.236 E.01382
G1 X131.89 Y109.196 E.01386
G1 X132.335 Y109.274 E.01383
G1 X132.745 Y109.465 E.01384
G1 X133.091 Y109.755 E.01382
G1 X133.351 Y110.124 E.01382
G1 X133.506 Y110.549 E.01385
G1 X133.546 Y110.999 E.01383
G1 X133.468 Y111.444 E.01383
G1 X133.278 Y111.854 E.01383
G1 X132.988 Y112.201 E.01384
G1 X132.618 Y112.46 E.01382
G1 X132.193 Y112.616 E.01386
G1 X131.743 Y112.656 E.01383
G1 X131.298 Y112.578 E.01383
G1 X130.888 Y112.387 E.01384
G1 X130.541 Y112.097 E.01384
G1 X130.282 Y111.727 E.01382
G1 X130.173 Y111.428 E.00974
M204 S1000
G1 X130.173 Y111.428 F10800
G1 X130.505 Y111.277
M204 S800
;TYPE:External perimeter
;WIDTH:0.419999
G1 F1200
G1 X130.496 Y111.254 E.00077
G1 X130.456 Y110.901 E.01114
G1 X130.509 Y110.55 E.01113
G1 X130.651 Y110.224 E.01115
G1 X130.872 Y109.947 E.01111
G1 X131.158 Y109.736 E.01114
G1 X131.488 Y109.606 E.01112
G1 X131.841 Y109.566 E.01114
G1 X132.192 Y109.618 E.01113
G1 X132.518 Y109.76 E.01115
G1 X132.796 Y109.981 E.01114
G1 X133.007 Y110.267 E.01114
G1 X133.137 Y110.598 E.01115
G1 X133.177 Y110.95 E.01111
G1 X133.124 Y111.302 E.01116
G1 X132.982 Y111.627 E.01112
G1 X132.761 Y111.905 E.01114
G1 X132.475 Y112.116 E.01114
G1 X132.145 Y112.246 E.01112
G1 X131.792 Y112.286 E.01114
G1 X131.44 Y112.233 E.01116
G1 X131.115 Y112.092 E.01111
G1 X130.837 Y111.87 E.01115
G1 X130.626 Y111.585 E.01112
G1 X130.527 Y111.333 E.00849
M204 S1000
;WIPE_START
G1 F8640
G1 X130.505 Y111.277 E-.01389
G1 X130.496 Y111.254 E-.0057
G1 X130.456 Y110.901 E-.08203
G1 X130.509 Y110.55 E-.08197
G1 X130.651 Y110.224 E-.08211
G1 X130.872 Y109.947 E-.08182
G1 X131.158 Y109.736 E-.08207
G1 X131.488 Y109.606 E-.0819
G1 X131.841 Y109.566 E-.08203
G1 X132.192 Y109.618 E-.08193
G1 X132.518 Y109.76 E-.08211
G1 X132.796 Y109.981 E-.082
G1 X133.007 Y110.267 E-.08207
G1 X133.131 Y110.583 E-.07837
;WIPE_END
G1 Z.4 F720
G1 X133.848 Y110.382 F10800
G1 Z.2 F720
G1 E1 F2100
M204 S800
;TYPE:Perimeter
;WIDTH:0.414246
G1 F1200
G1 X133.857 Y110.404 E.00073
G1 X133.922 Y110.95 E.01698
G1 X133.844 Y111.494 E.01697
G1 X133.628 Y112 E.01699
G1 X133.288 Y112.432 E.01697
G1 X132.848 Y112.762 E.01698
G1 X132.338 Y112.966 E.01696
G1 X131.792 Y113.032 E.01698
G1 X131.248 Y112.954 E.01697
G1 X130.742 Y112.737 E.017
G1 X130.31 Y112.398 E.01695
G1 X129.981 Y111.958 E.01696
G1 X129.776 Y111.447 E.017
G1 X129.71 Y110.902 E.01695
G1 X129.789 Y110.357 E.017
G1 X130.005 Y109.852 E.01696
G1 X130.344 Y109.42 E.01695
G1 X130.784 Y109.09 E.01698
G1 X131.295 Y108.886 E.01699
G1 X131.841 Y108.82 E.01698
G1 X132.385 Y108.898 E.01697
G1 X132.89 Y109.114 E.01696
G1 X133.323 Y109.454 E.017
G1 X133.652 Y109.894 E.01696
G1 X133.825 Y110.326 E.01437
M204 S1000
G1 X133.825 Y110.326 F10800
G1 X134.196 Y110.288
M204 S800
;TYPE:External perimeter
;WIDTH:0.419999
G1 F1200
G1 X134.24 Y110.452 E.00532
G1 X134.293 Y110.999 E.01723
G1 X134.218 Y111.569 E.01803
G1 X133.97 Y112.169 E.02036
G1 X133.575 Y112.684 E.02035
G1 X133.06 Y113.079 E.02035
G1 X132.46 Y113.328 E.02037
G1 X131.816 Y113.412 E.02036
G1 X131.173 Y113.328 E.02033
G1 X130.573 Y113.079 E.02037
G1 X130.058 Y112.684 E.02035
G1 X129.663 Y112.169 E.02035
G1 X129.415 Y111.569 E.02036
G1 X129.33 Y110.926 E.02034
G1 X129.415 Y110.282 E.02037
G1 X129.663 Y109.683 E.02033
G1 X130.058 Y109.168 E.02035
G1 X130.573 Y108.773 E.02035
G1 X131.173 Y108.524 E.02037
G1 X131.816 Y108.439 E.02034
G1 X132.46 Y108.524 E.02037
G1 X133.06 Y108.773 E.02037
G1 X133.575 Y109.168 E.02035
G1 X133.925 Y109.624 E.01802
G1 X134.152 Y110.124 E.01722
G1 X134.181 Y110.23 E.00345
M204 S1000
;WIPE_START
G1 F8640
G1 X134.196 Y110.288 E-.01383
G1 X134.24 Y110.452 E-.03921
G1 X134.293 Y110.999 E-.1269
G1 X134.218 Y111.569 E-.13275
G1 X133.97 Y112.169 E-.14991
G1 X133.575 Y112.684 E-.14986
G1 X133.06 Y113.079 E-.14986
G1 X132.46 Y113.328 E-.15
G1 X132.084 Y113.377 E-.08768
;WIPE_END
G1 Z.4 F720
; stop printing object Parts.stl_6 id:0 copy 0
; printing object Parts.stl_7 id:1 copy 0
G1 X133.008 Y100.266 F10800
G1 Z.2 F720
G1 E1 F2100
M204 S800
;TYPE:Perimeter
;WIDTH:0.435827
G1 F1200
G1 X132.96 Y100.323 E.00243
G1 X132.598 Y100.577 E.01445
G1 X132.182 Y100.728 E.01446
G1 X131.742 Y100.766 E.01443
G1 X131.306 Y100.689 E.01446
G1 X130.906 Y100.502 E.01443
G1 X130.567 Y100.218 E.01445
G1 X130.314 Y99.855 E.01446
G1 X130.163 Y99.44 E.01443
G1 X130.124 Y98.999 E.01446
G1 X130.201 Y98.564 E.01443
