; generated by PrusaSlicer 2.8.1+win64 on 2025-01-14 at 09:12:33 UTC


;
;
; 

; external perimeters extrusion width = 0.45mm
; perimeters extrusion width = 0.45mm
; infill extrusion width = 0.45mm
; solid infill extrusion width = 0.45mm
; top infill extrusion width = 0.40mm
; support material extrusion width = 0.35mm
; first layer extrusion width = 0.42mm

M73 P0 R28
M73 Q0 S28
M201 X1000 Y1000 Z200 E5000 ; sets maximum accelerations, mm/sec^2
M203 X200 Y200 Z12 E120 ; sets maximum feedrates, mm / sec
M204 S1250 T1250 ; sets acceleration (S) and retract acceleration (R), mm/sec^2
M205 X8.00 Y8.00 Z0.40 E4.50 ; sets the jerk limits, mm/sec
M205 S0 T0 ; sets the minimum extruding and travel feed rate, mm/sec

; printing object Parts.stl_3 id:0 copy 0
; stop printing object Parts.stl_3 id:0 copy 0

;TYPE:Custom
M862.3 P "MK3S" ; printer model check
M862.1 P0.4 ; nozzle diameter check
M115 U3.14.0 ; tell printer latest fw version
G90 ; use absolute coordinates
M83 ; extruder relative mode
M104 S240 ; set extruder temp
M140 S85 ; set bed temp
M190 S85 ; wait for bed temp
M109 S240 ; wait for extruder temp
G28 W ; home all without mesh bed level
G80 X110.246 Y90.2459 W29.5083 H29.5083 ; mesh bed levelling

G1 Z0.2 F720
G1 Y-3 F1000 ; go outside print area
G92 E0
G1 X60 E9 F1000 ; intro line
G1 X100 E12.5 F1000 ; intro line
M73 P0 R27

G92 E0
M221 S95

; Don't change E values below. Excessive value can damage the printer.
M907 E430 ; set extruder motor current
G21 ; set units to millimeters
G90 ; use absolute coordinates
M83 ; use relative distances for extrusion

M900 K0.08 ; Filament gcode LA 1.5
M900 K45 ; Filament gcode LA 1.0




M107
;LAYER_CHANGE
;Z:0.2
;HEIGHT:0.2
G1 E-1 F2100
G1 Z.4 F720
G1 X111.186 Y99.186 F10800
G1 Z.2 F720
G1 E1 F2100
M204 S800
;TYPE:Skirt/Brim
;WIDTH:0.42
G1 F1200
G1 X119.186 Y91.186 E.35473
G1 X121 Y90.434 E.06157
G1 X129 Y90.434 E.25083
G1 X130.814 Y91.186 E.06157
G1 X138.814 Y99.186 E.35473
G1 X139.566 Y101 E.06157
G1 X139.566 Y109 E.25083
G1 X138.814 Y110.814 E.06157
M73 Q0 S27
G1 X130.814 Y118.814 E.35473
G1 X129 Y119.566 E.06157
G1 X121 Y119.566 E.25083
G1 X119.186 Y118.814 E.06157
G1 X111.186 Y110.814 E.35473
G1 X110.434 Y109 E.06157
G1 X110.434 Y101 E.25083
G1 X111.163 Y99.241 E.0597
M204 S1000
G1 X111.163 Y99.241 F10800
G1 X111.452 Y99.452
M204 S800
G1 F1200
G1 X119.452 Y91.452 E.35473
G1 X121 Y90.811 E.05253
G1 X129 Y90.811 E.25083
G1 X130.548 Y91.452 E.05253
G1 X138.548 Y99.452 E.35473
G1 X139.189 Y101 E.05253
G1 X139.189 Y109 E.25083
G1 X138.548 Y110.548 E.05253
G1 X130.548 Y118.548 E.35473
G1 X129 Y119.189 E.05253
G1 X121 Y119.189 E.25083
G1 X119.452 Y118.548 E.05253
G1 X111.452 Y110.548 E.35473
G1 X110.811 Y109 E.05253
G1 X110.811 Y101 E.25083
G1 X111.43 Y99.508 E.05065
M204 S1000
;WIPE_START
G1 F8640
G1 X111.452 Y99.452 E-.01389
G1 X114.472 Y96.432 E-.98611
;WIPE_END
G1 Z.4 F720
M73 Q1 S27
; printing object Parts.stl_3 id:0 copy 0
G1 X121.712 Y113.577 F10800
G1 Z.2 F720
G1 E1 F2100
M73 P1 R27
M204 S800
;TYPE:Perimeter
;WIDTH:0.419999
G1 F1200
G1 X121.705 Y113.553 E.00078
G1 X121.513 Y113.362 E.00849
G1 X119.439 Y112.115 E.07588
G1 X117.885 Y110.561 E.06891
G1 X116.638 Y108.487 E.07588
G1 X116.447 Y108.295 E.00849
G1 X116.153 Y108.213 E.00957
G1 X113.787 Y108.213 E.07418
G1 X113.787 Y101.787 E.20148
G1 X116.153 Y101.787 E.07418
G1 X116.447 Y101.705 E.00957
G1 X116.638 Y101.513 E.00849
G1 X117.885 Y99.439 E.07588
G1 X119.439 Y97.885 E.06891
G1 X121.513 Y96.638 E.07588
G1 X121.705 Y96.447 E.00849
G1 X121.787 Y96.153 E.00957
G1 X121.787 Y93.787 E.07418
G1 X128.213 Y93.787 E.20148
G1 X128.213 Y96.153 E.07418
G1 X128.295 Y96.447 E.00957
G1 X128.487 Y96.638 E.00849
G1 X130.561 Y97.885 E.07588
G1 X132.115 Y99.439 E.06891
G1 X133.362 Y101.513 E.07588
G1 X133.553 Y101.705 E.00849
G1 X133.847 Y101.787 E.00957
G1 X136.213 Y101.787 E.07418
G1 X136.213 Y104.153 E.07418
G1 X136.213 Y108.213 E.1273
G1 X133.847 Y108.213 E.07418
G1 X133.553 Y108.295 E.00957
G1 X133.362 Y108.487 E.00849
G1 X132.115 Y110.561 E.07588
G1 X130.561 Y112.115 E.06891
G1 X128.487 Y113.362 E.07588
G1 X128.295 Y113.553 E.00849
G1 X128.213 Y113.847 E.00957
G1 X128.213 Y116.213 E.07418
G1 X121.787 Y116.213 E.20148
G1 X121.787 Y113.847 E.07418
G1 X121.728 Y113.635 E.0069
M204 S1000
G1 X121.728 Y113.635 F10800
G1 X121.373 Y113.758
M204 S800
;TYPE:External perimeter
G1 F1200
G1 X121.319 Y113.685 E.00285
G1 X119.205 Y112.415 E.07732
G1 X117.585 Y110.795 E.07183
G1 X116.295 Y108.654 E.07837
G1 X116.153 Y108.59 E.00488
G1 X113.41 Y108.59 E.086
G1 X113.41 Y101.41 E.22512
G1 X116.2 Y101.404 E.08748
G1 X116.315 Y101.319 E.00448
G1 X117.585 Y99.205 E.07732
G1 X119.205 Y97.586 E.07181
G1 X121.346 Y96.295 E.07839
G1 X121.41 Y96.153 E.00488
G1 X121.41 Y93.41 E.086
G1 X128.59 Y93.41 E.22512
G1 X128.596 Y96.2 E.08748
G1 X128.681 Y96.315 E.00448
G1 X130.795 Y97.586 E.07734
G1 X132.415 Y99.205 E.07181
G1 X133.705 Y101.346 E.07837
G1 X133.847 Y101.41 E.00488
G1 X136.59 Y101.41 E.086
G1 X136.59 Y104.153 E.086
G1 X136.59 Y108.59 E.13912
G1 X133.8 Y108.596 E.08748
G1 X133.685 Y108.681 E.00448
G1 X132.415 Y110.795 E.07732
G1 X130.795 Y112.415 E.07183
G1 X128.654 Y113.705 E.07837
G1 X128.59 Y113.847 E.00488
G1 X128.59 Y116.59 E.086
G1 X121.41 Y116.59 E.22512
G1 X121.404 Y113.808 E.08723
M204 S1000
;WIPE_START
G1 F8640
G1 X121.373 Y113.758 E-.01358
G1 X121.319 Y113.685 E-.02097
G1 X119.205 Y112.415 E-.56944
G1 X117.993 Y111.202 E-.39601
;WIPE_END
G1 Z.4 F720
G1 X127.266 Y93.957 F10800
G1 Z.2 F720
G1 E1 F2100
M204 S800
;TYPE:Solid infill
;WIDTH:0.427047
G1 F1200
G1 X127.874 Y94.564 E.02744
G1 X127.874 Y95.108 E.01738
G1 X126.892 Y94.126 E.04436
G1 X126.349 Y94.126 E.01734
G1 X128.043 Y95.82 E.07652
M204 S1000
;WIPE_START
G1 F8640
G1 X126.349 Y94.126 E-.55317
G1 X126.892 Y94.126 E-.12538
G1 X127.874 Y95.108 E-.32067
G1 X127.874 Y95.105 E-.00078
;WIPE_END
G1 Z.4 F720
G1 X135.266 Y101.957 F10800
G1 Z.2 F720
G1 E1 F2100
M204 S800
G1 F1200
G1 X135.874 Y102.564 E.02744
G1 X135.874 Y103.108 E.01738
G1 X134.892 Y102.126 E.04436
G1 X134.349 Y102.126 E.01734
G1 X135.874 Y103.651 E.06888
G1 X135.874 Y104.194 E.01734
G1 X133.801 Y102.122 E.09362
G1 X133.625 Y102.1 E.00567
G1 X133.484 Y102.051 E.00477
G1 X133.284 Y101.933 E.00742
G1 X133.078 Y101.7 E.00993
G1 X132.625 Y100.945 E.02812
G1 X129.033 Y97.353 E.16225
G1 X128.184 Y96.837 E.03173
G1 X128.064 Y96.71 E.00558
G1 X127.949 Y96.516 E.0072
G1 X127.9 Y96.375 E.00477
G1 X127.878 Y96.199 E.00567
G1 X125.806 Y94.126 E.09362
G1 X125.263 Y94.126 E.01734
G1 X135.874 Y104.737 E.4793
G1 X135.874 Y105.28 E.01734
G1 X124.72 Y94.126 E.50383
G1 X124.176 Y94.126 E.01738
G1 X135.874 Y105.824 E.5284
G1 X135.874 Y106.367 E.01734
G1 X123.633 Y94.126 E.55293
G1 X123.09 Y94.126 E.01734
G1 X135.874 Y106.91 E.57746
G1 X135.874 Y107.453 E.01734
G1 X122.547 Y94.126 E.60199
G1 X122.126 Y94.126 E.01345
G1 X122.126 Y94.25 E.00396
G1 X135.75 Y107.874 E.6154
G1 X135.207 Y107.874 E.01734
M73 P2 R27
M73 Q2 S27
G1 X122.126 Y94.793 E.59087
G1 X122.126 Y95.336 E.01734
G1 X134.664 Y107.874 E.56635
G1 X134.121 Y107.874 E.01734
G1 X122.126 Y95.879 E.54182
G1 X122.126 Y96.163 E.00907
G1 X122.094 Y96.39 E.00732
G1 X133.61 Y107.906 E.52018
G1 X133.48 Y107.95 E.00438
G1 X133.258 Y108.098 E.00852
G1 X121.902 Y96.742 E.51295
G1 X121.696 Y96.924 E.00878
G1 X121.599 Y96.982 E.00361
G1 X133.018 Y108.401 E.5158
G1 X132.814 Y108.74 E.01264
G1 X121.26 Y97.186 E.5219
G1 X120.921 Y97.39 E.01264
G1 X132.61 Y109.079 E.528
G1 X132.406 Y109.418 E.01264
G1 X120.582 Y97.594 E.53409
G1 X120.242 Y97.798 E.01266
G1 X132.202 Y109.758 E.54024
G1 X131.998 Y110.097 E.01264
G1 X119.903 Y98.002 E.54634
G1 X119.65 Y98.154 E.00943
G1 X119.581 Y98.223 E.00312
G1 X131.777 Y110.419 E.5509
G1 X131.505 Y110.691 E.01229
G1 X119.309 Y98.495 E.5509
G1 X119.038 Y98.766 E.01224
G1 X131.234 Y110.962 E.5509
G1 X130.962 Y111.234 E.01229
G1 X118.766 Y99.038 E.5509
G1 X118.494 Y99.309 E.01226
G1 X130.691 Y111.506 E.55094
G1 X130.419 Y111.777 E.01226
G1 X118.223 Y99.581 E.5509
G1 X118.154 Y99.65 E.00312
G1 X118.002 Y99.903 E.00943
G1 X130.097 Y111.998 E.54634
G1 X129.758 Y112.202 E.01264
G1 X117.798 Y100.242 E.54024
G1 X117.593 Y100.581 E.01265
M73 P3 R27
M73 Q3 S27
G1 X129.419 Y112.407 E.53419
G1 X129.08 Y112.611 E.01264
G1 X117.389 Y100.92 E.52809
G1 X117.185 Y101.26 E.01266
G1 X128.74 Y112.815 E.52194
G1 X128.401 Y113.019 E.01264
G1 X116.981 Y101.599 E.51585
G1 X116.902 Y101.73 E.00489
G1 X116.743 Y101.904 E.00753
G1 X128.096 Y113.257 E.51282
G1 X128.003 Y113.379 E.0049
G1 X127.905 Y113.61 E.00801
G1 X116.39 Y102.095 E.52014
G1 X116.163 Y102.126 E.00732
G1 X115.879 Y102.126 E.00907
G1 X127.874 Y114.121 E.54182
G1 X127.874 Y114.664 E.01734
G1 X115.336 Y102.126 E.56635
G1 X114.793 Y102.126 E.01734
G1 X127.874 Y115.207 E.59087
G1 X127.874 Y115.751 E.01738
G1 X114.249 Y102.126 E.61545
G1 X114.126 Y102.126 E.00393
G1 X114.126 Y102.547 E.01345
G1 X127.453 Y115.874 E.60199
G1 X126.91 Y115.874 E.01734
G1 X114.126 Y103.09 E.57746
G1 X114.126 Y103.633 E.01734
G1 X126.367 Y115.874 E.55293
G1 X125.824 Y115.874 E.01734
G1 X114.126 Y104.176 E.5284
G1 X114.126 Y104.72 E.01738
G1 X125.28 Y115.874 E.50383
G1 X124.737 Y115.874 E.01734
M73 P3 R26
G1 X114.126 Y105.263 E.4793
G1 X114.126 Y105.806 E.01734
G1 X116.198 Y107.878 E.09359
G1 X116.375 Y107.9 E.0057
G1 X116.52 Y107.95 E.0049
G1 X116.778 Y108.122 E.0099
G1 X116.923 Y108.304 E.00743
G1 X117.375 Y109.055 E.028
G1 X120.947 Y112.627 E.16135
G1 X121.73 Y113.098 E.02919
G1 X121.875 Y113.22 E.00605
G1 X121.997 Y113.379 E.0064
G1 X122.099 Y113.62 E.00836
G1 X122.122 Y113.802 E.00586
G1 X124.194 Y115.874 E.09359
G1 X123.651 Y115.874 E.01734
G1 X122.126 Y114.349 E.06888
G1 X122.126 Y114.893 E.01738
G1 X123.107 Y115.874 E.04431
G1 X122.564 Y115.874 E.01734
G1 X121.957 Y115.266 E.02744
M204 S1000
;WIPE_START
G1 F8640
G1 X122.564 Y115.874 E-.19838
G1 X123.107 Y115.874 E-.12538
G1 X122.126 Y114.893 E-.32034
G1 X122.126 Y114.349 E-.12561
G1 X122.831 Y115.054 E-.23029
;WIPE_END
G1 Z.4 F720
G1 X115.82 Y108.043 F10800
G1 Z.2 F720
G1 E1 F2100
M204 S800
G1 F1200
G1 X114.126 Y106.349 E.07652
G1 X114.126 Y106.893 E.01738
G1 X115.107 Y107.874 E.04431
G1 X114.564 Y107.874 E.01734
G1 X113.957 Y107.266 E.02744
M204 S1000
;LAYER_CHANGE
;Z:0.35
;HEIGHT:0.15
;BEFORE_LAYER_CHANGE
G92 E0.0
;0.35


;WIPE_START
G1 F8640
G1 X114.564 Y107.874 E-.19838
G1 X115.107 Y107.874 E-.12538
G1 X114.126 Y106.893 E-.32034
G1 X114.126 Y106.349 E-.12561
G1 X114.831 Y107.054 E-.23029
;WIPE_END
G1 Z.35 F720
;AFTER_LAYER_CHANGE
;0.35
M104 S250 ; set temperature
M140 S90 ; set bed temperature
; stop printing object Parts.stl_3 id:0 copy 0
G1 Z.55
G1 X110.434 Y107.266 F10800
G1 Z.35 F720
M73 Q4 S27
G1 E1 F2100
;TYPE:Skirt/Brim
;WIDTH:0.42
G1 F3000
G1 X110.434 Y101 E.15154
G1 X111.186 Y99.186 E.04749
M73 P4 R26
G1 X119.186 Y91.186 E.27362
G1 X121 Y90.434 E.04749
G1 X129 Y90.434 E.19348
G1 X130.814 Y91.186 E.04749
G1 X138.814 Y99.186 E.27362
G1 X139.566 Y101 E.04749
G1 X139.566 Y109 E.19348
G1 X138.814 Y110.814 E.04749
G1 X130.814 Y118.814 E.27362
G1 X129 Y119.566 E.04749
G1 X121 Y119.566 E.19348
G1 X119.186 Y118.814 E.04749
G1 X111.186 Y110.814 E.27362
M73 Q4 S26
G1 X110.434 Y109 E.04749
G1 X110.434 Y107.326 E.04049
G1 X110.434 Y107.326 F10800
G1 X110.811 Y107.326
G1 F3000
G1 X110.811 Y101 E.15299
G1 X111.452 Y99.452 E.04052
G1 X119.452 Y91.452 E.27362
G1 X121 Y90.811 E.04052
G1 X129 Y90.811 E.19348
G1 X130.548 Y91.452 E.04052
G1 X138.548 Y99.452 E.27362
G1 X139.189 Y101 E.04052
G1 X139.189 Y109 E.19348
G1 X138.548 Y110.548 E.04052
G1 X130.548 Y118.548 E.27362
G1 X129 Y119.189 E.04052
G1 X121 Y119.189 E.19348
G1 X119.452 Y118.548 E.04052
G1 X111.452 Y110.548 E.27362
G1 X110.811 Y109 E.04052
G1 X110.811 Y107.386 E.03903
;WIPE_START
G1 F8640
G1 X110.811 Y107.326 E-.01385
G1 X110.811 Y103.055 E-.98615
;WIPE_END
G1 Z.55 F720
; printing object Parts.stl_3 id:0 copy 0
G1 X121.559 Y113.658 F10800
G1 Z.35 F720
G1 E1 F2100
M204 S800
;TYPE:Perimeter
;WIDTH:0.449999
G1 F2244.667
G1 X121.547 Y113.631 E.00077
G1 F2255.584
G1 X121.339 Y113.426 E.00761
G1 F2441.121
G1 X119.35 Y112.23 E.06047
G1 F2680.989
G1 X117.77 Y110.65 E.05822
G1 F2479.22
G1 X116.574 Y108.661 E.06047
G1 F2330.516
G1 X116.536 Y108.605 E.00176
G1 F2316.531
G1 X116.296 Y108.413 E.00801
G1 F2306.552
G1 X116.037 Y108.357 E.0069
G1 X113.643 Y108.357 E.06238
G1 F2323.044
G1 X113.643 Y101.643 E.17494
G1 F2240.246
G1 X116.037 Y101.643 E.06238
G1 X116.206 Y101.62 E.00444
G1 F2244.667
G1 X116.369 Y101.547 E.00465
G1 F2255.584
G1 X116.574 Y101.339 E.00761
G1 F2441.121
G1 X117.77 Y99.35 E.06047
G1 F2680.989
G1 X119.35 Y97.77 E.05822
G1 F2479.217
G1 X121.339 Y96.574 E.06047
G1 F2330.512
G1 X121.395 Y96.536 E.00176
G1 F2316.527
G1 X121.587 Y96.296 E.00801
G1 F2306.548
G1 X121.643 Y96.037 E.0069
G1 X121.643 Y93.643 E.06238
G1 F2323.044
G1 X128.357 Y93.643 E.17494
G1 F2240.246
G1 X128.357 Y96.037 E.06238
G1 X128.38 Y96.206 E.00444
G1 F2244.668
G1 X128.453 Y96.369 E.00465
G1 F2255.585
G1 X128.661 Y96.574 E.00761
G1 F2441.122
G1 X130.65 Y97.77 E.06047
G1 F2680.989
G1 X132.23 Y99.35 E.05822
G1 F2479.219
G1 X133.426 Y101.339 E.06047
G1 F2330.514
G1 X133.464 Y101.395 E.00176
G1 F2316.529
G1 X133.704 Y101.587 E.00801
G1 F2306.55
G1 X133.963 Y101.643 E.0069
G1 X136.357 Y101.643 E.06238
G1 F2378.504
G1 X136.357 Y108.357 E.17494
G1 F2240.246
G1 X133.963 Y108.357 E.06238
G1 X133.794 Y108.38 E.00444
G1 F2244.668
G1 X133.631 Y108.453 E.00465
G1 F2255.585
G1 X133.426 Y108.661 E.00761
G1 F2441.121
G1 X132.23 Y110.65 E.06047
G1 F2680.99
G1 X130.65 Y112.23 E.05822
G1 F2479.22
G1 X128.661 Y113.426 E.06047
G1 F2330.516
G1 X128.605 Y113.464 E.00176
G1 F2316.531
G1 X128.413 Y113.704 E.00801
G1 F2306.551
G1 X128.357 Y113.963 E.0069
G1 X128.357 Y116.357 E.06238
G1 F2323.044
G1 X121.643 Y116.357 E.17494
G1 F2240.246
G1 X121.643 Y113.963 E.06238
G1 X121.62 Y113.794 E.00444
G1 F2244.667
G1 X121.584 Y113.712 E.00233
M204 S1000
G1 X121.584 Y113.712 F10800
G1 X121.187 Y113.866
M204 S800
;TYPE:External perimeter
G1 F1500
G1 X121.124 Y113.784 E.00269
G1 X119.09 Y112.561 E.06184
G1 X117.439 Y110.91 E.06084
G1 X116.216 Y108.876 E.06184
G1 X116.194 Y108.846 E.00097
G1 X116.037 Y108.775 E.00449
G1 X113.225 Y108.775 E.07327
G1 X113.225 Y108.1 E.01759
G1 X113.225 Y101.9 E.16155
G1 X113.225 Y101.225 E.01759
G1 X116.037 Y101.225 E.07327
G1 X116.093 Y101.217 E.00147
G1 X116.216 Y101.124 E.00402
G1 X117.439 Y99.09 E.06184
G1 X119.09 Y97.439 E.06084
G1 X121.124 Y96.216 E.06184
G1 X121.154 Y96.194 E.00097
G1 X121.225 Y96.037 E.00449
G1 X121.225 Y93.225 E.07327
G1 X121.9 Y93.225 E.01759
G1 X128.1 Y93.225 E.16155
G1 X128.775 Y93.225 E.01759
G1 X128.775 Y96.037 E.07327
G1 X128.783 Y96.093 E.00147
G1 X128.876 Y96.216 E.00402
G1 X130.91 Y97.439 E.06184
G1 X132.561 Y99.09 E.06084
G1 X133.784 Y101.124 E.06184
G1 X133.806 Y101.154 E.00097
G1 X133.963 Y101.225 E.00449
G1 X136.775 Y101.225 E.07327
G1 X136.775 Y101.9 E.01759
G1 X136.775 Y108.1 E.16155
G1 X136.775 Y108.775 E.01759
G1 X133.963 Y108.775 E.07327
G1 X133.907 Y108.783 E.00147
G1 X133.784 Y108.876 E.00402
G1 X132.561 Y110.91 E.06184
G1 X130.91 Y112.561 E.06084
G1 X128.876 Y113.784 E.06184
G1 X128.846 Y113.806 E.00097
G1 X128.775 Y113.963 E.00449
G1 X128.775 Y116.775 E.07327
G1 X128.1 Y116.775 E.01759
G1 X121.9 Y116.775 E.16155
G1 X121.225 Y116.775 E.01759
G1 X121.225 Y113.963 E.07327
G1 X121.219 Y113.916 E.00123
M204 S1000
;WIPE_START
G1 F8640
G1 X121.187 Y113.866 E-.01371
G1 X121.124 Y113.784 E-.02388
G1 X119.09 Y112.561 E-.54802
G1 X117.821 Y111.292 E-.41439
;WIPE_END
G1 Z.55 F720
G1 X122.132 Y94.053 F10800
G1 Z.35 F720
G1 E1 F2100
;TYPE:Solid infill
;WIDTH:0.55137
G1 F4800
G1 X122.086 Y94.007 E.00211
G1 X122.024 Y94.024 E.00208
G1 X122.007 Y94.086 E.00208
G1 X122.053 Y94.132 E.00211
G1 X122.115 Y94.115 E.00208
G1 X122.115 Y94.115 F10800
G1 X121.882 Y94.932
;WIDTH:0.37219
G1 F4800
G1 X121.81 Y94.913 E.00158
G1 X121.83 Y94.984 E.00156
G1 X121.871 Y94.973 E.0009
;WIDTH:0.411095
G1 X121.945 Y94.878 E.00285
;WIDTH:0.449999
G1 X122.019 Y94.783 E.00314
G1 X122.783 Y94.019 E.02815
G1 X122.878 Y93.945 E.00314
;WIDTH:0.411095
